fang3a/FuN_TD3_Codex/hierarchical_td3_optimized_runs/optimized_all_stages_20260715_165906/slow_pretrain/20260715_175301/episode_log.csv
stage,episode,global_step,episode_return,manager_return,mean_step_reward,min_step_reward,max_step_reward,eval_return,best_eval_return,eval_solver_failures,eval_power_success_rate,eval_gas_success_rate,eval_mean_voltage_rms_deviation_pu,eval_mean_gas_pressure_rms_deviation_bar,fast_buffer_size,slow_buffer_size,manager_buffer_size,solver_failures,gas_solve_count,mean_action_projection,max_action_projection,mean_slow_action_projection,max_slow_action_projection,mean_fast_action_projection,max_fast_action_projection,mean_ess_action_guard,max_ess_action_guard,mean_goal_change,max_goal_change,mean_voltage_rms_deviation_pu,mean_gas_pressure_rms_deviation_bar,voltage_deviation_cost,gas_pressure_deviation_cost,voltage_violation_cost,gas_pressure_violation_cost,pipe_velocity_violation_cost,source_capacity_violation_cost,gas_purchase_cost,interaction_reward_estimated_clips,manager_reward_clips,fast_total_insertions,slow_total_insertions,manager_total_insertions,fast_update_count,slow_update_count,manager_update_count,fast_actor_update_count,slow_actor_update_count,manager_actor_update_count,fast_critic_update_count,slow_critic_update_count,manager_critic_update_count,nonfinite_batch_count,fast_normalizer_count,slow_normalizer_count,manager_normalizer_count,mean_target_q_clipping_ratio,mean_reward_clipping_ratio,mean_actor_action_saturation_ratio,fast_actor_action_abs_mean,slow_actor_action_abs_mean,fast_actor_reference_deviation_rms,slow_actor_reference_deviation_rms,fast_curtailment_action_mean
slow_pretrain,0,480,-21929.65849498532,-2167.046400451464,-45.68678853121937,-1045.5971835005907,-10.454531135461561,,-inf,,,,,,480,24,12,0,77,0.07388503574742682,0.4477470062225626,0.0,0.0,0.07388503572825963,0.44774702191352844,0.0,0.0,0.0,0.0,0.017942541429784367,0.5701620984688454,4814.739799209082,3901.191353520901,7162.777454444962,0.0,0.0,0.0,0.0,0,0,480,24,12,0,0,0,0,0,0,0,0,0,0,14400.000100000001,24.0001,0.0001,0.0,0.0,0.0,0.0,0.0,0.0,0.0,0.0
slow_pretrain,1,960,-19263.607154523328,-2179.8115467243274,-40.13251490525692,-292.4538528485047,-10.871012907620809,,-inf,,,,,,960,48,24,0,75,0.06100132155117689,0.6129846259749819,0.0,0.0,0.06100132146384567,0.6129846572875977,0.0,0.0,0.0,0.0,0.015057453185661178,0.5699393193008746,3589.5004199603304,3898.1590546375032,3777.4498526151096,0.0,0.0,0.0,0.0,0,0,960,48,24,0,0,0,0,0,0,0,0,0,0,14400.000100000001,48.0001,0.0001,0.0,0.0,0.0,0.0,0.0,0.0,0.0,0.0
slow_pretrain,2,1440,-20293.23776424923,-2156.060873303248,-42.2775786755192,-237.1896524505694,-10.159784523548637,,-inf,,,,,,1440,72,36,0,76,0.03407953067722434,0.2215910736187596,0.0,0.0,0.03407953132021551,0.2215910702943802,0.0,0.0,0.0,0.0,0.016830844750892186,0.5696096909779329,4338.415935843029,3893.6312824287033,5177.076449349389,0.0,0.0,0.0,0.0,0,0,1440,72,36,0,0,0,0,0,0,0,0,0,0,14400.000100000001,72.0001,0.0001,0.0,0.0,0.0,0.0,0.0,0.0,0.0,0.0
slow_pretrain,3,1920,-18415.39986743403,-2178.3761835598148,-38.36541639048757,-141.35530534020023,-12.194915705496804,,-inf,,,,,,1920,96,48,0,80,0.007134622332603949,0.2296323497685374,0.0,0.0,0.007134622459610303,0.22963237762451172,0.0,0.0,0.0,0.0,0.017342086837683648,0.5696515540570167,4691.913961568427,3894.203931425491,1073.2722764948928,0.0,0.0,0.0,0.0,0,0,1920,96,48,0,0,0,0,0,0,0,0,0,0,14400.000100000001,96.0001,0.0001,0.0,0.0,0.0,0.0,0.0,0.0,0.0,0.0
slow_pretrain,4,2400,-15529.549238904207,-1902.9389102108512,-32.35322758105041,-104.88081821038072,-12.43968807465579,-21193.388724980363,-21193.388724980363,0.0,1.0,1.0,0.020395183347636875,0.6244094066665652,2400,120,60,0,83,0.01571538571803332,0.3563466079912181,0.0,0.0,0.015715385880321266,0.35634663701057434,0.0,0.0,0.0,0.0,0.01599493189869618,0.582326804053761,3769.9506245924827,4073.3146159717335,204.65639219234663,64.68106959036498,0.0,0.0,0.0,0,0,2400,120,60,0,0,0,0,0,0,0,0,0,0,14400.000100000001,120.0001,0.0001,0.0,0.0,0.0,0.0,0.0,0.0,0.0,0.0
slow_pretrain,5,2880,-29763.178622166917,-4305.064684059108,-62.0066221295144,-447.89955984474807,-14.423328805904038,,-21193.388724980363,,,,,,2880,144,72,0,75,0.00042860624342109073,0.05834963865131759,1.2417634941142008e-10,5.960464477539063e-08,0.00042860619723796847,0.058349609375,0.6787910299996535,1.237318754196167,0.0,0.0,0.0206580989512191,0.6177713664882066,6627.5837754315535,4601.3620433983615,9251.791308136784,1212.4160705616832,0.0,0.0,0.0,0,0,2880,144,72,0,0,0,0,0,0,0,0,0,0,14400.000100000001,144.0001,0.0001,0.0,0.0,0.0,0.0,0.0,0.0,0.0,0.0
slow_pretrain,6,3360,-19999.4387478101,-3782.9437846096403,-41.66549739127101,-294.04613672776696,-10.210544691444877,,-21193.388724980363,,,,,,3360,168,84,0,80,0.0018789552145178788,0.19169223367040145,8.692344029744466e-10,1.4901161193847656e-07,0.0018789542295659582,0.19169223308563232,0.663988508284092,1.2089592218399048,0.0,0.0,0.017816937372760102,0.5964922526501023,5176.533272114366,4303.262387893993,2528.8657233447184,871.5044416202992,0.0,0.0,0.0,0,0,3360,168,84,0,0,0,0,0,0,0,0,0,0,14400.000100000001,168.0001,0.0001,0.0,0.0,0.0,0.0,0.0,0.0,0.0,0.0
slow_pretrain,7,3840,-20183.76942207319,-3714.4524460979123,-42.049519629319136,-218.18712185059758,-13.100375228055636,,-21193.388724980363,,,,,,3840,192,96,0,81,0.009254306863498492,0.1837664376080991,9.409356608684286e-10,1.7881393432617188e-07,0.009254306061969449,0.1837664395570755,0.6412712950259447,1.1458804607391357,0.0,0.0,0.018262178078861654,0.5922823817998389,5184.683644554397,4240.5298866881885,2741.853182143927,741.466100818756,0.0,0.0,0.0,0,0,3840,192,96,0,0,0,0,0,0,0,0,0,0,14400.000100000001,192.0001,0.0001,0.0,0.0,0.0,0.0,0.0,0.0,0.0,0.0
slow_pretrain,8,4320,-46612.73137680714,-4027.605989869766,-97.10985703501477,-2400.3035987423605,-10.564841829715432,,-21193.388724980363,,,,,,4320,216,108,0,85,0.029852331381139772,0.34352641589184285,1.7384688160681136e-09,5.960464477539062e-07,0.0298523307700331,0.3435264229774475,0.5144929600258669,1.273189902305603,0.0,0.0,0.022515787652921407,0.5720116199689208,8040.134670568125,3964.2040276849366,27334.24162698438,556.0963412072065,0.0,0.0,0.0,0,0,4320,216,108,0,0,0,0,0,0,0,0,0,0,14400.000100000001,216.0001,0.0001,0.0,0.0,0.0,0.0,0.0,0.0,0.0,0.0
slow_pretrain,9,4800,-43051.337264250054,-4089.3325180277343,-89.69028596718765,-1782.6751983108543,-9.37956841459567,-21463.88503858747,-21463.88503858747,0.0,1.0,1.0,0.018888907312028677,0.575348840993771,4800,240,120,0,80,0.02321209920711674,0.19326308336549458,1.6142924626668295e-09,3.5762786865234375e-07,0.023212098081906638,0.19326308369636536,0.47952449321746826,1.1829715967178345,0.0,0.0,0.02076207715988758,0.5785242642037791,7081.690228113908,4052.30379733717,25076.593713311846,714.551054123112,0.0,0.0,0.0,0,0,4800,240,120,0,0,0,0,0,0,0,0,0,0,14400.000100000001,240.0001,0.0001,0.0,0.0,0.0,0.0,0.0,0.0,0.0,0.0
slow_pretrain,10,5280,-62633.45993411481,-4938.693664470468,-130.4863748627392,-1353.0565483948087,-14.588146196588575,,-21463.88503858747,,,,,,5280,264,132,0,80,0.015692985443780373,0.35867217059659695,5.051494185911073e-10,1.7881393432617188e-07,0.015692984823059912,0.358672171831131,0.5520455775161585,1.3006281852722168,0.0,0.0,0.02264224418755017,0.6062301724508683,8633.339238442757,4439.768659060282,41654.24704574802,1129.0413333861623,0.0,0.0,0.0,0,0,5280,264,132,0,18,0,0,9,0,0,18,0,0,14400.000100000001,264.0001,0.0001,0.0,0.0,0.0,0.0,0.3926351699564192,0.0,0.5589538150363498,0.0
slow_pretrain,11,5760,-65972.22924928839,-6948.327373493822,-137.4421442693508,-748.671592201405,-41.4706601823994,,-21463.88503858747,,,,,,5760,288,144,0,81,0.0032301957352544835,0.11307013924226228,4.656614783586181e-10,1.341104507446289e-07,0.0032301954925060272,0.11307013034820557,0.9958400093019009,1.6782536506652832,0.0,0.0,0.027192697955293808,0.7271687833139521,11558.681472485177,6347.015546460446,31773.502326512127,8747.503052145988,0.0,0.0,0.0,0,0,5760,288,144,0,66,0,0,33,0,0,66,0,0,14400.000100000001,288.0001,0.0001,0.0,0.0,0.01582031248350783,0.0,0.6147653410832087,0.0,0.8746703887979189,0.0
slow_pretrain,12,6240,-184784.7011464239,-8295.6367405884,-384.96812738838304,-4142.818955839499,-45.257147705947574,,-21463.88503858747,,,,,,6240,312,156,0,78,0.007974459875648876,0.20223193610654905,1.241763432820638e-10,5.960464477539063e-08,0.00797445997595787,0.20223194360733032,1.50849582751592,1.7320507764816284,0.0,0.0,0.029881674342735507,0.734278150118192,15458.773398480493,6470.945123061797,146498.11049228234,9418.424866822013,0.0,0.0,0.0,0,0,6240,312,156,0,114,0,0,57,0,0,114,0,0,14400.000100000001,312.0001,0.0001,0.0,0.0,0.3449218813329935,0.0,0.8794606253504753,0.0,1.1248018443584442,0.0
slow_pretrain,13,6720,-200978.10299644654,-7175.213672663213,-418.7043812425972,-4967.3185494060135,-43.7633174129948,,-21463.88503858747,,,,,,6720,336,168,0,83,0.004359402711768897,0.09568992770579926,1.7561186578992268e-10,8.429369557916289e-08,0.004359402521125351,0.09568992257118225,1.5185611844062805,1.7257136106491089,0.0,0.0,0.02789980690424695,0.7226249839572189,13753.388462660107,6267.122657922259,166440.72427562063,8085.679693430921,0.0,0.0,0.0,0,0,6720,336,168,0,162,0,0,81,0,0,162,0,0,14400.000100000001,336.0001,0.0001,0.0,0.0,0.7469401210546494,0.0,0.9774428258339564,0.0,1.1480419884125392,0.0
slow_pretrain,14,7200,-205615.83660100325,-5191.833108809494,-428.3663262520902,-5275.20565548634,-28.189502429576624,-59573.1310565728,-59573.1310565728,0.0,1.0,1.0,0.022755077239604047,0.4683645704802675,7200,360,180,0,82,0.00023865383687173176,0.027607881272285972,3.7252902984619143e-10,1.7881393432617188e-07,0.0002386532723903656,0.027607858180999756,1.54463525613149,1.7320507764816284,0.0,0.0,0.02626624991785251,0.565089897324343,12414.136635573042,3949.092143444938,179658.7225719147,1839.3758097216082,0.0,0.0,0.0,0,0,7200,360,180,0,210,0,0,105,0,0,210,0,0,14400.000100000001,360.0001,0.0001,0.0,0.0,0.6174479300777117,0.0,0.9310932258764902,0.0,1.1057176689306896,0.0
slow_pretrain,15,7680,-47256.02318781909,-3637.5882585754516,-98.45004830795642,-1241.4496671178692,-10.033140611207292,,-59573.1310565728,,,,,,7680,384,192,0,81,0.005116519924858994,0.17353403372351384,8.071462313334147e-10,2.086162567138672e-07,0.005116518959403038,0.17353403568267822,1.2680576865871747,1.7320507764816284,0.0,0.0,0.02156326844910369,0.4718589242226024,7714.980522983908,2672.140566531872,29987.260027373697,0.0,0.0,0.0,0.0,0,0,7680,384,192,0,258,0,0,129,0,0,258,0,0,14400.000100000001,384.0001,0.0001,0.0,0.0,0.349869800110658,0.0,0.8235564157366753,0.0,1.0489145418008168,0.0
slow_pretrain,16,8160,-73779.93878623626,-4897.188765362882,-153.7082058046588,-1292.620131571506,-10.609778162167183,,-59573.1310565728,,,,,,8160,408,204,0,83,0.005130477849181003,0.10649164931344661,7.45058071719799e-10,2.980232238769531e-07,0.005130477156490088,0.10649165511131287,1.1263669679562252,1.5466479063034058,0.0,0.0,0.02137234289750633,0.47946208368540794,7479.0862196760045,2759.3710064359543,57018.542099539176,0.0,0.0,0.0,0.0,0,0,8160,408,204,0,306,0,0,153,0,0,306,0,0,14400.000100000001,408.0001,0.0001,0.0,0.0,0.32578125409781933,0.0,0.8130512709418932,0.0,1.0225619301199913,0.0
slow_pretrain,17,8640,-14404.112186114056,-3473.041000101813,-30.008567054404313,-979.956807466895,-9.56972175434929,,-59573.1310565728,,,,,,8640,432,216,0,80,1.1920969776436668e-10,5.7220491012088814e-08,1.241763432820638e-10,5.960464477539063e-08,0.0,0.0,1.4385213951269786,1.7320507764816284,0.0,0.0,0.014373503825654398,0.4850533480169086,3397.2302785300753,2823.5079821875606,1483.5572163749205,0.0,0.0,0.0,0.0,0,0,8640,432,216,0,354,0,0,177,0,0,354,0,0,14400.000100000001,432.0001,0.0001,0.0,0.0,0.6119791766007742,0.0,0.9415133347113928,0.0,1.0466093147794406,0.0
slow_pretrain,18,9120,-16506.269774374065,-3630.6892050709357,-34.38806202994594,-1604.7237891610723,-10.418456225839698,,-59573.1310565728,,,,,,9120,456,228,0,76,1.6858770153159832e-10,8.092194497703134e-08,1.7561188151808219e-10,8.429369557916289e-08,0.0,0.0,1.5839366937677066,1.7320507764816284,0.0,0.0,0.014412727999762733,0.48586518434848913,3495.353913705047,2832.8811180936987,3355.4821344967104,0.0,0.0,0.0,0.0,0,0,9120,456,228,0,402,0,0,201,0,0,402,0,0,14400.000100000001,456.0001,0.0001,0.0,0.0,0.8921875134110451,0.0,0.9893256276845932,0.0,1.0653697078426678,0.0
slow_pretrain,19,9600,-16959.377320629177,-3651.000141445834,-35.332036084644145,-1627.325513677238,-9.11061288616946,-17414.01025428987,-17414.01025428987,0.0,1.0,1.0,0.014397900425619658,0.4835154844065219,9600,480,240,0,83,1.6858777642669661e-10,8.092196837141236e-08,1.7561186578992268e-10,8.429369557916289e-08,0.0,0.0,1.5570317233602207,1.7320507764816284,0.0,0.0,0.014408426888855708,0.48683687503177636,3589.770745407047,2844.3758897268335,3687.104677600379,0.0,0.0,0.0,0.0,0,0,9600,480,240,0,450,0,0,225,0,0,450,0,0,14400.000100000001,480.0001,0.0001,0.0,0.0,0.9590494856238365,0.0,0.9935000116626421,0.0,1.063882514834404,0.0
slow_pretrain,20,10080,-17525.254506225014,-3680.997305880895,-36.5109468879688,-1677.167227442357,-9.475447582471222,,-17414.01025428987,,,,,,10080,504,252,0,80,1.6858778613423816e-10,8.092196813589842e-08,1.7561187735474586e-10,8.429369557916289e-08,0.0,0.0,1.5787192309896152,1.7320507764816284,0.0,0.0,0.014276258582256436,0.4878115801934186,3566.433884536658,2855.87108735763,4208.945398127289,0.0,0.0,0.0,0.0,0,0,10080,504,252,0,498,0,0,249,0,0,498,0,0,14400.000100000001,504.0001,0.0001,0.0,0.0,0.9788411582509676,0.0,0.9954287881652514,0.0,1.0213633204499881,0.0
slow_pretrain,21,10560,-15591.952574694582,-3592.9017879263047,-32.48323453061371,-1362.1296454327526,-9.097952812741632,,-17414.01025428987,,,,,,10560,528,264,0,89,1.685878292084881e-10,8.092197135458894e-08,1.7561187735474586e-10,8.429369557916289e-08,0.0,0.0,1.5849775771299999,1.7320507764816284,0.0,0.0,0.014102079187937908,0.4854832020068624,3387.5891750794144,2828.450039474615,2550.387671941707,0.0,0.0,0.0,0.0,0,0,10560,528,264,0,546,0,0,273,0,0,546,0,0,14400.000100000001,528.0001,0.0001,0.0,0.0,0.9873698030908903,0.0,0.9965143476923307,0.0,1.0095242882768314,0.0
slow_pretrain,22,11040,-16768.198850563254,-3641.9919093515114,-34.93374760534013,-1611.08248585808,-10.304157629705518,,-17414.01025428987,,,,,,11040,552,276,0,81,1.6858766578027032e-10,8.092197119757965e-08,1.7561187735474586e-10,8.429369557916289e-08,0.0,0.0,1.5783387248714764,1.7320507764816284,0.0,0.0,0.014350936365082686,0.48484563536578723,3510.8000346930367,2821.002392955543,3660.8343527148154,0.0,0.0,0.0,0.0,0,0,11040,552,276,0,594,0,0,297,0,0,594,0,0,14400.000100000001,552.0001,0.0001,0.0,0.0,0.9902343824505806,0.0,0.9972454383969307,0.0,0.9941104551156362,0.0
slow_pretrain,23,11520,-17297.935283665793,-3671.2846557383623,-36.03736517430372,-1580.981750565882,-9.81691024616262,,-17414.01025428987,,,,,,11520,576,288,0,87,1.685877026111062e-10,8.092194497703134e-08,1.7561187735474586e-10,8.429369557916289e-08,0.0,0.0,1.582077180345853,1.7320507764816284,0.0,0.0,0.014599815222900808,0.4854253030275082,3700.4496096587177,2827.7971644477507,3914.8292076434864,0.0,0.0,0.0,0.0,0,0,11520,576,288,0,642,0,0,321,0,0,642,0,0,14400.000100000001,576.0001,0.0001,0.0,0.0,0.9958333422740301,0.0,0.9978993187348048,0.0,0.9669381280740103,0.0
slow_pretrain,24,12000,-17509.115967058086,-3670.77357455086,-36.47732493137103,-1694.956310461336,-9.359065050174506,-17471.562873734176,-17414.01025428987,0.0,1.0,1.0,0.014400246287562852,0.48347447222991907,12000,600,300,0,75,1.6858756931848767e-10,8.092191600883066e-08,1.7561187735474586e-10,8.429369557916289e-08,0.0,0.0,1.5700822447737057,1.7320507764816284,0.0,0.0,0.014454597804619341,0.4844464937949817,3616.995737775868,2816.323695184964,4271.546272243261,0.0,0.0,0.0,0.0,0,0,12000,600,300,0,690,0,0,345,0,0,690,0,0,14400.000100000001,600.0001,0.0001,0.0,0.0,0.9989583368102709,0.0,0.9983881364266077,0.0,0.9597468400994936,0.0
slow_pretrain,25,12480,-15985.164490082578,-3611.5022179834987,-33.302426021005395,-1305.8018737879997,-10.139357277651492,,-17414.01025428987,,,,,,12480,624,312,0,79,1.6858769669092737e-10,8.0921942661145e-08,1.7561187735474586e-10,8.429369557916289e-08,0.0,0.0,1.589178281525771,1.7320507764816284,0.0,0.0,0.01428875035043428,0.4854725531340514,3477.2654078401897,2828.3641423208232,2845.5534694583516,0.0,0.0,0.0,0.0,0,0,12480,624,312,0,738,0,0,369,0,0,738,0,0,14400.000100000001,624.0001,0.0001,0.0,0.0,0.9988932386040688,0.0,0.9986963098247846,0.0,0.9417485346396764,0.0
slow_pretrain,26,12960,-16139.940603791185,-3622.7160896749706,-33.62487625789833,-1194.7803660622121,-10.081221278413464,,-17414.01025428987,,,,,,12960,648,324,0,85,1.6858752348339637e-10,8.092191895275302e-08,1.7561187735474586e-10,8.429369557916289e-08,0.0,0.0,1.5965784043073654,1.7320507764816284,0.0,0.0,0.014338384682498895,0.48517215254003293,3462.290647006821,2824.82389958254,3143.4061688356574,0.0,0.0,0.0,0.0,0,0,12960,648,324,0,786,0,0,393,0,0,786,0,0,14400.000100000001,648.0001,0.0001,0.0,0.0,0.9998697936534882,0.0,0.9989910597602526,0.0,0.9479643007119497,0.0
slow_pretrain,27,13440,-15984.784674473518,-3623.8045255761635,-33.30163473848644,-1441.11130059397,-10.242789388238004,,-17414.01025428987,,,,,,13440,672,336,0,81,1.6858767955145766e-10,8.092196986300064e-08,1.7561187365400243e-10,8.429369557916289e-08,0.0,0.0,1.5932465096314747,1.7320507764816284,0.0,0.0,0.014022782032974223,0.4852918496353541,3360.5057117314072,2826.231952680255,2876.412132387895,0.0,0.0,0.0,0.0,0,0,13440,672,336,0,834,0,0,417,0,0,834,0,0,14400.000100000001,672.0001,0.0001,0.0,0.0,1.0,0.0,0.999195841451486,0.0,0.9511567602554957,0.0
slow_pretrain,28,13920,-17615.89388581394,-3690.4987058202937,-36.699778928779075,-1613.3655569038845,-10.145851238964585,,-17414.01025428987,,,,,,13920,696,348,0,79,1.6858772840108183e-10,8.092199329662676e-08,1.7561187735474586e-10,8.429369557916289e-08,0.0,0.0,1.5947841952244441,1.7320507764816284,0.0,0.0,0.01421257445608416,0.48702037063203385,3506.960835214662,2846.5049266849865,4319.551489119847,0.0,0.0,0.0,0.0,0,0,13920,696,348,0,882,0,0,441,0,0,882,0,0,14400.000100000001,696.0001,0.0001,0.0,0.0,1.0,0.0,0.9993577525019646,0.0,0.9257716884215673,0.0
slow_pretrain,29,14400,-16782.53873623655,-3654.916253911919,-34.96362236715949,-1331.0792267294394,-9.795115527473111,-17507.831350869423,-17414.01025428987,0.0,1.0,1.0,0.01440032998378434,0.4834610620628165,14400,720,360,0,79,1.685875957823046e-10,8.092194497703134e-08,1.7561187735474586e-10,8.429369557916289e-08,0.0,0.0,1.5848052750031154,1.7320507764816284,0.0,0.0,0.014412801825298678,0.48579109726871045,3589.8734380017545,2832.0562395561305,3557.790507928567,0.0,0.0,0.0,0.0,0,0,14400,720,360,0,930,0,0,465,0,0,930,0,0,14400.000100000001,720.0001,0.0001,0.0,0.0,0.9998697936534882,0.0,0.999460019171238,0.0,0.9048074185848236,0.0
slow_pretrain,30,14880,-17244.19321402559,-3661.2501969499717,-35.925402529220015,-1692.716000288025,-10.762457328490905,,-17414.01025428987,,,,,,14880,744,372,0,81,1.6858765668903726e-10,8.092196837141236e-08,1.7561187735474586e-10,8.429369557916289e-08,0.0,0.0,1.5857780054211617,1.7320507764816284,0.0,0.0,0.014020430283035642,0.4863160466458832,3442.365506977211,2838.2118283459345,4168.625278292391,0.0,0.0,0.0,0.0,0,0,14880,744,372,0,978,0,0,489,0,0,978,0,0,14400.000100000001,744.0001,0.0001,0.0,0.0,1.0,0.0,0.9995659366250038,0.0,0.8886413971583048,0.0
slow_pretrain,31,15360,-14759.504374270362,-3555.0674376835013,-30.74896744639658,-928.9066126418409,-10.841426387625651,,-17414.01025428987,,,,,,15360,768,384,0,81,1.6858774955482527e-10,8.092194152282796e-08,1.7561187781733878e-10,8.429369557916289e-08,0.0,0.0,1.5665225957830746,1.7320507764816284,0.0,0.0,0.014635733101602603,0.4857139056616056,3617.738228410577,2831.09579149635,1469.516628670536,0.0,0.0,0.0,0.0,0,0,15360,768,384,0,1026,0,0,513,0,0,1026,0,0,14400.000100000001,768.0001,0.0001,0.0,0.0,1.0,0.0,0.9996474881966909,0.0,0.8985057224829992,0.0
slow_pretrain,32,15840,-16657.132743437753,-3644.5106396553606,-34.70235988216199,-1428.734114896304,-9.403426607233564,,-17414.01025428987,,,,,,15840,792,396,0,75,1.685878245222327e-10,8.092196837141236e-08,1.7561187735474586e-10,8.429369557916289e-08,0.0,0.0,1.5851563513278961,1.7320507764816284,0.0,0.0,0.014401237961221036,0.48545643254390425,3553.328834745489,2828.108174721252,3434.276921313539,0.0,0.0,0.0,0.0,0,0,15840,792,396,0,1074,0,0,537,0,0,1074,0,0,14400.000100000001,792.0001,0.0001,0.0,0.0,0.9998697936534882,0.0,0.9996906121571859,0.0,0.8740121399362882,0.0
slow_pretrain,33,16320,-16334.519833983166,-3633.7627630919806,-34.03024965413158,-1364.406179496621,-10.147562496283161,,-17414.01025428987,,,,,,16320,816,408,0,83,1.6858761365159844e-10,8.09219427003973e-08,1.7561186578992268e-10,8.429369557916289e-08,0.0,0.0,1.5829990282654762,1.7320507764816284,0.0,0.0,0.01456104569833106,0.48667301195084256,3590.7221033952233,2842.42938400003,3015.1432346526094,0.0,0.0,0.0,0.0,0,0,16320,816,408,0,1122,0,0,561,0,0,1122,0,0,14400.000100000001,816.0001,0.0001,0.0,0.0,1.0,0.0,0.9997398406267166,0.0,0.8920282498002052,0.0
slow_pretrain,34,16800,-16638.04634048157,-3623.3794648198855,-34.66259654266992,-1620.0840378801165,-9.63470563332668,-17518.013121704425,-17414.01025428987,0.0,1.0,1.0,0.014400412362668695,0.48345628492020554,16800,840,420,0,82,1.685878255214892e-10,8.092194262189269e-08,1.7561187735474586e-10,8.429369557916289e-08,0.0,0.0,1.5633649130662282,1.7320507764816284,0.0,0.0,0.014592830399205536,0.4855503185051503,3587.3639529145667,2829.2067685636557,3471.9436241981566,0.0,0.0,0.0,0.0,0,0,16800,840,420,0,1170,0,0,585,0,0,1170,0,0,14400.000100000001,840.0001,0.0001,0.0,0.0,1.0,0.0,0.9997747341791788,0.0,0.8783325999975204,0.0
slow_pretrain,35,17280,-16109.253906317346,-3630.427740972529,-33.56094563816116,-1218.8001071082256,-10.585420141772483,,-17414.01025428987,,,,,,17280,864,432,0,84,1.6858768184562225e-10,8.092194211161266e-08,1.7561187735474586e-10,8.429369557916289e-08,0.0,0.0,1.570421688258648,1.7320507764816284,0.0,0.0,0.014480276601225119,0.48486520189534155,3532.2905390043397,2821.2111251235933,2873.6890828360292,0.0,0.0,0.0,0.0,0,0,17280,864,432,0,1218,0,0,609,0,0,1218,0,0,14400.000100000001,864.0001,0.0001,0.0,0.0,0.9999348968267441,0.0,0.9997970312833786,0.0,0.849270318945249,0.0
slow_pretrain,36,17760,-16386.89326121714,-3624.783910231128,-34.13936096086906,-1533.0757157103694,-10.408126146413515,,-17414.01025428987,,,,,,17760,888,444,0,84,1.68587564809408e-10,8.092191907050992e-08,1.7561186578992268e-10,8.429369557916289e-08,0.0,0.0,1.5846516688664753,1.7320507764816284,0.0,0.0,0.014298804948242509,0.48462349654360626,3504.881880234274,2818.3851265627245,3266.4798979269694,0.0,0.0,0.0,0.0,0,0,17760,888,444,0,1266,0,0,633,0,0,1266,0,0,14400.000100000001,888.0001,0.0001,0.0,0.0,0.9998046904802322,0.0,0.9998143489162127,0.0,0.8570932472745577,0.0
slow_pretrain,37,18240,-16767.665913254572,-3643.543450960319,-34.932637319280346,-1342.5033092445021,-9.226067268597193,,-17414.01025428987,,,,,,18240,912,456,0,83,1.68587696548841e-10,8.092194219011728e-08,1.7561187735474586e-10,8.429369557916289e-08,0.0,0.0,1.5972499772906303,1.7320507764816284,0.0,0.0,0.014196045858126774,0.4856131292979143,3424.326494991434,2830.016662382387,3760.466164252746,0.0,0.0,0.0,0.0,0,0,18240,912,456,0,1314,0,0,657,0,0,1314,0,0,14400.000100000001,912.0001,0.0001,0.0,0.0,0.9998697936534882,0.0,0.9998338371515274,0.0,0.836124358077844,0.0
slow_pretrain,38,18720,-15866.303864687212,-3608.726586059526,-33.054799718098366,-1342.1016962847057,-9.034854113379582,,-17414.01025428987,,,,,,18720,936,468,0,82,1.6858780717435022e-10,8.092194140508523e-08,1.7561188151808219e-10,8.429369557916289e-08,0.0,0.0,1.5822918464740117,1.7320507764816284,0.0,0.0,0.014421289352622947,0.48571763960353204,3515.81346614531,2831.1630947245562,2632.9373902223233,0.0,0.0,0.0,0.0,0,0,18720,936,468,0,1362,0,0,681,0,0,1362,0,0,14400.000100000001,936.0001,0.0001,0.0,0.0,0.9998697936534882,0.0,0.9998450626929601,0.0,0.8248240600029627,0.0
slow_pretrain,39,19200,-17771.068161861112,-3685.1510858359297,-37.023058670543996,-1676.184029347638,-9.307261339284373,-17521.038883964455,-17414.01025428987,0.0,1.0,1.0,0.014400403852872072,0.4834547764487474,19200,960,480,0,85,1.6858765794717303e-10,8.092194497703134e-08,1.7561186995325903e-10,8.429369557916289e-08,0.0,0.0,1.5751105919480324,1.7320507764816284,0.0,0.0,0.014323498242080204,0.48554029172497576,3525.202161496332,2829.233021955781,4592.219551231851,0.0,0.0,0.0,0.0,0,0,19200,960,480,0,1410,0,0,705,0,0,1410,0,0,14400.000100000001,960.0001,0.0001,0.0,0.0,0.9994791721304258,0.0,0.9998260537783304,0.0,0.8239489570260048,0.0
slow_pretrain,40,19680,-16554.96220624468,-3645.0903287923697,-34.489504596343096,-1482.9922087576672,-10.227195249698314,,-17414.01025428987,,,,,,19680,984,492,0,78,1.6858765046967944e-10,8.092191506677552e-08,1.7561186995325903e-10,8.429369557916289e-08,0.0,0.0,1.5907230501373608,1.7320507764816284,0.0,0.0,0.01432174394009996,0.48613857564195406,3558.6885832848116,2836.1086441999546,3314.5842263328623,0.0,0.0,0.0,0.0,0,0,19680,984,492,0,1458,0,0,729,0,0,1458,0,0,14400.000100000001,984.0001,0.0001,0.0,0.0,0.9992187569538752,0.0,0.99969332665205,0.0,0.8212566946943601,0.0
slow_pretrain,41,20160,-16388.61606488218,-3629.96972630212,-34.1429501351712,-1554.6596421776946,-10.810207053876056,,-17414.01025428987,,,,,,20160,1008,504,0,78,1.6858779657379196e-10,8.092196954898205e-08,1.7561188151808219e-10,8.429369557916289e-08,0.0,0.0,1.579297348856926,1.7320507764816284,0.0,0.0,0.014283230859843997,0.48670770303530053,3490.589575094761,2842.820176369678,3179.296923285467,0.0,0.0,0.0,0.0,0,0,20160,1008,504,0,1506,0,0,753,0,0,1506,0,0,14400.000100000001,1008.0001,0.0001,0.0,0.0,0.9986328159769376,0.0,0.9997180476784706,0.0,0.8185199523965517,0.0
slow_pretrain,42,20640,-17387.126318067687,-3671.8043000886078,-36.223179829307696,-1733.3766071665389,-9.739440361864318,,-17414.01025428987,,,,,,20640,1032,516,0,81,1.685876727024702e-10,8.092194497703134e-08,1.7561186578992268e-10,8.429369557916289e-08,0.0,0.0,1.5756974692145984,1.7320507764816284,0.0,0.0,0.014223246720561553,0.48579284823774216,3534.8928560260765,2832.0392121505765,4181.278119214646,0.0,0.0,0.0,0.0,0,0,20640,1032,516,0,1554,0,0,777,0,0,1554,0,0,14400.000100000001,1032.0001,0.0001,0.0,0.0,0.9972005287806193,0.0,0.9996569653352102,0.0,0.8272141814231873,0.0
slow_pretrain,43,21120,-15555.018461453741,-3599.8376698202946,-32.406288461361974,-1171.793776973294,-9.696645034212388,,-17414.01025428987,,,,,,21120,1056,528,0,82,1.6858772034265214e-10,8.092196809664608e-08,1.7561186578992268e-10,8.429369557916289e-08,0.0,0.0,1.5787608325481415,1.7320507764816284,0.0,0.0,0.014888037810530101,0.48540344677219377,3671.7343548663525,2827.4882436164835,2117.4265403285585,0.0,0.0,0.0,0.0,0,0,21120,1056,528,0,1602,0,0,801,0,0,1602,0,0,14400.000100000001,1056.0001,0.0001,0.0,0.0,0.996940108637015,0.0,0.9995423033833504,0.0,0.8281498377521833,0.0
slow_pretrain,44,21600,-16386.159859305004,-3642.5365473229226,-34.137833040218794,-1348.6538614068318,-9.507571795781406,-17522.58194031403,-17414.01025428987,0.0,1.0,1.0,0.014400411352223747,0.48345371718075114,21600,1080,540,0,79,1.6858770731704146e-10,8.092194497703134e-08,1.7561186578992268e-10,8.429369557916289e-08,0.0,0.0,1.5838112557927768,1.7320507764816284,0.0,0.0,0.01409707504923755,0.48695544237625615,3392.7048408833275,2845.7466408173364,3253.0477221663273,0.0,0.0,0.0,0.0,0,0,21600,1080,540,0,1650,0,0,825,0,0,1650,0,0,14400.000100000001,1080.0001,0.0001,0.0,0.0,0.9975911527872086,0.0,0.9993540371457735,0.0,0.8116011818250021,0.0
slow_pretrain,45,22080,-17083.9164659361,-3655.3575893809702,-35.59149263736687,-1520.1459540037454,-9.872774502708365,,-17414.01025428987,,,,,,22080,1104,552,0,77,1.6858753432063593e-10,8.092191361443843e-08,1.7561186578992268e-10,8.429369557916289e-08,0.0,0.0,1.586623191833496,1.7320507764816284,0.0,0.0,0.014310581194257786,0.4854450855548644,3498.371824465917,2827.9883032059406,3964.6298633661872,0.0,0.0,0.0,0.0,0,0,22080,1104,552,0,1698,0,0,849,0,0,1698,0,0,14400.000100000001,1104.0001,0.0001,0.0,0.0,0.9966796984275182,0.0,0.9995196287830671,0.0,0.8008386716246605,0.0
slow_pretrain,46,22560,-16002.266243088416,-3625.6622573638783,-33.3380546731009,-1288.9313289730499,-10.698069017821052,,-17414.01025428987,,,,,,22560,1128,564,0,78,1.6858749178558686e-10,8.092191494901677e-08,1.7561187365400243e-10,8.429369557916289e-08,0.0,0.0,1.5774770652254422,1.7276957035064697,0.0,0.0,0.014246095811777602,0.4855453428636538,3503.0045633286127,2829.199200294654,2715.3802746163724,0.0,0.0,0.0,0.0,0,0,22560,1128,564,0,1746,0,0,873,0,0,1746,0,0,14400.000100000001,1128.0001,0.0001,0.0,0.0,0.9937500109275182,0.0,0.9989157418409983,0.0,0.7961314047376314,0.0
slow_pretrain,47,23040,-17977.23173468689,-3701.11776089477,-37.452566113930985,-1552.7288288231648,-10.626486620748462,,-17414.01025428987,,,,,,23040,1152,576,0,87,1.6858763006759676e-10,8.092194497703134e-08,1.7561187735474586e-10,8.429369557916289e-08,0.0,0.0,1.5880627532800038,1.7320507764816284,0.0,0.0,0.01444478901686788,0.48583343598831324,3574.94769860164,2832.6138004229383,4675.971878270397,0.0,0.0,0.0,0.0,0,0,23040,1152,576,0,1794,0,0,897,0,0,1794,0,0,14400.000100000001,1152.0001,0.0001,0.0,0.0,0.9959635436534882,0.0,0.9991229275862376,0.0,0.8022417674462,0.0
slow_pretrain,48,23520,-16460.08489845237,-3640.761997788826,-34.29184353844241,-1430.44455741702,-10.752828387744445,,-17414.01025428987,,,,,,23520,1176,588,0,82,1.6858768292577917e-10,8.092194497703134e-08,1.7561187735474586e-10,8.429369557916289e-08,0.0,0.0,1.5887386351823807,1.7320507764816284,0.0,0.0,0.014104010269748586,0.48542492833068834,3380.844244993095,2827.767898136797,3461.831547993713,0.0,0.0,0.0,0.0,0,0,23520,1176,588,0,1842,0,0,921,0,0,1842,0,0,14400.000100000001,1176.0001,0.0001,0.0,0.0,0.9942708437641462,0.0,0.9991273457805315,0.0,0.7871964524189631,0.0
slow_pretrain,49,24000,-17101.4017141793,-3651.875971772853,-35.627920237873575,-1603.771301454874,-9.886481893866087,-17523.308070301373,-17414.01025428987,0.0,1.0,1.0,0.01440039638116907,0.4834529799664227,24000,1200,600,0,79,1.6858762884795087e-10,8.092194497703134e-08,1.7561187735474586e-10,8.429369557916289e-08,0.0,0.0,1.596633938451608,1.7320507764816284,0.0,0.0,0.01477242758775848,0.4858728206866605,3687.541601552629,2833.0489096930933,3813.9269187248715,0.0,0.0,0.0,0.0,0,0,24000,1200,600,0,1890,0,0,945,0,0,1890,0,0,14400.000100000001,1200.0001,0.0001,0.0,0.0,0.9955729270974795,0.0,0.999154602487882,0.0,0.8005083426833153,0.0
