fang3a/FuN_TD3_Codex/hierarchical_td3_optimized_runs/optimized_all_stages_20260714_183845/joint_finetune/20260714_201529/episode_log.csv
stage,episode,global_step,episode_return,manager_return,mean_step_reward,min_step_reward,max_step_reward,eval_return,best_eval_return,eval_solver_failures,eval_power_success_rate,eval_gas_success_rate,eval_mean_voltage_rms_deviation_pu,eval_mean_gas_pressure_rms_deviation_bar,fast_buffer_size,slow_buffer_size,manager_buffer_size,solver_failures,gas_solve_count,mean_action_projection,max_action_projection,mean_slow_action_projection,max_slow_action_projection,mean_fast_action_projection,max_fast_action_projection,mean_ess_action_guard,max_ess_action_guard,mean_goal_change,max_goal_change,mean_voltage_rms_deviation_pu,mean_gas_pressure_rms_deviation_bar,voltage_deviation_cost,gas_pressure_deviation_cost,voltage_violation_cost,gas_pressure_violation_cost,pipe_velocity_violation_cost,source_capacity_violation_cost,gas_purchase_cost,interaction_reward_estimated_clips,manager_reward_clips,fast_total_insertions,slow_total_insertions,manager_total_insertions,fast_update_count,slow_update_count,manager_update_count,fast_actor_update_count,slow_actor_update_count,manager_actor_update_count,fast_critic_update_count,slow_critic_update_count,manager_critic_update_count,nonfinite_batch_count,fast_normalizer_count,slow_normalizer_count,manager_normalizer_count,mean_target_q_clipping_ratio,mean_reward_clipping_ratio,mean_actor_action_saturation_ratio
joint_finetune,0,480,-398793.0424626901,-398793.0424626901,-830.8188384639391,-21292.810991925093,-13.814099512788308,,-inf,,,,,,480,24,12,0,77,0.042128815323167354,0.7148104883601661,0.0,0.0,0.04212881503238653,0.7148104906082153,0.0,0.0,0.24748920987952838,0.3514457046985626,0.03280228306689587,0.5693164794679029,18313.025757589632,3889.61804329355,367516.27439997345,0.0,0.0,0.0,0.0,0,5,480,24,12,0,0,0,0,0,0,0,0,0,0,19680.0001,864.0001,248.0001,0.0,0.0,0.0
joint_finetune,1,960,-491964.459368613,-491964.459368613,-1024.9259570179431,-18432.63311489752,-14.051056014355392,,-inf,,,,,,960,48,24,0,75,0.05610387343910051,0.6176600560196981,0.0,0.0,0.05610387313766599,0.6176600456237793,0.0,0.0,0.25209732353687286,0.3673165440559387,0.03461580255742301,0.5689680604789987,20684.345263455314,3884.928491366649,458137.14538728655,0.0,0.0,0.0,0.0,0,5,960,48,24,0,0,0,0,0,0,0,0,0,0,20160.0001,888.0001,248.0001,0.0,0.0,0.0
joint_finetune,2,1440,-373109.43378892227,-373109.43378892227,-777.311320393588,-20704.454307060278,-17.097249749438983,,-inf,,,,,,1440,72,36,0,76,0.047215128699648425,0.5580894739152815,0.0,0.0,0.0472151281661354,0.5580894947052002,0.0,0.0,0.22656571729616684,0.34867191314697266,0.03197611125707588,0.5692052560944469,17638.975551459396,3888.1212181773726,342343.59668778436,0.0,0.0,0.0,0.0,0,4,1440,72,36,0,0,0,0,0,0,0,0,0,0,20640.0001,912.0001,248.0001,0.0,0.0,0.0
joint_finetune,3,1920,-168840.65523731458,-168840.65523731458,-351.7513650777389,-12331.712709856667,-18.065416872600025,,-inf,,,,,,1920,96,48,0,80,0.0387360860452713,0.5516368583378062,0.0,0.0,0.03873608553549275,0.5516368746757507,0.0,0.0,0.2558576383373954,0.379690945148468,0.02753544214411026,0.5699787158614019,12098.779077754916,3898.7215028383957,143133.31893246318,0.0,0.0,0.0,0.0,0,1,1920,96,48,0,0,0,0,0,0,0,0,0,0,21120.0001,936.0001,248.0001,0.0,0.0,0.0
joint_finetune,4,2400,-338195.71373795305,-338195.71373795305,-704.574403620735,-4302.314128229964,-24.00124686606168,-82840.16512280364,-82840.16512280364,0.0,1.0,1.0,0.026043339945659133,0.47718299898315814,2400,120,60,0,83,0.22548933555700204,0.8839938610308734,1.552204452933322e-10,7.450580596923828e-08,0.22548933373376107,0.8839938640594482,0.30174287036061287,1.0653680562973022,0.16114145652814346,0.2732645869255066,0.03379299910603122,0.5461912715821675,16890.68315919537,3586.028754886068,303587.0190423011,0.0,0.0,0.0,0.0,0,3,2400,120,60,0,0,0,0,0,0,0,0,0,0,21600.0001,960.0001,256.0001,0.0,0.0,0.0
joint_finetune,5,2880,-74605.35484449701,-74605.35484449701,-155.42782259270214,-1381.1597379177488,-24.053270825409374,,-82840.16512280364,,,,,,2880,144,72,0,75,0.3203036448597761,1.0877134548601297,1.3554040852644295e-10,6.505939609269262e-08,0.32030364479675577,1.0877134799957275,1.4579458857576053,1.7320507764816284,0.0034135765057395806,0.018121005967259407,0.025587497927282966,0.48276455276919195,9735.49324539806,2797.6180425434386,51218.59103729488,0.0,0.0,0.0,0.0,0,0,2880,144,72,0,0,0,0,0,0,0,0,0,0,22080.0001,984.0001,268.0001,0.0,0.0,0.0
joint_finetune,6,3360,-87326.47209049376,-87326.47209049376,-181.93015018852915,-3951.698804614424,-23.062852695921492,,-82840.16512280364,,,,,,3360,168,84,0,80,0.309645442569785,1.0623293979406023,1.7561187735474586e-10,8.429369557916289e-08,0.309645440945557,1.0623292922973633,1.556928110619386,1.7320507764816284,0.0006332723582586782,0.004266777075827122,0.024226388949388934,0.47823262081887885,8552.165041919532,2744.5209047134954,64711.62862126172,0.0,0.0,0.0,0.0,0,0,3360,168,84,0,0,0,0,0,0,0,0,0,0,22560.0001,1008.0001,280.0001,0.0,0.0,0.0
joint_finetune,7,3840,-159169.53994272652,-159169.53994272652,-331.60320821401376,-4538.298211497146,-23.48832354075068,,-82840.16512280364,,,,,,3840,192,96,0,81,0.30590354941296666,1.0811961195553925,1.7561187735474586e-10,8.429369557916289e-08,0.30590354874721015,1.0811960697174072,1.5485160946846008,1.7314186096191406,0.0006304971228184348,0.004023053217679262,0.026783441892743308,0.47853951272722833,10823.671549489916,2748.086849597503,134095.98982024455,0.0,0.0,0.0,0.0,0,2,3840,192,96,0,0,0,0,0,0,0,0,0,0,23040.0001,1032.0001,292.0001,0.0,0.0,0.0
joint_finetune,8,4320,-92562.8792997606,-92562.8792997606,-192.83933187450117,-1186.168930059968,-21.458674291563536,,-82840.16512280364,,,,,,4320,216,108,0,85,0.28751184837157,1.0631062482182856,1.7561186578992268e-10,8.429369557916289e-08,0.28751184664579343,1.0631061792373657,1.557621916135152,1.7320507764816284,0.0006108866298084401,0.0039151571691036224,0.02606100810815153,0.4783954952669023,9328.820038271942,2746.3837468073016,68201.6658534939,0.0,0.0,0.0,0.0,0,0,4320,216,108,0,0,0,0,0,0,0,0,0,0,23520.0001,1056.0001,304.0001,0.0,0.0,0.0
joint_finetune,9,4800,-132508.67437367394,-132508.67437367394,-276.05973827848726,-7840.868627913142,-22.7757890156414,-101150.80618602864,-82840.16512280364,0.0,1.0,1.0,0.026722151290725374,0.4773457799166729,4800,240,120,0,80,0.28758848992403324,1.0917811300627656,1.7561187735474586e-10,8.429369557916289e-08,0.2875884895406974,1.0917811393737793,1.5518744563062985,1.7320507764816284,0.0006111801181263713,0.0041228998452425,0.027348418234619025,0.47808581464014105,10599.765805272202,2742.8368896409193,106763.80153164521,0.0,0.0,0.0,0.0,0,1,4800,240,120,0,0,0,0,0,0,0,0,0,0,24000.0001,1080.0001,316.0001,0.0,0.0,0.0
joint_finetune,10,5280,-166587.2407508556,-166587.2407508556,-347.0567515642826,-8295.44876198079,-22.670531973296505,,-82840.16512280364,,,,,,5280,264,132,0,80,0.28626971919194943,1.0879344311854247,1.7561187735474586e-10,8.429369557916289e-08,0.28626971931080336,1.0879344940185547,1.5536314646402996,1.7320507764816284,0.0006593467829092829,0.004229267127811909,0.028078336858324622,0.47832811691605787,11400.690075646056,2745.688502517139,140126.32034800458,0.0,0.0,0.0,0.0,0,1,5280,264,132,281,18,20,141,9,10,281,18,20,0,24480.0001,1104.0001,328.0001,0.0,0.007018008474576272,0.47046345361208514
joint_finetune,11,5760,-152677.1094077811,-152677.1094077811,-318.0773112662104,-9121.2258917732,-24.03035670363342,,-82840.16512280364,,,,,,5760,288,144,0,81,0.2499429645211647,0.9110777884099299,1.7561187735474586e-10,8.429369557916289e-08,0.2499429638335035,0.9110777974128723,1.579382784664631,1.7320507764816284,0.000636513670377264,0.0037773349322378635,0.02677825446457572,0.478918312336999,10350.498120382956,2752.409674759938,125872.76645552578,0.0,0.0,0.0,0.0,0,1,5760,288,144,762,66,68,381,33,34,762,66,68,0,24960.0001,1128.0001,340.0001,0.0,0.009928070599613153,0.4658479851380538
joint_finetune,12,6240,-108443.96437543315,-108443.96437543315,-225.9249257821524,-2231.7043543106975,-22.052983946312583,,-82840.16512280364,,,,,,6240,312,156,0,78,0.2399666437659876,0.9136710333339269,1.7561186578992268e-10,8.429369557916289e-08,0.23996664384233857,0.9136710166931152,1.3263716648022335,1.5554242134094238,0.0007690343402580104,0.0037490378599613905,0.026695529036170496,0.4783362734097335,9632.710651396843,2745.6998045851055,82378.95294643544,0.0,0.0,0.0,0.0,0,0,6240,312,156,1243,114,116,622,57,58,1243,114,116,0,25440.0001,1152.0001,352.0001,0.0,0.009308510638297872,0.46864535534174345
joint_finetune,13,6720,-94656.76956663655,-94656.76956663655,-197.2016032638262,-1240.837222555508,-20.991615440674153,,-82840.16512280364,,,,,,6720,336,168,0,83,0.25218126645853023,0.9109394950201,1.7561187781733878e-10,8.429369557916289e-08,0.2521812665819501,0.9109394550323486,1.348939021428426,1.7102413177490234,0.0008795730351597409,0.003661080729216337,0.02509645919403598,0.47804801599659624,8740.868738218944,2742.3907207939737,69685.45027940405,0.0,0.0,0.0,0.0,0,0,6720,336,168,1724,162,164,862,81,82,1724,162,164,0,25920.0001,1176.0001,364.0001,0.0,0.01023029497098646,0.46761835924200207
joint_finetune,14,7200,-113617.2976953571,-113617.2976953571,-236.7027035319937,-1060.4154879067016,-24.44277953194372,-123114.31831824181,-82840.16512280364,0.0,1.0,1.0,0.027317844998450344,0.4771122238921257,7200,360,180,0,82,0.24639074946882383,0.8842492864966855,1.7561188753179024e-10,8.429369557916289e-08,0.2463907485449454,0.8842492699623108,1.4106165766716003,1.6401593685150146,0.0009692361028018323,0.003427488263696432,0.027056144896211557,0.4784571325641353,9844.497883346023,2747.084576070352,87041.68763641405,0.0,0.0,0.0,0.0,0,0,7200,360,180,2205,210,212,1103,105,106,2205,210,212,0,26400.0001,1200.0001,376.0001,0.0,0.008613394584139265,0.4694038441033612
joint_finetune,15,7680,-117738.11219290321,-117738.11219290321,-245.28773373521483,-1292.4180510983433,-24.402891786215548,,-82840.16512280364,,,,,,7680,384,192,0,81,0.24235520141169578,0.8939473640502997,1.7561187781733878e-10,8.429369557916289e-08,0.24235519864378147,0.8939473628997803,1.505498965581258,1.7281866073608398,0.0009317748296201568,0.004033586010336876,0.02713114130199219,0.4776920458784127,9872.64829625665,2738.2964130706564,90968.25885821736,0.0,0.0,0.0,0.0,0,0,7680,384,192,2686,258,260,1343,129,130,2686,258,260,0,26880.0001,1224.0001,388.0001,0.0,0.00905161992263056,0.46444160276501506
joint_finetune,16,8160,-130017.95428843412,-130017.95428843412,-270.8707381009042,-1231.974590351548,-25.937610692302595,,-82840.16512280364,,,,,,8160,408,204,0,83,0.24233593854489435,0.9033448595048749,1.7561186578992268e-10,8.429369557916289e-08,0.2423359380084245,0.9033448696136475,1.5785870850086212,1.7320079803466797,0.0006974389067512344,0.003600264200940728,0.02794513408404901,0.47793949160267724,10490.12678626131,2741.131578755637,102736.01264668445,0.0,0.0,0.0,0.0,0,0,8160,408,204,3167,306,308,1584,153,154,3167,306,308,0,27360.0001,1248.0001,400.0001,0.0,0.008477393617021276,0.46579056251902184
joint_finetune,17,8640,-4755916.261612945,-4755916.261612945,-9908.1588783603,-44313.81728170495,-23.507375736499153,,-82840.16512280364,,,,,,8640,432,216,0,80,0.2551304697556799,0.9005455102863937,1.7561186995325903e-10,8.429369557916289e-08,0.2551304693402926,0.9005455374717712,1.4426081404089928,1.6860193014144897,0.001070692055774006,0.0028837784193456173,0.0629857583745727,0.47840454167075636,78167.69482687708,2746.4880897590197,4661357.432862243,0.0,0.0,0.0,0.0,0,5,8640,432,216,3648,354,356,1824,177,178,3648,354,356,0,27840.0001,1272.0001,412.0001,0.0,0.008477393617021276,0.4618202786265766
joint_finetune,18,9120,-6946616.222440468,-6946616.222440468,-14472.117130084303,-45875.23985577957,-283.35140971818794,,-82840.16512280364,,,,,,9120,456,228,0,76,0.2934766737393061,0.9187796556165934,4.239645523540503e-10,1.1920928955078125e-07,0.2934766725151955,0.9187796115875244,1.315058762828509,1.4142135381698608,0.0010088258369995112,0.002839923370629549,0.09015663018960894,0.4784751261401609,117661.87581351284,2747.307881685486,6813207.124676827,0.0,0.0,0.0,0.0,0,11,9120,456,228,4129,402,404,2065,201,202,4129,402,404,0,28320.0001,1296.0001,424.0001,0.0,0.012209864603481625,0.4631964386201228
joint_finetune,19,9600,-6927375.303970203,-6927375.303970203,-14432.03188327125,-45246.5661951634,-295.56297726531244,-7269021.975583241,-82840.16512280364,0.0,1.0,1.0,0.09131604575003421,0.4771139412087082,9600,480,240,0,83,0.28884379979484864,0.917673404529206,1.7561187781733878e-10,8.429369557916289e-08,0.28884380001497145,0.9176734089851379,1.5147500485181808,1.7096346616744995,0.0006556002005130391,0.0030425353907048702,0.09001627701516314,0.47759978349812326,117270.63527619679,2737.2288234847847,6794088.676663383,0.0,0.0,0.0,0.0,0,11,9600,480,240,4610,450,452,2305,225,226,4610,450,452,0,28800.0001,1320.0001,436.0001,0.0,0.014536992263056093,0.4622976044391064
joint_finetune,20,10080,-7062219.324096933,-7062219.324096933,-14712.956925201956,-46738.683550619986,-310.8078576916596,,-82840.16512280364,,,,,,10080,504,252,0,80,0.2821008607350063,0.892268086715159,1.7561186578992268e-10,8.429369557916289e-08,0.282100858905081,0.8922680616378784,1.561854121585687,1.7013658285140991,0.0006269358670000325,0.0033893506042659283,0.09059012828087636,0.47806924695400416,119112.3558623883,2742.6360162460123,6927229.021293679,0.0,0.0,0.0,0.0,0,11,10080,504,252,5091,498,500,2546,249,250,5091,498,500,0,29280.0001,1344.0001,448.0001,0.0,0.017075676982591877,0.46607758124976834
joint_finetune,21,10560,-6944394.894488346,-6944394.894488346,-14467.48936351738,-42193.963200165315,-311.16569091222925,,-82840.16512280364,,,,,,10560,528,264,0,89,0.278541068512725,0.8749799191125437,1.7561188151808219e-10,8.429369557916289e-08,0.278541067285308,0.8749799132347107,1.532797560095787,1.7186825275421143,0.0007336844891225072,0.0036864602006971836,0.09036955659043658,0.478380317128663,117742.70705724147,2746.210826362121,6810905.062427461,0.0,0.0,0.0,0.0,0,11,10560,528,264,5572,546,548,2786,273,274,5572,546,548,0,29760.0001,1368.0001,460.0001,0.0,0.01919124758220503,0.4633705953795398
joint_finetune,22,11040,-6943348.746633866,-6943348.746633866,-14465.309888820568,-45038.901076714305,-350.16387452944105,,-82840.16512280364,,,,,,11040,552,276,0,81,0.2770297925692514,0.8916874851387537,1.8337288724505166e-10,8.429369557916289e-08,0.2770297921534317,0.8916874527931213,1.352895441154639,1.5640826225280762,0.0006066400383133441,0.0036519530694931746,0.09053812218212237,0.47810055060606466,117853.17230730901,2742.9864866258663,6809655.010224924,0.0,0.0,0.0,0.0,0,12,11040,552,276,6053,594,596,3027,297,298,6053,594,596,0,30240.0001,1392.0001,472.0001,0.0,0.022017045454545456,0.4696712178003396
joint_finetune,23,11520,-6825699.969075068,-6825699.969075068,-14220.208268906394,-45522.343657705555,-318.01455725394294,,-82840.16512280364,,,,,,11520,576,288,0,87,0.29472905588291637,0.9072948725005384,1.7561187609417973e-10,8.429369557916289e-08,0.29472905528964477,0.9072948694229126,1.539849154651165,1.7293033599853516,0.0006673061923885888,0.0037460029125213623,0.08935952104434482,0.4784258145170537,115852.212913423,2746.734355646417,6694155.145436171,0.0,0.0,0.0,0.0,0,11,11520,576,288,6534,642,644,3267,321,322,6534,642,644,0,30720.0001,1416.0001,484.0001,0.0,0.02284816247582205,0.4717604383048052
joint_finetune,24,12000,-6956972.096932343,-6956972.096932343,-14493.691868609038,-45769.65425316979,-325.12822802526614,-7118784.813530768,-82840.16512280364,0.0,1.0,1.0,0.09058643156404948,0.4771143670383848,12000,600,300,0,75,0.2849754907484045,0.9081995470935593,1.7561187735474586e-10,8.429369557916289e-08,0.28497549128175403,0.9081995487213135,1.6041627302765846,1.7320507764816284,0.0006586819786620749,0.0038240309804677963,0.0899608022679284,0.47859303434889344,117573.83087817508,2748.654136624538,6823578.853622083,0.0,0.0,0.0,0.0,0,11,12000,600,300,7015,690,692,3508,345,346,7015,690,692,0,31200.0001,1440.0001,496.0001,0.0,0.026127296905222436,0.47519077945723986
joint_finetune,25,12480,-7107122.590272871,-7107122.590272871,-14806.505396401812,-47112.698771202784,-374.11199599808145,,-82840.16512280364,,,,,,12480,624,312,0,79,0.27749329093042013,0.8986196210399089,1.7561186995325903e-10,8.429369557916289e-08,0.27749329210879903,0.8986196517944336,1.5935773849487305,1.727124571800232,0.0006095087089554661,0.00385503307916224,0.09092640473404992,0.47807177954767405,119542.3733733661,2742.6544550814756,6971770.218850721,0.0,0.0,0.0,0.0,0,12,12480,624,312,7496,738,740,3748,369,370,7496,738,740,0,31680.0001,1464.0001,508.0001,0.0,0.02778953094777563,0.47334758848009534
joint_finetune,26,12960,-7004796.956363004,-7004796.956363004,-14593.32699242292,-41781.14675047355,-311.35354950374085,,-82840.16512280364,,,,,,12960,648,324,0,85,0.2715541710857686,0.9019022524831775,1.7561187781733878e-10,8.429369557916289e-08,0.2715541703910276,0.9019022583961487,1.5544781188170116,1.6970505714416504,0.0006025459363379262,0.003859397256746888,0.09089645553387928,0.47795457008468106,118718.92466025507,2741.3085394297887,6870225.335901203,0.0,0.0,0.0,0.0,0,11,12960,648,324,7977,786,788,3989,393,394,7977,786,788,0,32160.0001,1488.0001,520.0001,0.0,0.02874153771760155,0.47512315671955824
joint_finetune,27,13440,-6753401.768289747,-6753401.768289747,-14069.587017270307,-43637.80588883831,-409.8140457562201,,-82840.16512280364,,,,,,13440,672,336,0,81,0.28534307456405306,0.9059338443705619,1.7561187609417973e-10,8.429369557916289e-08,0.2853430740127806,0.9059338569641113,1.5679442683855693,1.7268460988998413,0.0006163509149866348,0.0042087300680577755,0.0895886912520217,0.4778054122830968,115443.11298686825,2739.5989918152504,6622105.005239643,0.0,0.0,0.0,0.0,0,12,13440,672,336,8458,834,836,4229,417,418,8458,834,836,0,32640.0001,1512.0001,532.0001,0.0,0.030328215667311413,0.4739439149659192
joint_finetune,28,13920,-6657177.604821689,-6657177.604821689,-13869.120010045182,-47483.417277456574,-436.7516187689025,,-82840.16512280364,,,,,,13920,696,348,0,79,0.28047863658380323,0.9051035186364375,1.7561186578992268e-10,8.429369557916289e-08,0.28047863641404547,0.9051035642623901,1.4762469281752904,1.6903852224349976,0.0005907745084682988,0.0038956343196332455,0.08908541156655977,0.47754220945917963,114169.75963900238,2736.5694494553163,6526985.132140284,0.0,0.0,0.0,0.0,0,12,13920,696,348,8939,882,884,4470,441,442,8939,882,884,0,33120.000100000005,1536.0001,544.0001,0.0,0.03158244680851064,0.47376598040185997
joint_finetune,29,14400,-6551724.204891177,-6551724.204891177,-13649.425426856622,-41830.42255805691,-267.21069819636523,-6559220.791716538,-82840.16512280364,0.0,1.0,1.0,0.08762770252701874,0.4771141295991523,14400,720,360,0,79,0.2515633874093648,0.8661903764960348,1.7561186578992268e-10,8.429369557916289e-08,0.25156338667535844,0.8661903738975525,1.4201443990071614,1.6538103818893433,0.0005798614769115705,0.0038386713713407516,0.088469278987895,0.4780070815766597,112736.52136839568,2741.930591394653,6423194.73970576,0.0,0.0,0.0,0.0,0,11,14400,720,360,9420,930,932,4710,465,466,9420,930,932,0,33600.000100000005,1560.0001,556.0001,0.0,0.0335620164410058,0.45823750326435153
joint_finetune,30,14880,-6397314.147830566,-6397314.147830566,-13327.737807980351,-41314.63637190773,-27.09734766060834,,-82840.16512280364,,,,,,14880,744,372,0,81,0.27609090936918756,0.9111394684429496,1.7561187180363073e-10,8.429369557916289e-08,0.27609091136158287,0.9111394882202148,1.5710272615154584,1.724703311920166,0.0005219901544147764,0.0036178985610604286,0.08739056515348056,0.4775656532595136,110294.87390809107,2736.83821438622,6271164.043752928,0.0,0.0,0.0,0.0,0,11,14880,744,372,9901,978,980,4951,489,490,9901,978,980,0,34080.000100000005,1584.0001,568.0001,0.0,0.0339095744680851,0.4728416459818643
joint_finetune,31,15360,-6351378.880859443,-6351378.880859443,-13232.039335123849,-43157.763127411774,-242.04292211936064,,-82840.16512280364,,,,,,15360,768,384,0,81,0.2916340860381042,0.9020875606204403,1.7561187781733878e-10,8.429369557916289e-08,0.29163408520107625,0.9020875692367554,1.508222204943498,1.659258246421814,0.0005292219588723542,0.0037768413312733173,0.08669007988461544,0.47805499338613194,109251.34074349065,2742.469758404483,6226205.891005264,0.0,0.0,0.0,0.0,0,11,15360,768,384,10382,1026,1028,5191,513,514,10382,1026,1028,0,34560.000100000005,1608.0001,580.0001,0.0,0.035768254352030945,0.4728750794607159
joint_finetune,32,15840,-2075029.7348187293,-2075029.7348187293,-4322.9786142056855,-17827.72169041939,-27.703291405362933,,-82840.16512280364,,,,,,15840,792,396,0,75,0.27151668431026305,0.8961803136285229,3.929204665335343e-10,1.043081283569336e-07,0.27151668473767737,0.8961803317070007,1.5028734679023426,1.726232886314392,0.0005949070169167085,0.003704047529026866,0.05127754132483671,0.4781978508143317,45007.433012837224,2744.1139774725666,2013491.3371277596,0.0,0.0,0.0,0.0,0,6,15840,792,396,10863,1074,1076,5432,537,538,10863,1074,1076,0,35040.000100000005,1632.0001,592.0001,0.0,0.03588914410058027,0.47394297051475864
joint_finetune,33,16320,-302980.705540913,-302980.705540913,-631.2098032102352,-14054.007820855042,-23.817140361909683,,-82840.16512280364,,,,,,16320,816,408,0,83,0.24628925528609374,0.8781828475433934,2.997883052913153e-10,8.429369557916289e-08,0.24628925381287747,0.8781828284263611,1.4296572258075078,1.7320507764816284,0.0009360570614014498,0.003998572006821632,0.030706804051047254,0.4778768471259495,14535.64701415513,2740.418315308947,271857.52486951015,0.0,0.0,0.0,0.0,0,2,16320,816,408,11344,1122,1124,5672,561,562,11344,1122,1124,0,35520.000100000005,1656.0001,604.0001,0.0,0.034952248549323016,0.4731613426420629
joint_finetune,34,16800,-170249.23806571652,-170249.23806571652,-354.68591263690894,-3098.556302527598,-31.529880217110875,-178151.4684826931,-82840.16512280364,0.0,1.0,1.0,0.02907414005738219,0.47710362691969427,16800,840,420,0,82,0.24446837821284767,0.9135050690216251,1.1690226236112564e-09,4.76837158203125e-07,0.24446837665406443,0.9135050773620605,1.462176188826561,1.7320507764816284,0.0008019640372367576,0.003944081254303455,0.029134506412789564,0.47823189091505564,11913.16496515355,2744.504567100587,141531.1182131323,0.0,0.0,0.0,0.0,0,2,16800,840,420,11825,1170,1172,5913,585,586,11825,1170,1172,0,36000.000100000005,1680.0001,616.0001,0.0,0.03403046421663443,0.47384871435811027
joint_finetune,35,17280,-172213.99316643202,-172213.99316643202,-358.7791524300671,-3398.207439806011,-31.983411559085926,,-82840.16512280364,,,,,,17280,864,432,0,84,0.24954142782365765,0.9062202346730307,3.1531025198224445e-10,8.429369557916289e-08,0.24954142835146437,0.9062201976776123,1.5353643372654915,1.7320507764816284,0.0006574406976472925,0.0038141761906445026,0.028594755276273753,0.47824973007408594,11502.968987350865,2744.701941981566,143886.43972210173,0.0,0.0,0.0,0.0,0,1,17280,864,432,12306,1218,1220,6153,609,610,12306,1218,1220,0,36480.000100000005,1704.0001,628.0001,0.0,0.03486158123791103,0.46876973934053684
joint_finetune,36,17760,-181483.0569416332,-181483.0569416332,-378.08970196173556,-10520.401324155482,-24.716559546824207,,-82840.16512280364,,,,,,17760,888,444,0,84,0.2284383109672357,0.9237443113513163,5.481408956361141e-10,1.7881393432617188e-07,0.22843831060066197,0.9237443208694458,1.4326576590538025,1.7320507764816284,0.0014042188730937514,0.003907910548150539,0.029468867052371242,0.47769491919959567,12065.539544600882,2738.330629159857,152476.33526695718,0.0,0.0,0.0,0.0,0,2,17760,888,444,12787,1266,1268,6394,633,634,12787,1266,1268,0,36960.000100000005,1728.0001,640.0001,0.0,0.03354690522243714,0.474933983105986
joint_finetune,37,18240,-178701.90892179252,-178701.90892179252,-372.295643587068,-3478.5347422106256,-29.57799988827899,,-82840.16512280364,,,,,,18240,912,456,0,83,0.24191060456063637,0.8947247950605927,6.723172430815143e-10,2.384185791015625e-07,0.24191060576122253,0.8947247862815857,1.517721710105737,1.7320507764816284,0.0013084410496627572,0.005440777633339167,0.028549697042113197,0.47848679465871563,11568.47253749826,2747.4346753621644,150263.02249738947,0.0,0.0,0.0,0.0,0,1,18240,912,456,13268,1314,1316,6634,657,658,13268,1314,1316,0,37440.000100000005,1752.0001,652.0001,0.0,0.03211133945841393,0.47303129170572733
joint_finetune,38,18720,-175702.6203061571,-175702.6203061571,-366.0471256378276,-3474.8511749637746,-30.32813622969055,,-82840.16512280364,,,,,,18720,936,468,0,82,0.248551653842532,0.9061772620622041,6.723172504830011e-10,2.384185791015625e-07,0.2485516531955606,0.906177282333374,1.5504207114378612,1.7320507764816284,0.0015397168542470106,0.006142321042716503,0.028832284736355875,0.47751694053863275,11663.697870567064,2736.295982014864,147144.17810678275,0.0,0.0,0.0,0.0,0,1,18720,936,468,13749,1362,1364,6875,681,682,13749,1362,1364,0,37920.000100000005,1776.0001,664.0001,0.0,0.03174867021276596,0.475160179101291
joint_finetune,39,19200,-183524.01152984178,-183524.01152984178,-382.3416906871706,-3549.99889673116,-32.17808504729481,-181435.1559907652,-82840.16512280364,0.0,1.0,1.0,0.028717583524025408,0.4770242288209801,19200,960,480,0,85,0.25109026274604024,0.9106121620843145,7.964935882139497e-10,2.384185791015625e-07,0.2510902619741197,0.9106122255325317,1.471248283982277,1.7320507764816284,0.001331931707682088,0.004692421294748783,0.02892869905212155,0.4781250038431242,11936.815007627694,2743.269835281032,154830.58431412594,0.0,0.0,0.0,0.0,0,2,19200,960,480,14230,1410,1412,7115,705,706,14230,1410,1412,0,38400.000100000005,1800.0001,676.0001,0.0,0.03200556092843327,0.47338045542659796
joint_finetune,40,19680,-172251.37657131534,-172251.37657131534,-358.85703452357336,-3387.5398902337356,-31.517121562967297,,-82840.16512280364,,,,,,19680,984,492,0,78,0.2501826153908762,0.9165697965552119,2.997882090719865e-10,8.429369557916289e-08,0.2501826154650189,0.9165697693824768,1.5076706757148106,1.7320507764816284,0.0009980491277846422,0.0029950635507702827,0.028083349341096946,0.4779865484613552,11307.707178724999,2741.689749021389,144145.99813039316,0.0,0.0,0.0,0.0,0,1,19680,984,492,14711,1458,1460,7356,729,730,14711,1458,1460,0,38880.000100000005,1824.0001,688.0001,0.0,0.031295333655706,0.4754018642339762
joint_finetune,41,20160,-168528.9500383766,-168528.9500383766,-351.10197924661753,-3040.082551213044,-30.7365599221665,,-82840.16512280364,,,,,,20160,1008,504,0,78,0.25273233759232583,0.9150858030650216,1.7561186578992268e-10,8.429369557916289e-08,0.25273233668898076,0.9150857925415039,1.4887316102782886,1.7320507764816284,0.012628805299755186,0.07919196784496307,0.028202185186379965,0.4775425008018184,11335.076927473949,2736.5790534679477,140320.04674465215,0.0,0.0,0.0,0.0,0,1,20160,1008,504,15192,1506,1508,7596,753,754,15192,1506,1508,0,39360.000100000005,1848.0001,700.0001,0.0,0.03102333172147002,0.4728559072289753
joint_finetune,42,20640,-180325.5723784889,-180325.5723784889,-375.67827578851904,-3278.8268211828763,-32.18615865231812,,-82840.16512280364,,,,,,20640,1032,516,0,81,0.24868005538644758,0.9091978853195536,7.344054105592097e-10,2.682209014892578e-07,0.2486800547349655,0.9091978669166565,1.4693416878581047,1.7233768701553345,0.006465059207667681,0.040171362459659576,0.02895241132446077,0.4778126207098017,11897.747861951406,2739.6827538003868,151429.46632974502,0.0,0.0,0.0,0.0,0,2,20640,1032,516,15673,1554,1556,7837,777,778,15673,1554,1556,0,39840.000100000005,1872.0001,712.0001,0.0,0.030252659574468085,0.47430885097505504
joint_finetune,43,21120,-203125.90391723355,-203125.90391723355,-423.178966494237,-3356.595889852469,-32.25100392675513,,-82840.16512280364,,,,,,21120,1056,528,0,82,0.2570912069660242,0.9074859401269659,6.10229067277146e-10,2.086162567138672e-07,0.2570912071581309,0.9074859023094177,1.466813787817955,1.7320507764816284,0.02591828056822785,0.2723196744918823,0.029760067963704184,0.4776509923830041,12671.450134806833,2737.824501998976,173379.55272333632,0.0,0.0,0.0,0.0,0,2,21120,1056,528,16154,1602,1604,8077,801,802,16154,1602,1604,0,40320.000100000005,1896.0001,724.0001,0.0,0.02942154255319149,0.47217684678690114
joint_finetune,44,21600,-169637.91355520755,-169637.91355520755,-353.4123199066824,-2923.8591114837286,-29.98081402592642,-182558.3448774989,-82840.16512280364,0.0,1.0,1.0,0.029881025859234276,0.47622970350655197,21600,1080,540,0,79,0.25469100336592554,0.8750544005635065,1.2931989553284968e-09,4.76837158203125e-07,0.254691002372662,0.8750544190406799,1.4659373238682747,1.7320507764816284,0.03632237710355019,0.3875682055950165,0.028482155076026465,0.47677914000086496,11519.672674153493,2727.898016190653,141153.89141264334,0.0,0.0,0.0,0.0,0,1,21600,1080,540,16635,1650,1652,8318,825,826,16635,1650,1652,0,40800.000100000005,1920.0001,736.0001,0.0,0.02922509671179884,0.4742517116221976
joint_finetune,45,22080,-168826.53613399612,-168826.53613399612,-351.7219502791591,-2904.6521349307855,-24.822876938516842,,-82840.16512280364,,,,,,22080,1104,552,0,77,0.2570965889554552,0.9154176907721362,2.997882488549782e-10,8.429369557916289e-08,0.2570965897893378,0.9154176712036133,1.4819086616237958,1.7234859466552734,0.006024088699963282,0.05938670411705971,0.029739990952547875,0.47694399522152053,12578.61112088522,2729.7820355352596,139883.2836803388,0.0,0.0,0.0,0.0,0,2,22080,1104,552,17116,1698,1700,8558,849,850,17116,1698,1700,0,41280.000100000005,1944.0001,748.0001,0.0,0.029995768858800773,0.4729289133498009
joint_finetune,46,22560,-189161.26888728823,-189161.26888728823,-394.08597684851736,-3660.690883230617,-30.17540575289766,,-82840.16512280364,,,,,,22560,1128,564,0,78,0.25731770645005264,0.9149127512076094,6.723172389181779e-10,2.384185791015625e-07,0.257317706461375,0.914912760257721,1.4827314590414364,1.7298779487609863,0.005042427076577124,0.048209160566329956,0.03065634314012666,0.4775104619565576,13375.544618845002,2736.24389265472,159235.46861883916,0.0,0.0,0.0,0.0,0,2,22560,1128,564,17597,1746,1748,8799,873,874,17597,1746,1748,0,41760.000100000005,1968.0001,760.0001,0.0,0.02911931818181818,0.47492671087816557
joint_finetune,47,23040,-197651.58543891544,-197651.58543891544,-411.77413633107375,-3302.6686771603536,-16.482572359305863,,-82840.16512280364,,,,,,23040,1152,576,0,87,0.254107979685521,0.9238690124761223,6.412731530976619e-10,1.7881393432617188e-07,0.2541079802021462,0.9238690137863159,1.4874583904941876,1.7320507764816284,0.0031394750906408512,0.028833240270614624,0.03116715450567796,0.47612274239097857,13720.998214973084,2720.501656355505,167132.35333014015,0.0,0.0,0.0,0.0,0,2,23040,1152,576,18078,1794,1796,9039,897,898,18078,1794,1796,0,42240.000100000005,1992.0001,772.0001,0.0,0.02908909574468085,0.4722946200310838
joint_finetune,48,23520,-170010.73598070184,-170010.73598070184,-354.18903329312866,-3208.2247017285545,-32.651477944267164,,-82840.16512280364,,,,,,23520,1176,588,0,82,0.24746840213011198,0.86563800303835,2.997882090719865e-10,8.429369557916289e-08,0.24746840197816103,0.865638017654419,1.4687788014610608,1.7320507764816284,0.0022449929383583367,0.010965244844555855,0.028310955373060328,0.4775252351282259,11401.688178451068,2736.4274526335494,141886.56948902717,0.0,0.0,0.0,0.0,0,1,23520,1176,588,18559,1842,1844,9280,921,922,18559,1842,1844,0,42720.000100000005,2016.0001,784.0001,0.0,0.028801982591876208,0.4740781214527743
joint_finetune,49,24000,-162612.3253805237,-162612.3253805237,-338.7756778760908,-2542.668771695163,-25.597984709523452,-172772.13791676122,-82840.16512280364,0.0,1.0,1.0,0.03010226423184764,0.4760299348015331,24000,1200,600,0,79,0.2536499053663284,0.90273551118458,2.997882090719865e-10,8.429369557916289e-08,0.2536499066549974,0.9027355313301086,1.5096116388837497,1.7320507764816284,0.0020421061185929416,0.012883931398391724,0.029819405113989023,0.47624697061156523,12621.359496002573,2721.872532114349,133526.38101409114,0.0,0.0,0.0,0.0,0,2,24000,1200,600,19040,1890,1892,9520,945,946,19040,1890,1892,0,43200.000100000005,2040.0001,796.0001,0.0,0.028877538684719536,0.4711332284274369
joint_finetune,50,24480,-178178.22407740972,-178178.22407740972,-371.2046334946035,-2838.155357264661,-31.67050541012028,,-82840.16512280364,,,,,,24480,1224,612,0,85,0.25694344481902254,0.8977735868491916,1.4173752986105606e-09,5.960464477539062e-07,0.2569434442809628,0.8977735638618469,1.4861024245619774,1.7320507764816284,0.08370286893544042,0.5100821256637573,0.030267252171592852,0.4772778282032662,12963.89663537041,2733.566040623238,148495.33328556115,0.0,0.0,0.0,0.0,0,2,24480,1224,612,19521,1938,1940,9761,969,970,19521,1938,1940,0,43680.000100000005,2064.0001,808.0001,0.0,0.027381528046421664,0.47230293101683346
joint_finetune,51,24960,-164331.12867376304,-164331.12867376304,-342.35651807033963,-3606.672859830482,-30.183025967382516,,-82840.16512280364,,,,,,24960,1248,624,0,79,0.2540258065940176,0.9115350874297283,8.585817538412736e-10,2.682209014892578e-07,0.2540258061092269,0.9115350842475891,1.4580332239468892,1.7275134325027466,0.00828681491045493,0.07910481095314026,0.02898640739356852,0.47741840169026156,12056.739010919437,2735.1567312940474,135740.9157312797,0.0,0.0,0.0,0.0,0,1,24960,1248,624,20002,1986,1988,10001,993,994,20002,1986,1988,0,44160.000100000005,2088.0001,820.0001,0.0,0.028227756286266923,0.46732463452756057
joint_finetune,52,25440,-148314.96191928483,-148314.96191928483,-308.9895039985096,-2337.6107037813326,-27.830337793390633,,-82840.16512280364,,,,,,25440,1272,636,0,83,0.2486508974588773,0.9118836022910195,2.997882090719865e-10,8.429369557916289e-08,0.24865089835657272,0.9118835926055908,1.481990670164426,1.7320507764816284,0.010801314916038378,0.07126651704311371,0.02738218415895807,0.47651238721566186,10577.274876653935,2724.817964379564,120871.922982271,0.0,0.0,0.0,0.0,0,1,25440,1272,636,20483,2034,2036,10242,1017,1018,20483,2034,2036,0,44640.000100000005,2112.0001,832.0001,0.0,0.026882857833655707,0.4713474297661846
joint_finetune,53,25920,-143093.03043368144,-143093.03043368144,-298.1104800701696,-2555.2279754444908,-26.705763314787283,,-82840.16512280364,,,,,,25920,1296,648,0,89,0.2539179060807555,0.9021201838836881,2.6874412325147053e-10,8.429369557916289e-08,0.2539179054147098,0.9021201729774475,1.5371865058938663,1.7320507764816284,0.0031830941906347025,0.017317410558462143,0.025946965594113906,0.4773641541372635,9544.166042669573,2734.5378777682963,116536.26814175551,0.0,0.0,0.0,0.0,0,1,25920,1296,648,20964,2082,2084,10482,1041,1042,20964,2082,2084,0,45120.000100000005,2136.0001,844.0001,0.0,0.02726063829787234,0.4682683302539921
joint_finetune,54,26400,-183938.9842983865,-183938.9842983865,-383.20621728830537,-2541.5093229038994,-27.35726318389484,-181863.8565571001,-82840.16512280364,0.0,1.0,1.0,0.027462991573271065,0.4771637301946709,26400,1320,660,0,88,0.25037900017951625,0.8632827391726375,2.6874412325147053e-10,8.429369557916289e-08,0.25037900287425147,0.8632827401161194,1.5621870905160904,1.7320507764816284,0.0031429787817284127,0.019878624007105827,0.029334110144108506,0.4721811916180024,11883.413713936217,2676.227099884385,155469.4709102627,0.0,0.0,0.0,0.0,0,2,26400,1320,660,21445,2130,2132,10723,1065,1066,21445,2130,2132,0,45600.000100000005,2160.0001,856.0001,0.0,0.02624818665377176,0.4661567263607822
joint_finetune,55,26880,-177535.12301642072,-177535.12301642072,-369.864839617543,-3091.8129448973687,-28.908441435398746,,-82840.16512280364,,,,,,26880,1344,672,0,82,0.25824877667250595,0.9119349237464833,4.239645523540503e-10,1.1920928955078125e-07,0.2582487760228105,0.9119349122047424,1.5194475774963696,1.731471300125122,0.00641159457154572,0.026502840220928192,0.028376244786479637,0.4779398754944028,11648.853128773051,2741.1359539274977,148910.03212883478,0.0,0.0,0.0,0.0,0,2,26880,1344,672,21926,2178,2180,10963,1089,1090,21926,2178,2180,0,46080.000100000005,2184.0001,868.0001,0.0,0.02709441489361702,0.4606450981166884
joint_finetune,56,27360,-342554.1577665226,-342554.1577665226,-713.6544953469216,-21121.76115085989,-18.8241105769078,,-82840.16512280364,,,,,,27360,1368,684,0,79,0.26553643564733553,0.9022723308749435,1.7561188429363976e-10,8.429369557916289e-08,0.2655364349627083,0.9022722840309143,1.553373468418916,1.7320507764816284,0.004087348659099503,0.018640315160155296,0.030759323012599354,0.4847655386823095,14802.068868224722,2834.093728022978,310698.07573759387,81.84569011186673,0.0,0.0,0.0,0,3,27360,1368,684,22407,2226,2228,11204,1113,1114,22407,2226,2228,0,46560.000100000005,2208.0001,880.0001,0.0,0.02689796905222437,0.46787647727149134
joint_finetune,57,27840,-185020.6818806317,-185020.6818806317,-385.45975391798277,-2456.6120031498754,-32.05216270484291,,-82840.16512280364,,,,,,27840,1392,696,0,79,0.25906883019140026,0.9060286773282024,1.7561186578992268e-10,8.429369557916289e-08,0.25906883033264116,0.9060286283493042,1.590307578444481,1.7320507764816284,0.0038836787776248952,0.01940762810409069,0.028449720015841375,0.47863228377766026,11520.376519227984,2749.292601237047,156617.22408507066,0.0,0.0,0.0,0.0,0,2,27840,1392,696,22888,2274,2276,11444,1137,1138,22888,2274,2276,0,47040.000100000005,2232.0001,892.0001,0.0,0.02599129593810445,0.4659639638443288
joint_finetune,58,28320,-230218.23372446996,-230218.23372446996,-479.6213202593121,-4317.559100439836,-33.15498557193377,,-82840.16512280364,,,,,,28320,1416,708,0,77,0.2637732661152053,0.9107918299964645,4.239645523540503e-10,1.1920928955078125e-07,0.26377326681492075,0.9107918739318848,1.5607380121946335,1.7320507764816284,0.0025165613531664185,0.0164940282702446,0.030813662046372686,0.48272876967220185,13924.854497420036,2803.5237276780076,199658.44082650298,11.814672278768867,0.0,0.0,0.0,0,3,28320,1416,708,23369,2322,2324,11685,1161,1162,23369,2322,2324,0,47520.000100000005,2256.0001,904.0001,0.0,0.025673960348162477,0.46526374767320067
joint_finetune,59,28800,-214196.15715243432,-214196.15715243432,-446.24199406757157,-2500.57115920129,-32.26442992751547,-254420.0589233228,-82840.16512280364,0.0,1.0,1.0,0.03151099592715593,0.47980785167281015,28800,1440,720,0,82,0.256479580939158,0.872178655667391,1.9113390870018065e-10,8.429369557916289e-08,0.256479578493357,0.8721786141395569,1.5705977479616802,1.7320507764816284,0.0023571565622908315,0.01312409806996584,0.030334258773700017,0.48067956556407876,13526.538939394115,2776.158582750391,184081.22231155453,0.009026689462659802,0.0,0.0,0.0,0,2,28800,1440,720,23850,2370,2372,11925,1185,1186,23850,2370,2372,0,48000.000100000005,2280.0001,916.0001,0.0,0.02664107833655706,0.4633452840423215
joint_finetune,60,29280,-196874.88709423674,-196874.88709423674,-410.1560147796601,-2485.8103617110783,-15.549517663910562,,-82840.16512280364,,,,,,29280,1464,732,0,81,0.26362720904545506,0.9105579456127741,1.7561186578992268e-10,8.429369557916289e-08,0.2636272091845361,0.9105579853057861,1.6014565626780193,1.7320507764816284,0.003149254623250189,0.014541510492563248,0.030269107806546593,0.47551883883540547,13076.090951567146,2713.592300409142,167230.53332191854,0.0,0.0,0.0,0.0,0,2,29280,1464,732,24331,2418,2420,12166,1209,1210,24331,2418,2420,0,48480.000100000005,2304.0001,928.0001,0.0,0.02582507253384913,0.4652712088027821
joint_finetune,61,29760,-168874.6092395518,-168874.6092395518,-351.8221025823994,-2403.968088529587,-30.43012378157582,,-82840.16512280364,,,,,,29760,1488,744,0,82,0.25680374106761544,0.9137845307149681,1.7561186578992268e-10,8.429369557916289e-08,0.2568037409534251,0.9137845635414124,1.6102566445867221,1.7320507764816284,0.0030300641466799953,0.014637470245361328,0.027673203616423225,0.4762287121164907,10866.683287662647,2721.6763512230027,141391.30106654222,0.0,0.0,0.0,0.0,0,2,29760,1488,744,24812,2466,2468,12406,1233,1234,24812,2466,2468,0,48960.000100000005,2328.0001,940.0001,0.0,0.025643737911025144,0.46273582966230825
joint_finetune,62,30240,-144620.47240445277,-144620.47240445277,-301.29265084260976,-2215.231933116028,-24.62447875403595,,-82840.16512280364,,,,,,30240,1512,756,0,83,0.2517320925878475,0.8924721202193726,1.7561186578992268e-10,8.429369557916289e-08,0.25173209265146096,0.8924720883369446,1.6012990474700928,1.7320507764816284,0.0025192240507087922,0.010438067838549614,0.027846083206113422,0.474915293173686,10939.755280362613,2706.8943451306855,117190.6225531772,0.0,0.0,0.0,0.0,0,1,30240,1512,756,25293,2514,2516,12647,1257,1258,25293,2514,2516,0,49440.000100000005,2352.0001,952.0001,0.0,0.02556818181818182,0.463353406356889
joint_finetune,63,30720,-185750.56032371073,-185750.56032371073,-386.98033400773056,-2475.0540104998213,-20.285059710704775,,-82840.16512280364,,,,,,30720,1536,768,0,78,0.2566959727789957,0.9112779109715248,1.7561186578992268e-10,8.429369557916289e-08,0.25669597362963636,0.9112778902053833,1.6090537036458652,1.7320507764816284,0.0026655923151834445,0.017459586262702942,0.02835033304116003,0.4751654225881636,11385.988878583024,2709.6854229194573,157734.76189339164,0.0,0.0,0.0,0.0,0,2,30720,1536,768,25774,2562,2564,12887,1281,1282,25774,2562,2564,0,49920.000100000005,2376.0001,964.0001,0.0,0.02526595744680851,0.46228419322109776
joint_finetune,64,31200,-135631.72902534818,-135631.72902534818,-282.5661021361424,-2243.5122235578065,-30.074575373868534,-164268.47627791148,-82840.16512280364,0.0,1.0,1.0,0.027464055282421008,0.47517569087999484,31200,1560,780,0,77,0.2584339109511859,0.9000548045703782,1.7561186578992268e-10,8.429369557916289e-08,0.2584339097239232,0.9000548124313354,1.6030380229155223,1.7320507764816284,0.002729159785138274,0.01832590624690056,0.026361172886011027,0.4766089351335309,9713.280188736371,2725.981032781875,109411.79343873747,0.0,0.0,0.0,0.0,0,1,31200,1560,780,26255,2610,2612,13128,1305,1306,26255,2610,2612,0,50400.000100000005,2400.0001,976.0001,0.0,0.025522848162475822,0.4647003826135824
joint_finetune,65,31680,-174767.75630962726,-174767.75630962726,-364.09949231172374,-2374.606552271965,-32.58024403209136,,-82840.16512280364,,,,,,31680,1584,792,0,82,0.2521148654041908,0.8722689219276185,1.7561186578992268e-10,8.429369557916289e-08,0.25211486252277004,0.8722689151763916,1.6071426843603451,1.7320507764816284,0.0018335627914480442,0.006366063375025988,0.027913097671316698,0.4753601701418963,11051.967810574906,2711.8382740044103,147006.41933702386,0.0,0.0,0.0,0.0,0,2,31680,1584,792,26736,2658,2660,13368,1329,1330,26736,2658,2660,0,50880.000100000005,2424.0001,988.0001,0.0,0.024918399419729207,0.4607368043589638
joint_finetune,66,32160,-150182.08977791635,-150182.08977791635,-312.8793537039926,-2053.901076561226,-34.84184760607226,,-82840.16512280364,,,,,,32160,1608,804,0,82,0.25666899408945393,0.9392575567691308,1.7561186578992268e-10,8.429369557916289e-08,0.25666899383892694,0.9392575025558472,1.6038175026575725,1.7320507764816284,0.04871853375648656,0.5113918781280518,0.027577550075731667,0.4764564148763899,10656.925926711307,2724.2031802850856,123019.79561559779,0.0,0.0,0.0,0.0,0,2,32160,1608,804,27217,2706,2708,13609,1353,1354,27217,2706,2708,0,51360.000100000005,2448.0001,1000.0001,0.0,0.02444995164410058,0.45896926406965494
joint_finetune,67,32640,-129112.08349014803,-129112.08349014803,-268.9835072711416,-2177.414792547903,-34.06639451955601,,-82840.16512280364,,,,,,32640,1632,816,0,78,0.26479200551812665,0.8725855784150905,1.7561186578992268e-10,8.429369557916289e-08,0.26479200433677763,0.8725855946540833,1.60236910233895,1.7320507764816284,0.00231488598563539,0.008506320416927338,0.02683243365436838,0.476547794911342,10043.974969247934,2725.2850099794887,102570.74580856149,0.0,0.0,0.0,0.0,0,1,32640,1632,816,27698,2754,2756,13849,1377,1378,27698,2754,2756,0,51840.000100000005,2472.0001,1012.0001,0.0,0.024404617988394585,0.4532228455206873
joint_finetune,68,33120,-129560.30841937094,-129560.30841937094,-269.9173092070226,-2218.051783067204,-30.13479109038044,,-82840.16512280364,,,,,,33120,1656,828,0,88,0.24340391020721056,0.8946476867684059,1.7561186578992268e-10,8.429369557916289e-08,0.2434039080272972,0.8946476578712463,1.6061810925602913,1.7320507764816284,0.00184138729210562,0.009200682863593102,0.02743815386146319,0.47465530285411056,11019.650803809518,2703.9212334969293,102013.43498635384,0.0,0.0,0.0,0.0,0,1,33120,1656,828,28179,2802,2804,14090,1401,1402,28179,2802,2804,0,52320.000100000005,2496.0001,1024.0001,0.0,0.023543278529980657,0.46315082158295284
joint_finetune,69,33600,-274438.23495732644,-274438.23495732644,-571.7463228277636,-12089.826137976357,-37.19893269768721,-131456.36521250286,-82840.16512280364,0.0,1.0,1.0,0.02726227163176802,0.476225395457551,33600,1680,840,0,87,0.25114430289104467,0.8838616762896523,1.7561186578992268e-10,8.429369557916289e-08,0.2511443029739894,0.8838617205619812,1.5693745066722233,1.7320507764816284,0.0016243006420237098,0.008002684451639652,0.031511174444726356,0.4874754856458849,15699.71682452618,2882.124424111024,241671.02599881537,365.65247672805685,0.0,0.0,0.0,0,2,33600,1680,840,28660,2850,2852,14330,1425,1426,28660,2850,2852,0,52800.000100000005,2520.0001,1036.0001,0.0,0.023377055125725337,0.4634109233979791
joint_finetune,70,34080,-111893.53282904712,-111893.53282904712,-233.11152672718134,-2019.9770072777794,-33.79097408249734,,-82840.16512280364,,,,,,34080,1704,852,0,83,0.24837758578331173,0.9196487776143194,1.7561186578992268e-10,8.429369557916289e-08,0.24837758714371982,0.9196487665176392,1.6054094210267067,1.7320507764816284,0.004276908092751083,0.031600020825862885,0.026804446203172735,0.47703546729773577,10422.917147882763,2730.7831694068523,84798.87216254015,0.0,0.0,0.0,0.0,0,1,34080,1704,852,29141,2898,2900,14571,1449,1450,29141,2898,2900,0,53280.000100000005,2544.0001,1048.0001,0.0,0.02478239845261122,0.4670937162764529
joint_finetune,71,34560,-123585.88092125692,-123585.88092125692,-257.4705852526187,-2158.6594980385803,-35.15384068121396,,-82840.16512280364,,,,,,34560,1728,864,0,83,0.2604712048288109,0.9255827817002336,1.7561186578992268e-10,8.429369557916289e-08,0.2604712041298626,0.925582766532898,1.6029683003822963,1.7320507764816284,0.001984717051858421,0.006529811769723892,0.02817470734210137,0.47769595329029824,11408.923189643872,2738.3426121283933,95528.93576239794,0.0,0.0,0.0,0.0,0,1,34560,1728,864,29622,2946,2948,14811,1473,1474,29622,2946,2948,0,53760.000100000005,2568.0001,1060.0001,0.0,0.024102393617021278,0.4678653328169706
joint_finetune,72,35040,-125750.61585159956,-125750.61585159956,-261.9804496908326,-2115.365426865151,-29.910790931289867,,-82840.16512280364,,,,,,35040,1752,876,0,82,0.24832264693532385,0.9017226411335643,1.7561186578992268e-10,8.429369557916289e-08,0.24832264575428173,0.9017226099967957,1.6100606794158618,1.7320507764816284,0.0016585768647597763,0.0056803482584655285,0.026507214593744798,0.47726150081574054,9713.228261246002,2733.385794583238,98840.3802695498,0.0,0.0,0.0,0.0,0,1,35040,1752,876,30103,2994,2996,15052,1497,1498,30103,2994,2996,0,54240.000100000005,2592.0001,1072.0001,0.0,0.02363394584139265,0.46972363507032855
joint_finetune,73,35520,-120355.91042406035,-120355.91042406035,-250.7414800501257,-2077.8902910830643,-31.42786595376831,,-82840.16512280364,,,,,,35520,1776,888,0,77,0.23248057402110867,0.9093751248832072,1.7561186578992268e-10,8.429369557916289e-08,0.23248057429639932,0.9093750715255737,1.6061767935752869,1.7320507764816284,0.0021131087203023276,0.007475649937987328,0.02774327406026434,0.47757800697657127,11222.69299699517,2736.9863503226998,92126.74379787348,0.0,0.0,0.0,0.0,0,1,35520,1776,888,30584,3042,3044,15292,1521,1522,30584,3042,3044,0,54720.000100000005,2616.0001,1084.0001,0.0,0.0230446083172147,0.468651777425172
joint_finetune,74,36000,-115187.81131476413,-115187.81131476413,-239.97460690575844,-2204.796979927782,-33.64215552707734,-120310.86502602273,-82840.16512280364,0.0,1.0,1.0,0.027628091126742388,0.4770939582855678,36000,1800,900,0,82,0.2395885429977152,0.9039660291566822,1.7561186578992268e-10,8.429369557916289e-08,0.23958854370866903,0.9039660096168518,1.6049562394618988,1.7320507764816284,0.0019314554149538956,0.004744912497699261,0.027611575169757308,0.4781979539503197,10995.208750100768,2744.10184118949,87270.37390919315,0.0,0.0,0.0,0.0,0,1,36000,1800,900,31065,3090,3092,15533,1545,1546,31065,3090,3092,0,55200.000100000005,2640.0001,1096.0001,0.0,0.02327127659574468,0.4703657672645045
joint_finetune,75,36480,-112849.98759671624,-112849.98759671624,-235.10414082649194,-2091.0392099980804,-32.668562711239446,,-82840.16512280364,,,,,,36480,1824,912,0,86,0.23803751164627068,0.9058827010631458,1.7561186578992268e-10,8.429369557916289e-08,0.2380375115259085,0.9058826565742493,1.6085512985785801,1.7320507764816284,0.0014802233331879092,0.006108928006142378,0.02749668247822345,0.47791628312220263,10919.9916146178,2740.864940776872,85013.84247837214,0.0,0.0,0.0,0.0,0,1,36480,1824,912,31546,3138,3140,15773,1569,1570,31546,3138,3140,0,55680.000100000005,2664.0001,1108.0001,0.0,0.022742383945841393,0.46964184544994936
joint_finetune,76,36960,-119206.46492970423,-119206.46492970423,-248.3468019368839,-2091.7127544846094,-32.196747780074894,,-82840.16512280364,,,,,,36960,1848,924,0,79,0.23346127377656625,0.8902434577521772,1.7561186578992268e-10,8.429369557916289e-08,0.2334612732141977,0.8902434706687927,1.6067477464675903,1.7320507764816284,0.001386728195939213,0.006983586121350527,0.02639830259581223,0.4776887935134989,9625.42647714812,2738.262601840084,92154.4951252703,0.0,0.0,0.0,0.0,0,1,36960,1848,924,32027,3186,3188,16014,1593,1594,32027,3186,3188,0,56160.000100000005,2688.0001,1120.0001,0.0,0.022530826885880078,0.47192505613055863
joint_finetune,77,37440,-125313.94311855426,-125313.94311855426,-261.0707148303216,-2181.8504854278895,-33.43858057044254,,-82840.16512280364,,,,,,37440,1872,936,0,87,0.24377590923590794,0.9148013854463747,1.7561186578992268e-10,8.429369557916289e-08,0.24377590823423817,0.9148014187812805,1.603702887892723,1.7320507764816284,0.0019103741267992352,0.005438061431050301,0.02661291379637678,0.4777954327721171,9811.217222486404,2739.473234863143,98025.56948511736,0.0,0.0,0.0,0.0,0,1,37440,1872,936,32508,3234,3236,16254,1617,1618,32508,3234,3236,0,56640.000100000005,2712.0001,1132.0001,0.0,0.022969052224371372,0.470437167864473
joint_finetune,78,37920,-113575.1351254511,-113575.1351254511,-236.61486484468978,-2292.7178545282354,-34.32001493571596,,-82840.16512280364,,,,,,37920,1896,948,0,82,0.23359234333586418,0.904199899244924,1.7561186578992268e-10,8.429369557916289e-08,0.23359234319844593,0.9041998982429504,1.6086814900239308,1.7320507764816284,0.0009968155625921843,0.004676308482885361,0.027485186825878694,0.4780708669691114,10916.008089705076,2742.6461399737937,85479.53943622144,0.0,0.0,0.0,0.0,0,1,37920,1896,948,32989,3282,3284,16495,1641,1642,32989,3282,3284,0,57120.000100000005,2736.0001,1144.0001,0.0,0.022077490328820115,0.4725582160963542
joint_finetune,79,38400,-109985.89509150077,-109985.89509150077,-229.13728144062674,-2141.0599988306294,-35.051742367346236,-119263.12744883924,-82840.16512280364,0.0,1.0,1.0,0.02782115928791773,0.47711816407143487,38400,1920,960,0,84,0.21551296789905974,0.8887094132147535,1.7561186578992268e-10,8.429369557916289e-08,0.21551296853964838,0.8887093663215637,1.6024941230813663,1.7320507764816284,0.0008352514646090144,0.003931421786546707,0.02792297901114332,0.4781221421516345,11299.347679022803,2743.228025179911,80997.10838993214,0.0,0.0,0.0,0.0,0,1,38400,1920,960,33470,3330,3332,16735,1665,1666,33470,3330,3332,0,57600.000100000005,2760.0001,1156.0001,0.0,0.022213491295938106,0.4695174612205771
joint_finetune,80,38880,-112730.69790615929,-112730.69790615929,-234.85562063783178,-1991.687923268439,-26.210721572028003,,-82840.16512280364,,,,,,38880,1944,972,0,83,0.2413358213688112,0.902979252361927,1.7561186578992268e-10,8.429369557916289e-08,0.24133582093588,0.9029792547225952,1.6041938215494156,1.7320507764816284,0.0007903302268294448,0.0043105632066726685,0.026295076474571723,0.4779699782594036,9554.370574132232,2741.4818306880247,85833.005728506,0.0,0.0,0.0,0.0,0,1,38880,1944,972,33951,3378,3380,16976,1689,1690,33951,3378,3380,0,58080.000100000005,2784.0001,1168.0001,0.0,0.02163926499032882,0.47187169463998807
joint_finetune,81,39360,-116537.67130992266,-116537.67130992266,-242.78681522900564,-1972.6422036712872,-32.69242889821836,,-82840.16512280364,,,,,,39360,1968,984,0,78,0.22464230241287328,0.9107492634369218,1.7561186578992268e-10,8.429369557916289e-08,0.22464230248976189,0.9107492566108704,1.606642869611581,1.7320507764816284,0.0006762818957213312,0.004089526832103729,0.028092197928195523,0.4776369019821425,11465.106940601385,2737.6562632442533,87456.56728828672,0.0,0.0,0.0,0.0,0,1,39360,1968,984,34432,3426,3428,17216,1713,1714,34432,3426,3428,0,58560.000100000005,2808.0001,1180.0001,0.0,0.02101970502901354,0.4704698459092146
joint_finetune,82,39840,-120743.1361326827,-120743.1361326827,-251.54820027642225,-2008.0981442550735,-33.254636999159416,,-82840.16512280364,,,,,,39840,1992,996,0,77,0.202062707984926,0.9149036597381124,1.7561186578992268e-10,8.429369557916289e-08,0.2020627079230811,0.9149036407470703,1.6080750698844593,1.7320507764816284,0.0009784713937816296,0.0041251350194215775,0.028539877482299292,0.47797073375268007,11713.218459713069,2741.498834403634,90974.07809011031,0.0,0.0,0.0,0.0,0,1,39840,1992,996,34913,3474,3476,17457,1737,1738,34913,3474,3476,0,59040.000100000005,2832.0001,1192.0001,0.0,0.02101970502901354,0.47289529091154353
joint_finetune,83,40320,-183709.7212446502,-183709.7212446502,-382.7285859263542,-2214.353431823358,-32.09149825481058,,-82840.16512280364,,,,,,40320,2016,1008,0,75,0.24200152305621325,1.076754708961375,1.7561186578992268e-10,8.429369557916289e-08,0.24200152297659466,1.0767546892166138,1.6054351727167766,1.7320507764816284,0.000854083117288114,0.003983994480222464,0.02842460994837229,0.47761688540258357,11691.226243129597,2737.433255100287,154853.78150503724,0.0,0.0,0.0,0.0,0,3,40320,2016,1008,35394,3522,3524,17697,1761,1762,35394,3522,3524,0,59520.000100000005,2856.0001,1204.0001,0.0,0.02115570599613153,0.4643156131300751
joint_finetune,84,40800,-114777.9919142937,-114777.9919142937,-239.12081648811207,-2144.1955127621773,-34.05578160988585,-141839.41045296003,-82840.16512280364,0.0,1.0,1.0,0.02930000058544724,0.4772207237111812,40800,2040,1020,0,87,0.2072214495737555,0.9060064827388259,1.7561186578992268e-10,8.429369557916289e-08,0.20722144862714534,0.9060064554214478,1.6091816847523053,1.7320507764816284,0.0007021308172790503,0.004269834607839584,0.028525771142332203,0.47804189007096815,11706.473554286216,2742.3172112749953,85142.52458534938,0.0,0.0,0.0,0.0,0,1,40800,2040,1020,35875,3570,3572,17938,1785,1786,35875,3570,3572,0,60000.000100000005,2880.0001,1216.0001,0.0,0.021185928433268858,0.4722552361179367
joint_finetune,85,41280,-123352.43857472799,-123352.43857472799,-256.9842470306834,-2085.2752789870497,-34.87235540362141,,-82840.16512280364,,,,,,41280,2064,1032,0,78,0.2015071742233384,0.9324444002352816,1.7561186578992268e-10,8.429369557916289e-08,0.2015071737812832,0.9324443936347961,1.6070756018161774,1.7320507764816284,0.0006415556047365747,0.004010459408164024,0.02837610774374643,0.4777220564749623,11661.61728124286,2738.632845475997,93723.01423779754,0.0,0.0,0.0,0.0,0,1,41280,2064,1032,36356,3618,3620,18178,1809,1810,36356,3618,3620,0,60480.000100000005,2904.0001,1228.0001,0.0,0.02150326402321083,0.4645832706696752
joint_finetune,86,41760,-104862.26433556998,-104862.26433556998,-218.46305069910426,-2044.357562303345,-34.88118912147822,,-82840.16512280364,,,,,,41760,2088,1044,0,82,0.22151635112685492,0.9041810729430901,1.7561186578992268e-10,8.429369557916289e-08,0.22151635189754112,0.9041810631752014,1.6013294979929924,1.7320507764816284,0.000984480090582193,0.004281499423086643,0.025377881692148458,0.4777061420142407,8978.34027553693,2738.4546712615825,78237.29607704538,0.0,0.0,0.0,0.0,0,1,41760,2088,1044,36837,3666,3668,18419,1833,1834,36837,3666,3668,0,60960.000100000005,2928.0001,1240.0001,0.0,0.021986823017408123,0.4661236705125185
joint_finetune,87,42240,-112079.22514263996,-112079.22514263996,-233.49838571383316,-2057.040205747668,-33.05763284237457,,-82840.16512280364,,,,,,42240,2112,1056,0,80,0.22350212555070173,0.9073631290380253,1.7561186578992268e-10,8.429369557916289e-08,0.223502125494997,0.9073631167411804,1.604426123201847,1.7320507764816284,0.0005711549006677656,0.0038246300537139177,0.028161406870378915,0.47786823424073205,11346.183520232335,2740.3105524108364,83079.19202729822,0.0,0.0,0.0,0.0,0,1,42240,2112,1056,37318,3714,3716,18659,1857,1858,37318,3714,3716,0,61440.000100000005,2952.0001,1252.0001,0.0,0.02111037234042553,0.4646086763136622
joint_finetune,88,42720,-117882.15389892689,-117882.15389892689,-245.58782062276427,-2187.8871148671415,-33.83980825593719,,-82840.16512280364,,,,,,42720,2136,1068,0,80,0.22529397910332097,0.9040065677703465,1.7561186578992268e-10,8.429369557916289e-08,0.2252939777992045,0.9040065407752991,1.60663124670585,1.7320507764816284,0.0006147151851275174,0.003845913801342249,0.028440258388572538,0.478318785402812,11653.340342103256,2745.5156434064975,88301.69599671602,0.0,0.0,0.0,0.0,0,1,42720,2136,1068,37799,3762,3764,18900,1881,1882,37799,3762,3764,0,61920.000100000005,2976.0001,1264.0001,0.0,0.02088370406189555,0.46224792621583033
joint_finetune,89,43200,-203355.94854248382,-203355.94854248382,-423.6582261301744,-2587.8079244403175,-34.27802684256074,-196934.2103632992,-82840.16512280364,0.0,1.0,1.0,0.030682508823511118,0.4771606014232497,43200,2160,1080,0,83,0.22301546867387606,1.0237362324147068,1.7561186578992268e-10,8.429369557916289e-08,0.22301546832022723,1.0237362384796143,1.60472205777963,1.7320507764816284,0.0006440416440124285,0.004035644233226776,0.03180997817596297,0.47768682119613326,14973.830463814265,2738.231273180994,171009.15422780567,0.0,0.0,0.0,0.0,0,3,43200,2160,1080,38280,3810,3812,19140,1905,1906,38280,3810,3812,0,62400.000100000005,3000.0001,1276.0001,0.0,0.020551257253384914,0.46654442361982923
joint_finetune,90,43680,-196639.74407014716,-196639.74407014716,-409.6661334794731,-2060.1292686664506,-34.23764032050103,,-82840.16512280364,,,,,,43680,2184,1092,0,82,0.2383735537959228,1.0739427154090617,1.7561186578992268e-10,8.429369557916289e-08,0.23837355518965828,1.07394278049469,1.6031805003682773,1.7320507764816284,0.0005604112692791122,0.003892774460837245,0.03219114602242908,0.4779755342093658,15068.33167285972,2741.5473047117193,164441.21120530006,0.0,0.0,0.0,0.0,0,3,43680,2184,1092,38761,3858,3860,19381,1929,1930,38761,3858,3860,0,62880.000100000005,3024.0001,1288.0001,0.0,0.020400145067698258,0.4681938129767228
joint_finetune,91,44160,-183078.62694224762,-183078.62694224762,-381.4138061296824,-2197.606609555343,-33.93650003656892,,-82840.16512280364,,,,,,44160,2208,1104,0,79,0.23784579436677245,1.0808974139596972,1.7561186578992268e-10,8.429369557916289e-08,0.23784579317143653,1.0808974504470825,1.6094839001695316,1.7320507764816284,0.0005947784652975811,0.003933809231966734,0.028610299988613537,0.4778336780199988,11741.184397916713,2739.9190722603253,154259.82527415,0.0,0.0,0.0,0.0,0,3,44160,2208,1104,39242,3906,3908,19621,1953,1954,39242,3906,3908,0,63360.000100000005,3048.0001,1300.0001,0.0,0.020445478723404256,0.46728203980327804
joint_finetune,92,44640,-178196.22190785335,-178196.22190785335,-371.24212897469465,-2304.748129092598,-31.9786571103776,,-82840.16512280364,,,,,,44640,2232,1116,0,82,0.2257116587144131,1.0864672816801821,1.7561186578992268e-10,8.429369557916289e-08,0.22571165786794153,1.0864672660827637,1.6028256664673488,1.7320507764816284,0.0005277883107985624,0.003842797363176942,0.030495463249419073,0.47759320643940917,13654.023529437898,2737.1581553061956,147025.03916973708,0.0,0.0,0.0,0.0,0,3,44640,2232,1116,39723,3954,3956,19862,1977,1978,39723,3954,3956,0,63840.000100000005,3072.0001,1312.0001,0.0,0.020249032882011606,0.46826153030939677
joint_finetune,93,45120,-112674.61632616605,-112674.61632616605,-234.7387840128461,-2004.273816537909,-20.072566050282116,,-82840.16512280364,,,,,,45120,2256,1128,0,80,0.19340935840870171,0.8825220189876621,1.7561186578992268e-10,8.429369557916289e-08,0.19340935850632376,0.8825219869613647,1.60243105640014,1.7320507764816284,0.0005505018932374448,0.0038918533828109503,0.028925855284328856,0.47807464600242816,12074.64728418305,2742.7024654988145,82489.96444885776,0.0,0.0,0.0,0.0,0,1,45120,2256,1128,40204,4002,4004,20102,2001,2002,40204,4002,4004,0,64320.000100000005,3096.0001,1324.0001,0.0,0.020385033849129593,0.4682756967885812
joint_finetune,94,45600,-116917.87369924781,-116917.87369924781,-243.57890354009993,-2175.4907378060548,-33.59246700151209,-124862.16369437665,-82840.16512280364,0.0,1.0,1.0,0.026543752326833495,0.4771145480224012,45600,2280,1140,0,77,0.2251440872384137,0.9239152532231631,1.7561186578992268e-10,8.429369557916289e-08,0.22514408614921802,0.9239152073860168,1.5990841661890347,1.7320507764816284,0.0005597520503215492,0.003879257943481207,0.026088240562115794,0.4777298651030078,9480.74863429529,2738.7281442428985,89502.57362248865,0.0,0.0,0.0,0.0,0,1,45600,2280,1140,40685,4050,4052,20343,2025,2026,40685,4050,4052,0,64800.000100000005,3120.0001,1336.0001,0.0,0.020218810444874273,0.4707169143097544
joint_finetune,95,46080,-122836.91122565411,-122836.91122565411,-255.910231720113,-2059.615312410484,-32.23818071278388,,-82840.16512280364,,,,,,46080,2304,1152,0,78,0.21804280610923618,0.9256251354258374,1.7561186578992268e-10,8.429369557916289e-08,0.21804280765645673,0.9256250858306885,1.6025061359008153,1.7320507764816284,0.0006616482132812962,0.004133007023483515,0.026923694735629302,0.47785439750276115,10167.514070248859,2740.1554018455754,94898.9805345485,0.0,0.0,0.0,0.0,0,1,46080,2304,1152,41166,4098,4100,20583,2049,2050,41166,4098,4100,0,65280.000100000005,3144.0001,1348.0001,0.0,0.02088370406189555,0.469001979673393
joint_finetune,96,46560,-142156.8307739926,-142156.8307739926,-296.1600641124847,-2177.3636689954938,-32.270878632297574,,-82840.16512280364,,,,,,46560,2328,1164,0,78,0.2226961185347797,0.928840892577954,1.7561186578992268e-10,8.429369557916289e-08,0.22269611772305023,0.9288409352302551,1.5975330919027328,1.7320507764816284,0.000607093742556489,0.004179462790489197,0.029810604439134063,0.4775620953195881,12436.223607594004,2736.795965760879,111799.53022319001,0.0,0.0,0.0,0.0,0,1,46560,2328,1164,41647,4146,4148,20824,2073,2074,41647,4146,4148,0,65760.0001,3168.0001,1360.0001,0.0,0.019463249516441006,0.4707950203169706
joint_finetune,97,47040,-148917.59971611024,-148917.59971611024,-310.24499940856305,-4161.737742877317,-34.94035408514539,,-82840.16512280364,,,,,,47040,2352,1176,0,82,0.20247010152657904,0.9804274984365721,1.7561186578992268e-10,8.429369557916289e-08,0.20247010140640972,0.9804274439811707,1.5987981061140697,1.7320507764816284,0.0005806948181337,0.0038931909948587418,0.029463949610375753,0.4778701929692411,13019.948077256264,2740.342019606919,118036.35532331956,0.0,0.0,0.0,0.0,0,2,47040,2352,1176,42128,4194,4196,21064,2097,2098,42128,4194,4196,0,66240.0001,3192.0001,1372.0001,0.0,0.019327248549323016,0.4687905170931346
joint_finetune,98,47520,-280118.4001904882,-280118.4001904882,-583.5800003968504,-13889.039501284007,-34.237033867388746,,-82840.16512280364,,,,,,47520,2376,1188,0,83,0.226394599166996,0.9041195685839354,1.7561186578992268e-10,8.429369557916289e-08,0.22639459839216822,0.9041195511817932,1.576591469347477,1.7320507764816284,0.0006290928858189462,0.0039507076144218445,0.0317970731030156,0.488243698818221,15760.627077014598,2890.8853112974666,246313.62108352213,365.5409438584097,0.0,0.0,0.0,0,2,47520,2376,1188,42609,4242,4244,21305,2121,2122,42609,4242,4244,0,66720.0001,3216.0001,1384.0001,0.0,0.01964458413926499,0.47060329667373596
joint_finetune,99,48000,-121657.58168505231,-121657.58168505231,-253.4532951771921,-2096.1364801364384,-30.93115834748005,-213898.19901518233,-82840.16512280364,0.0,1.0,1.0,0.028467140311888132,0.4807563858778962,48000,2400,1200,0,83,0.21503175927221194,0.9024720155705177,1.7561186578992268e-10,8.429369557916289e-08,0.21503175826995477,0.9024719595909119,1.6067016621430714,1.7320507764816284,0.0005591667927960357,0.0037349797785282135,0.02603968537928847,0.4781109236973523,9435.08897849559,2743.1182187478767,94511.66970150353,0.0,0.0,0.0,0.0,0,1,48000,2400,1200,43090,4290,4292,21545,2145,2146,43090,4290,4292,0,67200.0001,3240.0001,1396.0001,0.0,0.019327248549323016,0.46908943600073544
