fang3a/FuN_TD3_Codex/hierarchical_td3_optimized_runs/optimized_all_stages_20260715_165906/manager_train/20260715_181754/episode_log.csv
stage,episode,global_step,episode_return,manager_return,mean_step_reward,min_step_reward,max_step_reward,eval_return,best_eval_return,eval_solver_failures,eval_power_success_rate,eval_gas_success_rate,eval_mean_voltage_rms_deviation_pu,eval_mean_gas_pressure_rms_deviation_bar,fast_buffer_size,slow_buffer_size,manager_buffer_size,solver_failures,gas_solve_count,mean_action_projection,max_action_projection,mean_slow_action_projection,max_slow_action_projection,mean_fast_action_projection,max_fast_action_projection,mean_ess_action_guard,max_ess_action_guard,mean_goal_change,max_goal_change,mean_voltage_rms_deviation_pu,mean_gas_pressure_rms_deviation_bar,voltage_deviation_cost,gas_pressure_deviation_cost,voltage_violation_cost,gas_pressure_violation_cost,pipe_velocity_violation_cost,source_capacity_violation_cost,gas_purchase_cost,interaction_reward_estimated_clips,manager_reward_clips,fast_total_insertions,slow_total_insertions,manager_total_insertions,fast_update_count,slow_update_count,manager_update_count,fast_actor_update_count,slow_actor_update_count,manager_actor_update_count,fast_critic_update_count,slow_critic_update_count,manager_critic_update_count,nonfinite_batch_count,fast_normalizer_count,slow_normalizer_count,manager_normalizer_count,mean_target_q_clipping_ratio,mean_reward_clipping_ratio,mean_actor_action_saturation_ratio,fast_actor_action_abs_mean,slow_actor_action_abs_mean,fast_actor_reference_deviation_rms,slow_actor_reference_deviation_rms,fast_curtailment_action_mean
manager_train,0,480,-65909.27469065844,-3970.699495912461,-137.31098893887165,-1699.3039091584033,-14.258331130474366,,-inf,,,,,,480,24,12,0,77,0.1550907461329583,0.7582594170208081,0.0,0.0,0.1550907466521797,0.7582594156265259,0.0,0.0,0.2611735896630721,0.32130539417266846,0.025124400619545382,0.5692772748290819,9298.559336439654,3889.060514507762,43759.64024878652,0.0,0.0,0.0,0.0,0,0,480,24,12,0,0,0,0,0,0,0,0,0,0,14400.000100000001,480.0001,0.0001,0.0,0.0,0.0,0.0,0.0,0.0,0.0,0.0
manager_train,1,960,-79940.57853269295,-3157.098234574685,-166.54287194311047,-9358.11787184189,-10.708180634185249,,-inf,,,,,,960,48,24,0,75,0.08614573673472999,0.6438031479676174,0.0,0.0,0.08614573667291552,0.6438031792640686,0.0,0.0,0.25594891201366077,0.3410964608192444,0.0205146929368415,0.568176435832851,6749.699929766472,3874.0253731822736,62765.41360936792,0.0,0.0,0.0,0.0,0,0,960,48,24,0,0,0,0,0,0,0,0,0,0,14400.000100000001,480.0001,0.0001,0.0,0.0,0.0,0.0,0.0,0.0,0.0,0.0
manager_train,2,1440,-78882.27405358737,-3454.2783437221024,-164.33807094497377,-3925.333096920138,-12.443864526138851,,-inf,,,,,,1440,72,36,0,76,0.13435258007065268,0.8462558026272878,0.0,0.0,0.13435258050837243,0.8462558388710022,0.0,0.0,0.2594654289158908,0.32116955518722534,0.023284817907995557,0.5705366480440988,8680.253317134891,3906.2966406868213,57862.979367057604,0.0,0.0,0.0,0.0,0,0,1440,72,36,0,0,0,0,0,0,0,0,0,0,14400.000100000001,480.0001,0.0001,0.0,0.0,0.0,0.0,0.0,0.0,0.0,0.0
manager_train,3,1920,-32248.765154838384,-2575.501828093138,-67.18492740591334,-1544.8133488154751,-10.055922168762333,,-inf,,,,,,1920,96,48,0,80,0.1304577969185098,0.7104431815172507,0.0,0.0,0.13045779671422983,0.7104431986808777,0.0,0.0,0.26753382655707275,0.3520103991031647,0.01924510740837632,0.5701397852722689,5641.169805855583,3900.9370912869763,15783.056438313282,0.0,0.0,0.0,0.0,0,0,1920,96,48,0,0,0,0,0,0,0,0,0,0,14400.000100000001,480.0001,0.0001,0.0,0.0,0.0,0.0,0.0,0.0,0.0,0.0
manager_train,4,2400,-63510.934147411834,-3497.943656738386,-132.31444614044128,-3614.9082891485677,-10.833591546948535,-69330.52745201698,-69330.52745201698,0.0,1.0,1.0,0.015454970009053088,0.48350019134901406,2400,120,60,0,83,0.10347352393235622,0.6018546679783505,2.4156702029334843e-17,5.82205724602991e-15,0.10347352349587406,0.6018546223640442,0.32881798564145964,1.1225672960281372,0.19901560992002487,0.3304172456264496,0.01668576055769199,0.5465121613138165,5295.307891486728,3589.541230482635,47289.49089396946,0.0,0.0,0.0,0.0,0,0,2400,120,60,0,0,0,0,0,0,0,0,0,0,14400.000100000001,480.0001,8.0001,0.0,0.0,0.0,0.0,0.0,0.0,0.0,0.0
manager_train,5,2880,-46064.675570805724,-4241.522883409236,-95.96807410584515,-4242.127493202607,-9.371415090833507,,-69330.52745201698,,,,,,2880,144,72,0,75,0.12524496727984544,0.5950214930326307,5.432716880095718e-11,2.60770320892334e-08,0.12524496663051346,0.5950214862823486,1.5170691808064778,1.72642982006073,0.11390383033589883,0.1657429337501526,0.014642771478812629,0.48765751588900097,3991.156556381998,2854.3487493581865,32796.51959640759,0.0,0.0,0.0,0.0,0,0,2880,144,72,0,0,0,0,0,0,0,0,0,0,14400.000100000001,480.0001,20.0001,0.0,0.0,0.0,0.0,0.0,0.0,0.0,0.0
manager_train,6,3360,-53125.830494596405,-4263.302230896407,-110.67881353040914,-5916.920543627922,-9.347356456628962,,-69330.52745201698,,,,,,3360,168,84,0,80,0.09100995237285821,0.6312202040899937,1.7561186578992268e-10,8.429369557916289e-08,0.09100995284194748,0.6312202215194702,1.6172693967819214,1.7262219190597534,0.14615902507847006,0.25021564960479736,0.014353566030576118,0.4835047627318989,4030.0735380575334,2805.3259464043726,40058.603299042836,0.0,0.0,0.0,0.0,0,0,3360,168,84,0,0,0,0,0,0,0,0,0,0,14400.000100000001,480.0001,32.0001,0.0,0.0,0.0,0.0,0.0,0.0,0.0,0.0
manager_train,7,3840,-61599.389258561656,-4374.145521775036,-128.33206095533697,-6337.727106895037,-9.055717095358032,,-69330.52745201698,,,,,,3840,192,96,0,81,0.11755517023953004,0.6687161559641187,1.7561186578992268e-10,8.429369557916289e-08,0.11755517048295587,0.6687161326408386,1.6170846770207088,1.7264631986618042,0.14903038333762775,0.2224213033914566,0.016496498091278518,0.4835057152234334,4936.9139554121475,2805.336961748156,47625.92225828289,0.0,0.0,0.0,0.0,0,0,3840,192,96,0,0,0,0,0,0,0,0,0,0,14400.000100000001,480.0001,44.0001,0.0,0.0,0.0,0.0,0.0,0.0,0.0,0.0
manager_train,8,4320,-71924.14162557214,-4379.628449314905,-149.8419617199423,-6740.526405339418,-9.650901921639232,,-69330.52745201698,,,,,,4320,216,108,0,85,0.0719551110379789,0.6823819258771753,1.7561186578992268e-10,8.429369557916289e-08,0.07195511148311198,0.6823819279670715,1.6169783820708592,1.726730227470398,0.12334293262525038,0.23644551634788513,0.01573249436278496,0.4835071911348366,4965.1878389128915,2805.3539936627553,58361.147087687255,0.0,0.0,0.0,0.0,0,0,4320,216,108,0,0,0,0,0,0,0,0,0,0,14400.000100000001,480.0001,56.0001,0.0,0.0,0.0,0.0,0.0,0.0,0.0,0.0
manager_train,9,4800,-74998.5250564265,-4536.3295829491235,-156.2469272008886,-7970.599682854265,-9.696908045324232,-82572.8671492057,-69330.52745201698,0.0,1.0,1.0,0.0180320630821177,0.4835059122851903,4800,240,120,0,80,0.10277498083129281,0.6563939787875058,1.7561187735474586e-10,8.429369557916289e-08,0.10277498027620216,0.6563940048217773,1.6171767885486286,1.7267998456954956,0.15431850268082184,0.24603596329689026,0.01715861451549995,0.4835036704422205,5400.106347205326,2805.313168655016,60561.58316483447,0.0,0.0,0.0,0.0,0,0,4800,240,120,0,0,0,0,0,0,0,0,0,0,14400.000100000001,480.0001,68.0001,0.0,0.0,0.0,0.0,0.0,0.0,0.0,0.0
manager_train,10,5280,-74655.30960326726,-4700.604792075522,-155.53189500680656,-7852.435130433083,-8.896481462555991,,-69330.52745201698,,,,,,5280,264,132,0,80,0.08855879147691674,0.6830127246883694,1.7561187735474586e-10,8.429369557916289e-08,0.08855879064649344,0.6830127239227295,1.617041327059269,1.7267268896102905,0.16606079922481018,0.23330625891685486,0.01578341387935984,0.48351851708706106,5140.127525752154,2805.4853617416516,60802.944043050156,0.0,0.0,0.0,0.0,0,0,5280,264,132,0,0,20,0,0,10,0,0,20,0,14400.000100000001,480.0001,80.0001,0.0,0.0,0.0,0.0,0.0,0.0,0.0,0.0
manager_train,11,5760,-72620.64387711526,-4940.625586721143,-151.29300807732335,-6572.9698261522535,-8.127725187779518,,-69330.52745201698,,,,,,5760,288,144,0,81,0.13738174174832415,0.7541268045402445,1.7561186578992268e-10,8.429369557916289e-08,0.13738174196332692,0.754126787185669,1.616604705651601,1.7266916036605835,0.15484098175709898,0.23872901499271393,0.01939321634553037,0.4835255650181905,6652.042475540722,2805.5672330244606,56567.24679748305,0.0,0.0,0.0,0.0,0,0,5760,288,144,0,0,68,0,0,34,0,0,68,0,14400.000100000001,480.0001,92.0001,0.0,0.0,0.0,0.0,0.0,0.0,0.0,0.0
manager_train,12,6240,-145946.06236234147,-6194.983016256043,-304.0542965882116,-6972.607151993513,-8.500360579822125,,-69330.52745201698,,,,,,6240,312,156,0,78,0.1287538200239147,0.7509766568785052,1.7561186578992268e-10,8.429369557916289e-08,0.1287538199685514,0.7509766221046448,1.6163025846083958,1.7261440753936768,0.10339956023645672,0.22895249724388123,0.023308954064676375,0.48351427888405946,10213.061494387737,2805.436090325464,126485.36239862382,0.0,0.0,0.0,0.0,0,0,6240,312,156,0,0,116,0,0,58,0,0,116,0,14400.000100000001,480.0001,104.0001,0.0,0.0,0.0,0.0,0.0,0.0,0.0,0.0
manager_train,13,6720,-224498.9457013445,-7691.4783420665,-467.70613687780167,-7170.878997729138,-8.28282384017043,,-69330.52745201698,,,,,,6720,336,168,0,83,0.14210808789596008,0.7478429052583917,1.7561186578992268e-10,8.429369557916289e-08,0.14210808960633586,0.7478429675102234,1.6159825945893924,1.7262341976165771,0.05689612799324095,0.2456582933664322,0.02726565171873218,0.48350440911253617,14350.695368074648,2805.3217477622966,200682.3619675582,0.0,0.0,0.0,0.0,0,0,6720,336,168,0,0,164,0,0,82,0,0,164,0,14400.000100000001,480.0001,116.0001,0.0,0.0,0.0,0.0,0.0,0.0,0.0,0.0
manager_train,14,7200,-224840.9974977533,-8117.267798847287,-468.4187447869861,-5464.0746037379095,-8.470599168639504,-272416.0088671102,-69330.52745201698,0.0,1.0,1.0,0.036785666532054756,0.4835103381697352,7200,360,180,0,82,0.15403813577921924,0.7728616660869349,1.7561186578992268e-10,8.429369557916289e-08,0.15403813580439116,0.772861659526825,1.6159089927872021,1.7261990308761597,0.040179839823395014,0.2026408463716507,0.031357153861781305,0.48351315355987173,16288.620847903198,2805.423202215047,198733.54546674923,0.0,0.0,0.0,0.0,0,0,7200,360,180,0,0,212,0,0,106,0,0,212,0,14400.000100000001,480.0001,128.0001,0.0,0.0,0.0020751953125,0.0,0.0,0.0,0.0,0.0
manager_train,15,7680,-129700.94555561345,-7043.660897080724,-270.2103032408612,-5062.8714548739035,-8.017996772575756,,-69330.52745201698,,,,,,7680,384,192,0,81,0.16224942471032724,0.7044610569030761,1.7561187735474586e-10,8.429369557916289e-08,0.16224942464226236,0.7044610381126404,1.6160875136653583,1.7258715629577637,0.038720517345196145,0.192864328622818,0.030743337726994436,0.4835060320265514,14058.88142351085,2805.34060659383,105818.04502115663,0.0,0.0,0.0,0.0,0,0,7680,384,192,0,0,260,0,0,130,0,0,260,0,14400.000100000001,480.0001,140.0001,0.0,0.0,0.02679443359375,0.0,0.0,0.0,0.0,0.0
manager_train,16,8160,-91504.28546440651,-6037.144466471903,-190.63392805084672,-4793.333144049622,-9.185910244762244,,-69330.52745201698,,,,,,8160,408,204,0,83,0.14935127798228454,0.7336380072016792,1.7561186995325903e-10,8.429369557916289e-08,0.14935127715580165,0.7336379885673523,1.6163015887141228,1.7259324789047241,0.04175617587646808,0.2292543649673462,0.027718582217994985,0.4835141670994752,11316.73852080572,2805.4350188982517,70678.7129242326,0.0,0.0,0.0,0.0,0,0,8160,408,204,0,0,308,0,0,154,0,0,308,0,14400.000100000001,480.0001,152.0001,0.0,0.0,0.02972412109375,0.0,0.0,0.0,0.0,0.0
manager_train,17,8640,-136426.69083072754,-5763.173835947615,-284.2222725640158,-5494.680867775007,-9.152267509197337,,-69330.52745201698,,,,,,8640,432,216,0,80,0.14130643954393074,0.7396242575801548,1.7561187735474586e-10,8.429369557916289e-08,0.141306439274922,0.7396243214607239,1.6169741700092952,1.7261439561843872,0.047213123444552446,0.2631784975528717,0.02314470077002484,0.4835157994222579,8898.623831076597,2805.4540832991743,117273.88069887985,0.0,0.0,0.0,0.0,0,0,8640,432,216,0,0,356,0,0,178,0,0,356,0,14400.000100000001,480.0001,164.0001,0.0,0.0,0.01800537109375,0.0,0.0,0.0,0.0,0.0
manager_train,18,9120,-221670.60456616268,-6751.433527832246,-461.8137595128389,-7765.9654850613915,-10.435299632873766,,-69330.52745201698,,,,,,9120,456,228,0,76,0.11196804563256349,0.5885399756678866,1.7561187735474586e-10,8.429369557916289e-08,0.1119680457515642,0.5885399580001831,1.6172556355595589,1.7260452508926392,0.058794554651037535,0.3428446352481842,0.027057906233920785,0.48351783031685514,11701.168244991362,2805.4774199952813,199261.23053164937,0.0,0.0,0.0,0.0,0,0,9120,456,228,0,0,404,0,0,202,0,0,404,0,14400.000100000001,480.0001,176.0001,0.0,0.0,0.035054524739583336,0.0,0.0,0.0,0.0,0.0
manager_train,19,9600,-148603.49666893148,-5153.311067589972,-309.5906180602736,-8137.554146238191,-10.252757615552644,-79703.76005060162,-69330.52745201698,0.0,1.0,1.0,0.020926823865480254,0.48351318854109865,9600,480,240,0,83,0.10903543560968484,0.5168021379153606,1.7561186578992268e-10,8.429369557916289e-08,0.10903543478343636,0.5168021321296692,1.6173764665921528,1.7258347272872925,0.062296611547935754,0.3704737424850464,0.022109417029957112,0.48351579532335776,8273.765517032763,2805.4539828555985,130094.52036823505,0.0,0.0,0.0,0.0,0,0,9600,480,240,0,0,452,0,0,226,0,0,452,0,14400.000100000001,480.0001,188.0001,0.0,0.0,0.0533447265625,0.0,0.0,0.0,0.0,0.0
manager_train,20,10080,-82955.83082101896,-4657.270979182946,-172.82464754378944,-7000.000691412351,-11.461895966943803,,-69330.52745201698,,,,,,10080,504,252,0,80,0.11955857438379452,0.5696985695860309,1.7561186578992268e-10,8.429369557916289e-08,0.11955857429032525,0.5696985721588135,1.6177131608128548,1.7262969017028809,0.06639750193889168,0.39751142263412476,0.017306460345071942,0.4835149801804997,5319.141043610639,2805.444465565807,67005.68309990726,0.0,0.0,0.0,0.0,0,0,10080,504,252,0,0,500,0,0,250,0,0,500,0,14400.000100000001,480.0001,200.0001,0.0,0.0,0.04364013671875,0.0,0.0,0.0,0.0,0.0
manager_train,21,10560,-58395.90089208261,-4255.422252620107,-121.65812685850548,-6172.220167210475,-9.05019895516394,,-69330.52745201698,,,,,,10560,528,264,0,89,0.09118758516800975,0.521910962724536,1.7561186995325903e-10,8.429369557916289e-08,0.09118758547895899,0.5219109654426575,1.6179345672329266,1.7265000343322754,0.06532437264368954,0.3859996497631073,0.015599001919753523,0.4835250212662523,4339.47806016941,2805.5609758494124,43768.49152624263,0.0,0.0,0.0,0.0,0,0,10560,528,264,0,0,548,0,0,274,0,0,548,0,14400.000100000001,480.0001,212.0001,0.0,0.0,0.0509033203125,0.0,0.0,0.0,0.0,0.0
manager_train,22,11040,-41416.17135749987,-3986.6199685817246,-86.28369032812469,-6178.381438196216,-9.033176076009527,,-69330.52745201698,,,,,,11040,552,276,0,81,0.08415109139639963,0.49637255690617876,1.7561187735474586e-10,8.429369557916289e-08,0.08415109054573501,0.4963725507259369,1.6179537648955982,1.7271203994750977,0.05208099156152457,0.31326189637184143,0.013037048004528543,0.48352587302768213,3344.850364010482,2805.5709624706524,28487.150743986316,0.0,0.0,0.0,0.0,0,0,11040,552,276,0,0,596,0,0,298,0,0,596,0,14400.000100000001,480.0001,224.0001,0.0,0.0,0.0391845703125,0.0,0.0,0.0,0.0,0.0
manager_train,23,11520,-64885.28250976719,-4298.929000208498,-135.1776718953483,-6122.070837431229,-8.225824040736558,,-69330.52745201698,,,,,,11520,576,288,0,87,0.0828154433633886,0.4970424875788224,1.7561186995325903e-10,8.429369557916289e-08,0.0828154428396374,0.4970424771308899,1.6178245147069295,1.727220058441162,0.05463968990211883,0.32563894987106323,0.014381984363983887,0.48351256186706,4273.3142107079975,2805.416271826794,51083.55989629014,0.0,0.0,0.0,0.0,0,0,11520,576,288,0,0,644,0,0,322,0,0,644,0,14400.000100000001,480.0001,236.0001,0.0,0.0,0.052510579427083336,0.0,0.0,0.0,0.0,0.0
manager_train,24,12000,-62452.22409080066,-4251.887567529122,-130.10880018916797,-5508.12835486603,-8.44969587124462,-63049.25616636073,-63049.25616636073,0.0,1.0,1.0,0.013758289258076255,0.48351360890374107,12000,600,300,0,75,0.08205992334317264,0.4299350118207019,1.7561186578992268e-10,8.429369557916289e-08,0.08205992300063372,0.4299350082874298,1.6175769368807476,1.7272549867630005,0.05391623150684278,0.31929829716682434,0.0140921923411137,0.48352855889788326,4092.0639829106135,2805.601975903301,48900.56985422508,0.0,0.0,0.0,0.0,0,0,12000,600,300,0,0,692,0,0,346,0,0,692,0,14400.000100000001,480.0001,248.0001,0.0,0.0,0.099853515625,0.0,0.0,0.0,0.0,0.0
manager_train,25,12480,-63328.59313638467,-4269.813359936495,-131.93456903413457,-5072.20880273637,-8.292067999938135,,-63049.25616636073,,,,,,12480,624,312,0,79,0.08237823660619428,0.4693214712349499,1.7561186764029438e-10,8.429369557916289e-08,0.08237823558350404,0.46932145953178406,1.6174348791440327,1.727131962776184,0.04994171858098442,0.29774749279022217,0.013638750357843406,0.48351986092566773,4025.2682862726742,2805.501146492749,49914.286115789335,0.0,0.0,0.0,0.0,0,0,12480,624,312,0,0,740,0,0,370,0,0,740,0,14400.000100000001,480.0001,260.0001,0.0,0.0,0.10209147135416667,0.0,0.0,0.0,0.0,0.0
manager_train,26,12960,-59860.20379355364,-4199.011710920613,-124.70875790323672,-4631.308096453124,-7.921692233253575,,-63049.25616636073,,,,,,12960,648,324,0,85,0.07642470453375412,0.5361259136003077,1.7561186764029438e-10,8.429369557916289e-08,0.07642470428254455,0.536125898361206,1.617324468990167,1.7271651029586792,0.05335459654452279,0.31727856397628784,0.012410407257302929,0.48351417425340437,3650.105000011738,2805.4351605643683,47129.28617484018,0.0,0.0,0.0,0.0,0,0,12960,648,324,0,0,788,0,0,394,0,0,788,0,14400.000100000001,480.0001,272.0001,0.0,0.0,0.10282389322916667,0.0,0.0,0.0,0.0,0.0
manager_train,27,13440,-54635.611907244784,-4150.947329717908,-113.82419147342668,-4394.7450583157215,-8.4755077202001,,-63049.25616636073,,,,,,13440,672,336,0,81,0.07745615024129512,0.5156016403185577,1.7561186578992268e-10,8.429369557916289e-08,0.07745614936575293,0.515601634979248,1.6172251602013905,1.7271201610565186,0.05409811696683226,0.32501211762428284,0.012193138050728606,0.483517988840543,3459.6646683546237,2805.479436651886,41928.5216152626,0.0,0.0,0.0,0.0,0,0,13440,672,336,0,0,836,0,0,418,0,0,836,0,14400.000100000001,480.0001,284.0001,0.0,0.0,0.10111490885416667,0.0,0.0,0.0,0.0,0.0
manager_train,28,13920,-60732.91495375796,-4244.605174631548,-126.52690615366245,-4998.994078930113,-7.972267584167053,,-63049.25616636073,,,,,,13920,696,348,0,79,0.07931889826579774,0.4403439392695587,1.7561186578992268e-10,8.429369557916289e-08,0.07931889758134882,0.4403439462184906,1.617188756664594,1.7270476818084717,0.061512400168629196,0.36080294847488403,0.01302165715258782,0.4835142100483595,3766.142676345432,2805.435484562195,47555.446605684614,0.0,0.0,0.0,0.0,0,0,13920,696,348,0,0,884,0,0,442,0,0,884,0,14400.000100000001,480.0001,296.0001,0.0,0.0,0.1015625,0.0,0.0,0.0,0.0,0.0
manager_train,29,14400,-60216.83537103745,-4237.558233672004,-125.45174035632796,-4452.308223932106,-7.6544748803472,-57136.84788990365,-63049.25616636073,0.0,1.0,1.0,0.012638063639332371,0.48351228194957957,14400,720,360,0,79,0.08281779165327446,0.44411872326137214,1.7561186578992268e-10,8.429369557916289e-08,0.08281779217844208,0.4441187083721161,1.6172075470288594,1.7272008657455444,0.06575479372192851,0.38919052481651306,0.0130640663850797,0.48351482919706334,3771.048725251147,2805.4428286428497,47218.981369628025,0.0,0.0,0.0,0.0,0,0,14400,720,360,0,0,932,0,0,466,0,0,932,0,14400.000100000001,480.0001,308.0001,0.0,0.0,0.09938557942708333,0.0,0.0,0.0,0.0,0.0
manager_train,30,14880,-59498.73809331677,-4214.703170121982,-123.95570436107671,-4911.716590400975,-8.808852698922658,,-63049.25616636073,,,,,,14880,744,372,0,81,0.07045231243980105,0.4762229215598262,1.7561186995325903e-10,8.429369557916289e-08,0.07045231245768567,0.4762229323387146,1.6173668876290321,1.727217197418213,0.0620545763945715,0.3702908754348755,0.014041696533785729,0.48351519635973783,4000.062963371859,2805.44700762109,46371.897248509325,0.0,0.0,0.0,0.0,0,0,14880,744,372,0,0,980,0,0,490,0,0,980,0,14400.000100000001,480.0001,320.0001,0.0,0.0,0.10068766276041667,0.0,0.0,0.0,0.0,0.0
manager_train,31,15360,-71505.39773259136,-4361.039537517042,-148.96957860956542,-5161.656518142078,-9.602482258811254,,-63049.25616636073,,,,,,15360,768,384,0,81,0.08189584056628381,0.4321443485044033,1.7561186995325903e-10,8.429369557916289e-08,0.08189584131663044,0.43214431405067444,1.6172256047526996,1.7275019884109497,0.06404372379289601,0.37956202030181885,0.014960681172078235,0.4835168932940519,4529.128500104237,2805.466702957638,57637.55047237577,0.0,0.0,0.0,0.0,0,0,15360,768,384,0,0,1028,0,0,514,0,0,1028,0,14400.000100000001,480.0001,332.0001,0.0,0.0,0.09419759114583333,0.0,0.0,0.0,0.0,0.0
manager_train,32,15840,-67610.41159183758,-4325.885780202842,-140.85502414966177,-5173.515931600935,-9.46988461640633,,-63049.25616636073,,,,,,15840,792,396,0,75,0.08625130652735358,0.5296799860024685,1.7561186578992268e-10,8.429369557916289e-08,0.0862513059284538,0.5296799540519714,1.6173504143953323,1.7272790670394897,0.0669016734464094,0.3964671194553375,0.015015330763493729,0.4835090588580656,4440.3294970401275,2805.375754208463,53834.5964905991,0.0,0.0,0.0,0.0,0,0,15840,792,396,0,0,1076,0,0,538,0,0,1076,0,14400.000100000001,480.0001,344.0001,0.0,0.0,0.08634440104166667,0.0,0.0,0.0,0.0,0.0
manager_train,33,16320,-67099.27492899455,-4338.103827049782,-139.790156102072,-5304.869839715542,-9.544560568558396,,-63049.25616636073,,,,,,16320,816,408,0,83,0.07614201583405962,0.4697148094636286,1.7561186995325903e-10,8.429369557916289e-08,0.0761420160997659,0.46971479058265686,1.6174351647496223,1.7273858785629272,0.07074585166198878,0.419000506401062,0.015326467781162399,0.4835083377884975,4555.470086161045,2805.3675428861693,53179.761470477024,0.0,0.0,0.0,0.0,0,0,16320,816,408,0,0,1124,0,0,562,0,0,1124,0,14400.000100000001,480.0001,356.0001,0.0,0.0,0.08642578125,0.0,0.0,0.0,0.0,0.0
manager_train,34,16800,-65948.54064678524,-4309.876757296273,-137.39279301413592,-5557.582725773815,-9.434151416893522,-55513.67469400737,-63049.25616636073,0.0,1.0,1.0,0.013891094635332125,0.48351213680542554,16800,840,420,0,82,0.07894124896958382,0.4690628836024806,1.7561186578992268e-10,8.429369557916289e-08,0.0789412497698019,0.4690628945827484,1.6174070984125137,1.727199912071228,0.06727331171648322,0.40227586030960083,0.014947421229901973,0.48351130364983325,4396.215569090169,2805.4018852872296,52314.95780932494,0.0,0.0,0.0,0.0,0,0,16800,840,420,0,0,1172,0,0,586,0,0,1172,0,14400.000100000001,480.0001,368.0001,0.0,0.0,0.09018961588541667,0.0,0.0,0.0,0.0,0.0
manager_train,35,17280,-63916.314545630936,-4287.040129947611,-133.1589886367312,-4880.423195631884,-8.183703983233306,,-63049.25616636073,,,,,,17280,864,432,0,84,0.0521948848207163,0.4096310996070152,1.7561186578992268e-10,8.429369557916289e-08,0.05219488459794472,0.40963107347488403,1.6172364751497905,1.7268999814987183,0.06798188834429973,0.40323537588119507,0.014048081872495484,0.4835155547398798,4164.8087172745845,2805.4511966827354,50430.87727117566,0.0,0.0,0.0,0.0,0,0,17280,864,432,0,0,1220,0,0,610,0,0,1220,0,14400.000100000001,480.0001,380.0001,0.0,0.0,0.10001627604166667,0.0,0.0,0.0,0.0,0.0
manager_train,36,17760,-21698.690089929773,-3641.368460650074,-45.20560435402037,-2718.838955877527,-7.937007828828099,,-63049.25616636073,,,,,,17760,888,444,0,84,0.005562223970005162,0.2633202320208019,1.7561186578992268e-10,8.429369557916289e-08,0.005562223967475196,0.2633202373981476,1.617304635544618,1.7263414859771729,0.0631472505973017,0.3778776526451111,0.011915037132060725,0.4835226080571187,2632.0459976178554,2805.532942861257,9743.241804960984,0.0,0.0,0.0,0.0,0,0,17760,888,444,0,0,1268,0,0,634,0,0,1268,0,14400.000100000001,480.0001,392.0001,0.0,0.0,0.10113525390625,0.0,0.0,0.0,0.0,0.0
manager_train,37,18240,-26678.14835974365,-3727.9375458006703,-55.57947574946593,-2630.3832583243843,-7.664446672374236,,-63049.25616636073,,,,,,18240,912,456,0,83,0.004049426771782398,0.14266183011514696,1.7561187735474586e-10,8.429369557916289e-08,0.004049426146472494,0.14266179502010345,1.6172924836476643,1.726527452468872,0.06670355170023289,0.3935694098472595,0.011890522928365777,0.48351741212831456,2751.9859188736327,2805.472708424002,14619.16057798368,0.0,0.0,0.0,0.0,0,0,18240,912,456,0,0,1316,0,0,658,0,0,1316,0,14400.000100000001,480.0001,404.0001,0.0,0.0,0.10552978515625,0.0,0.0,0.0,0.0,0.0
manager_train,38,18720,-21380.8402261507,-3655.212320012307,-44.543417137814004,-2715.0010099061474,-8.128514176885645,,-63049.25616636073,,,,,,18720,936,468,0,82,0.002399292806840349,0.0922451149300173,1.7561186764029438e-10,8.429369557916289e-08,0.0023992927046492694,0.09224510192871094,1.6172322655717533,1.726317286491394,0.06455138662237335,0.38271766901016235,0.012058614142368956,0.4835150409720937,2676.9753238423805,2805.4450802012984,9279.626058915654,0.0,0.0,0.0,0.0,0,0,18720,936,468,0,0,1364,0,0,682,0,0,1364,0,14400.000100000001,480.0001,416.0001,0.0,0.0,0.11617024739583333,0.0,0.0,0.0,0.0,0.0
manager_train,39,19200,-28881.00463844424,-3762.9929305797964,-60.16875966342548,-3015.2460136095124,-7.9029905186416185,-18530.605938304652,-18530.605938304652,0.0,1.0,1.0,0.012600814699824213,0.48351859025752825,19200,960,480,0,85,0.004296667388375649,0.1183111818891717,1.7561186578992268e-10,8.429369557916289e-08,0.0042966670899962384,0.11831115931272507,1.6171795353293419,1.7263818979263306,0.06421051916814494,0.38192856311798096,0.011957789479916318,0.4835205821730491,2789.7076900785437,2805.5096449609596,16745.774990904,0.0,0.0,0.0,0.0,0,0,19200,960,480,0,0,1412,0,0,706,0,0,1412,0,14400.000100000001,480.0001,428.0001,0.0,0.0,0.11808268229166667,0.0,0.0,0.0,0.0,0.0
manager_train,40,19680,-23484.585452386473,-3699.4520036651,-48.926219692471825,-2701.173728992231,-8.14023783123404,,-18530.605938304652,,,,,,19680,984,492,0,78,0.005142123853760865,0.16518275501354662,1.7561186578992268e-10,8.429369557916289e-08,0.0051421234384179115,0.16518276929855347,1.617195226252079,1.7265416383743286,0.0668493334828368,0.3948137164115906,0.012052126624733426,0.48351671365925,2693.656618940795,2805.464454754929,11406.884562080899,0.0,0.0,0.0,0.0,0,0,19680,984,492,0,0,1460,0,0,730,0,0,1460,0,14400.000100000001,480.0001,440.0001,0.0,0.0,0.11952718098958333,0.0,0.0,0.0,0.0,0.0
manager_train,41,20160,-24232.2086802693,-3696.8020780645707,-50.48376808389437,-2826.3609508245167,-7.793442287616525,,-18530.605938304652,,,,,,20160,1008,504,0,78,0.0011079085310977802,0.053910117773701194,1.7561186578992268e-10,8.429369557916289e-08,0.0011079081178953251,0.05391009896993637,1.6171932543317478,1.7267159223556519,0.06363971599652855,0.3749627470970154,0.012145723332188614,0.48351562416386795,2794.6159706218978,2805.4520189290415,12036.166547828292,0.0,0.0,0.0,0.0,0,0,20160,1008,504,0,0,1508,0,0,754,0,0,1508,0,14400.000100000001,480.0001,452.0001,0.0,0.0,0.11960856119791667,0.0,0.0,0.0,0.0,0.0
manager_train,42,20640,-25573.26095930505,-3725.9116302978564,-53.27762699855217,-3005.7156030418596,-7.960582034316201,,-18530.605938304652,,,,,,20640,1032,516,0,81,0.0052276151783568455,0.14671411569974613,1.7561186578992268e-10,8.429369557916289e-08,0.005227615102194249,0.14671409130096436,1.617234356701374,1.7261630296707153,0.06685662038084543,0.3968549966812134,0.012041132321172519,0.4835267700083311,2788.679430841757,2805.581220276478,13425.162996411242,0.0,0.0,0.0,0.0,0,0,20640,1032,516,0,0,1556,0,0,778,0,0,1556,0,14400.000100000001,480.0001,464.0001,0.0,0.0,0.11836751302083333,0.0,0.0,0.0,0.0,0.0
manager_train,43,21120,-26736.943583619923,-3758.859222684687,-55.701965799208146,-2838.4985019089713,-7.6429805604256185,,-18530.605938304652,,,,,,21120,1056,528,0,82,0.005156277926549731,0.1456711797733402,1.7561187735474586e-10,8.429369557916289e-08,0.005156277806963772,0.14567118883132935,1.6171341588099797,1.7262123823165894,0.06820162643932483,0.40061336755752563,0.01241692897194301,0.48351146717020405,2928.0176437875994,2805.403636665734,14344.972174108249,0.0,0.0,0.0,0.0,0,0,21120,1056,528,0,0,1604,0,0,802,0,0,1604,0,14400.000100000001,480.0001,476.0001,0.0,0.0,0.12003580729166667,0.0,0.0,0.0,0.0,0.0
manager_train,44,21600,-22601.257737807995,-3674.966972974272,-47.08595362043327,-2450.2103878432113,-7.970338034301285,-18792.72111665597,-18792.72111665597,0.0,1.0,1.0,0.01265662977359173,0.48351912978233064,21600,1080,540,0,79,0.002973103462706592,0.1228601856726007,1.7561186578992268e-10,8.429369557916289e-08,0.0029731035174336284,0.12286021560430527,1.6171310817201932,1.7265492677688599,0.07075781717272052,0.4162790775299072,0.01219664538412882,0.4835130390052625,2726.98443334457,2805.42194917854,10451.034961543975,0.0,0.0,0.0,0.0,0,0,21600,1080,540,0,0,1652,0,0,826,0,0,1652,0,14400.000100000001,480.0001,488.0001,0.0,0.0,0.11968994140625,0.0,0.0,0.0,0.0,0.0
manager_train,45,22080,-25662.099895587333,-3729.275297180062,-53.46270811580694,-2620.7746340660688,-8.06722530045678,,-18792.72111665597,,,,,,22080,1104,552,0,77,0.0033949716152941595,0.20317967037383217,1.7561187735474586e-10,8.429369557916289e-08,0.003394971205852926,0.20317967236042023,1.6172512645522754,1.7262983322143555,0.06827150760694746,0.3991629481315613,0.011960922553054027,0.4835277339562384,2722.9175966084536,2805.592342857038,13526.53642865295,0.0,0.0,0.0,0.0,0,0,22080,1104,552,0,0,1700,0,0,850,0,0,1700,0,14400.000100000001,480.0001,500.0001,0.0,0.0,0.11930338541666667,0.0,0.0,0.0,0.0,0.0
manager_train,46,22560,-29498.07254252786,-3803.750382930102,-61.45431779693306,-3014.7980580242443,-8.094938066203753,,-18792.72111665597,,,,,,22560,1128,564,0,78,0.004128694664459968,0.14125832423247892,1.7561186995325903e-10,8.429369557916289e-08,0.00412869451683946,0.14125831425189972,1.6171667700012524,1.7265337705612183,0.06986021883891556,0.41442981362342834,0.012360011727778135,0.48351730165038115,2957.0006341945336,2805.4715615569053,16997.056886563787,0.0,0.0,0.0,0.0,0,0,22560,1128,564,0,0,1748,0,0,874,0,0,1748,0,14400.000100000001,480.0001,512.0001,0.0,0.0,0.11983235677083333,0.0,0.0,0.0,0.0,0.0
manager_train,47,23040,-31082.088826409785,-3805.713296559847,-64.7543517216871,-2840.268609497789,-7.740904904571542,,-18792.72111665597,,,,,,23040,1152,576,0,87,0.003567776164979396,0.11426758525541203,1.7561186578992268e-10,8.429369557916289e-08,0.0035677761106247393,0.11426758766174316,1.6171992669502895,1.7264845371246338,0.07090355628646318,0.4131782054901123,0.0125038068231746,0.48352001640374215,3003.166338570037,2805.5028790216334,18623.2629781248,0.0,0.0,0.0,0.0,0,0,23040,1152,576,0,0,1796,0,0,898,0,0,1796,0,14400.000100000001,480.0001,524.0001,0.0,0.0,0.11912027994791667,0.0,0.0,0.0,0.0,0.0
manager_train,48,23520,-27607.891817053503,-3747.0522906932474,-57.5164412855281,-2796.5853647847143,-7.976882553272466,,-18792.72111665597,,,,,,23520,1176,588,0,82,0.006374077996018135,0.1397979253031656,1.7561186764029438e-10,8.429369557916289e-08,0.006374077826815968,0.13979792594909668,1.6172704125444095,1.7265077829360962,0.06983094378004105,0.4067586660385132,0.0118813078540394,0.4835273244994868,2796.2548624274004,2805.5876959127013,15519.37719528902,0.0,0.0,0.0,0.0,0,0,23520,1176,588,0,0,1844,0,0,922,0,0,1844,0,14400.000100000001,480.0001,536.0001,0.0,0.0,0.1207275390625,0.0,0.0,0.0,0.0,0.0
manager_train,49,24000,-25791.319515301824,-3722.2626278628227,-53.73191565687878,-2807.8460996295994,-7.84067747690043,-19036.95402197248,-18792.72111665597,0.0,1.0,1.0,0.012601003016673551,0.48351932640600176,24000,1200,600,0,79,0.008687987299595249,0.19026365738508003,1.7561186578992268e-10,8.429369557916289e-08,0.008687986945733427,0.19026364386081696,1.6173297241330147,1.7265770435333252,0.0705260537691753,0.4132750630378723,0.01243046171920294,0.48351378267956713,2888.649168361745,2805.4305863671593,13531.253449221442,0.0,0.0,0.0,0.0,0,0,24000,1200,600,0,0,1892,0,0,946,0,0,1892,0,14400.000100000001,480.0001,548.0001,0.0,0.0,0.12042236328125,0.0,0.0,0.0,0.0,0.0
