fang3a/FuN_TD3_Codex/hierarchical_td3_optimized_runs/optimized_all_stages_20260715_011157/slow_pretrain/20260715_020809/episode_log.csv
stage,episode,global_step,episode_return,manager_return,mean_step_reward,min_step_reward,max_step_reward,eval_return,best_eval_return,eval_solver_failures,eval_power_success_rate,eval_gas_success_rate,eval_mean_voltage_rms_deviation_pu,eval_mean_gas_pressure_rms_deviation_bar,fast_buffer_size,slow_buffer_size,manager_buffer_size,solver_failures,gas_solve_count,mean_action_projection,max_action_projection,mean_slow_action_projection,max_slow_action_projection,mean_fast_action_projection,max_fast_action_projection,mean_ess_action_guard,max_ess_action_guard,mean_goal_change,max_goal_change,mean_voltage_rms_deviation_pu,mean_gas_pressure_rms_deviation_bar,voltage_deviation_cost,gas_pressure_deviation_cost,voltage_violation_cost,gas_pressure_violation_cost,pipe_velocity_violation_cost,source_capacity_violation_cost,gas_purchase_cost,interaction_reward_estimated_clips,manager_reward_clips,fast_total_insertions,slow_total_insertions,manager_total_insertions,fast_update_count,slow_update_count,manager_update_count,fast_actor_update_count,slow_actor_update_count,manager_actor_update_count,fast_critic_update_count,slow_critic_update_count,manager_critic_update_count,nonfinite_batch_count,fast_normalizer_count,slow_normalizer_count,manager_normalizer_count,mean_target_q_clipping_ratio,mean_reward_clipping_ratio,mean_actor_action_saturation_ratio
slow_pretrain,0,480,-33929.127994935545,-2688.4288458337055,-70.68568332278234,-1094.3961769540135,-15.557007146250998,,-inf,,,,,,480,24,12,0,77,0.00033090001045799294,0.0368968993649853,0.0,0.0,0.0003308997799952825,0.03689688444137573,0.0,0.0,0.0,0.0,0.017249565020665814,0.5701620984688454,4602.869907286877,3901.191353520901,17635.859328768518,0.0,0.0,0.0,0.0,0,0,480,24,12,0,0,0,0,0,0,0,0,0,0,7200.0001,24.0001,0.0001,0.0,0.0,0.0
slow_pretrain,1,960,-26330.094200740514,-2577.017082522564,-54.85436291820937,-413.9627549625849,-16.981603415884845,,-inf,,,,,,960,48,24,0,75,0.00601756711059717,0.19315622560233375,0.0,0.0,0.006017567310482264,0.19315622746944427,0.0,0.0,0.0,0.0,0.018704297905294542,0.5699393193008746,5162.55261906016,3898.1590546375032,8795.322665779016,0.0,0.0,0.0,0.0,0,0,960,48,24,0,0,0,0,0,0,0,0,0,0,7200.0001,48.0001,0.0001,0.0,0.0,0.0
slow_pretrain,2,1440,-20474.8225652128,-2318.928966045428,-42.6558803441933,-267.43747833843145,-14.592037251614773,,-inf,,,,,,1440,72,36,0,76,5.564907535982575e-16,1.1119563949618733e-15,0.0,0.0,0.0,0.0,0.0,0.0,0.0,0.0,0.016648621372211934,0.5696096909779329,4218.9082190279605,3893.6312824287033,3866.963201953936,0.0,0.0,0.0,0.0,0,0,1440,72,36,0,0,0,0,0,0,0,0,0,0,7200.0001,72.0001,0.0001,0.0,0.0,0.0
slow_pretrain,3,1920,-17039.741888845525,-2116.940563847817,-35.49946226842818,-61.14015249093437,-16.37210075792415,,-inf,,,,,,1920,96,48,0,80,0.00771077228119898,0.11840064821807506,0.0,0.0,0.007710772422918429,0.11840063333511353,0.0,0.0,0.0,0.0,0.016082434155207586,0.5696515540570167,3610.663645994336,3894.203931425491,5.86000947049698,0.0,0.0,0.0,0.0,0,0,1920,96,48,0,0,0,0,0,0,0,0,0,0,7200.0001,96.0001,0.0001,0.0,0.0,0.0
slow_pretrain,4,2400,-20980.105299127223,-2334.5179683917586,-43.70855270651502,-159.1080223879903,-15.945706103192439,-20621.396663526873,-20621.396663526873,0.0,1.0,1.0,0.0209595228023146,0.622538445807746,2400,120,60,0,83,6.350392581038225e-16,1.117140368961273e-15,0.0,0.0,0.0,0.0,0.0,0.0,0.0,0.0,0.01872002201607754,0.5807532628596312,5224.364825631353,4051.195511119787,2910.6939052912567,58.6333941101776,0.0,0.0,0.0,0,0,2400,120,60,0,0,0,0,0,0,0,0,0,0,7200.0001,120.0001,0.0001,0.0,0.0,0.0
slow_pretrain,5,2880,-20291.956810097006,-3883.327623895879,-42.27491002103544,-119.27394350526568,-17.97377343825395,,-20621.396663526873,,,,,,2880,144,72,0,75,3.879273446069112e-10,9.536740203097693e-08,3.725290502002802e-10,8.940696716308594e-08,0.0,0.0,0.5958234587063392,1.2849736213684082,0.0,0.0,0.020013512149882125,0.6198108082323084,5771.632142221437,4627.219471939137,139.58173377285001,1142.1736031357882,0.0,0.0,0.0,0,0,2880,144,72,0,0,0,0,0,0,0,0,0,0,7200.0001,144.0001,0.0001,0.0,0.0,0.0
slow_pretrain,6,3360,-62449.58873543358,-4522.307361199598,-130.10330986548658,-1842.4115933268724,-14.113082569747109,,-20621.396663526873,,,,,,3360,168,84,0,80,0.00860328539744621,0.11481140605912943,1.2436961682738e-09,1.7881393432617188e-07,0.008603284507989884,0.11481142044067383,0.4111402506629626,0.9773217439651489,0.0,0.0,0.0226283948744033,0.5827982518080005,8377.235762555536,4115.856682196338,40239.09218324562,752.8119692720666,0.0,0.0,0.0,0,0,3360,168,84,0,0,0,0,0,0,0,0,0,0,7200.0001,168.0001,0.0001,0.0,0.0,0.0
slow_pretrain,7,3840,-21983.116975320547,-3936.685895009555,-45.79816036525118,-270.6898772234653,-16.39093261460434,,-20621.396663526873,,,,,,3840,192,96,0,81,6.121899182809866e-10,2.9385094352241126e-07,6.208817256621776e-10,2.980232238769531e-07,0.0,0.0,0.6111928963412842,1.18983793258667,0.0,0.0,0.022179916421798562,0.6044052921410216,7071.936792199196,4406.574429637283,1237.0698469960298,861.320134598184,0.0,0.0,0.0,0,0,3840,192,96,0,0,0,0,0,0,0,0,0,0,7200.0001,192.0001,0.0001,0.0,0.0,0.0
slow_pretrain,8,4320,-28554.971582304486,-4057.764336387815,-59.489524129801005,-276.6465928853939,-14.643660669217764,,-20621.396663526873,,,,,,4320,216,108,0,85,0.005391488223028827,0.11622401646222258,3.1044086203542883e-10,8.940696716308594e-08,0.00539148822426796,0.11622399091720581,0.5474956072866917,1.091008186340332,0.0,0.0,0.02277334683931448,0.5729374891235242,7716.247599777836,3965.7567276443156,7676.993968010492,334.0233863581937,0.0,0.0,0.0,0,0,4320,216,108,0,0,0,0,0,0,0,0,0,0,7200.0001,216.0001,0.0001,0.0,0.0,0.0
slow_pretrain,9,4800,-33223.7805435607,-3852.231401557222,-69.21620946575146,-445.3630257231768,-18.798142302207715,-26662.298822241388,-26662.298822241388,0.0,1.0,1.0,0.023612760083641434,0.590603338752932,4800,240,120,0,80,0.007929572739101932,0.1140250647681833,1.8626469903508062e-10,8.940696716308594e-08,0.007929571943047145,0.1140250563621521,0.38803498446941376,1.0,0.0,0.0,0.0239479890214294,0.5337271462991008,8251.537845780816,3457.074668326751,12347.397488343033,419.8785499278014,0.0,0.0,0.0,0,0,4800,240,120,0,0,0,0,0,0,0,0,0,0,7200.0001,240.0001,0.0001,0.0,0.0,0.0
slow_pretrain,10,5280,-41498.12209219109,-4617.568036859736,-86.45442102539818,-1132.298452869428,-21.289058047087725,,-26662.298822241388,,,,,,5280,264,132,0,80,0.0077092457984202145,0.11752697631632358,9.81552961132337e-10,4.172325134277344e-07,0.007709244840467969,0.11752694845199585,0.41510332003235817,1.0136135816574097,0.0,0.0,0.02458475177204189,0.5918456282245074,9048.955773634541,4271.943609480753,17978.00311581045,1625.8046043300335,0.0,0.0,0.0,0,0,5280,264,132,0,18,0,0,9,0,0,18,0,0,7200.0001,264.0001,0.0001,0.0,0.0,0.0
slow_pretrain,11,5760,-32829.405664988124,-5842.508012688733,-68.39459513539187,-169.99222557058408,-42.629808102840705,,-26662.298822241388,,,,,,5760,288,144,0,81,3.6881067645772724e-16,9.132791141824989e-15,2.694603810379715e-17,9.103828801926284e-15,0.0,0.0,0.9501145109534264,1.6424647569656372,0.0,0.0,0.022193753285979455,0.7304417200002813,7571.891670725079,6404.18044738098,1370.442662714425,9115.367976484893,0.0,0.0,0.0,0,0,5760,288,144,0,66,0,0,33,0,0,66,0,0,7200.0001,288.0001,0.0001,0.0,0.0,0.007877604250097647
slow_pretrain,12,6240,-95314.15595251131,-8268.44448387918,-198.57115823439872,-1601.0685043251642,-45.52431525013672,,-26662.298822241388,,,,,,6240,312,156,0,78,1.2147656182026283e-10,5.830866550720441e-08,1.241763432820638e-10,5.960464477539063e-08,0.0,0.0,1.3000597059726715,1.6218695640563965,0.0,0.0,0.03157865420884251,0.7436843440464908,14974.173091103688,6638.3984059515105,55663.3911635655,10531.209653857655,0.0,0.0,0.0,0,0,6240,312,156,0,114,0,0,57,0,0,114,0,0,7200.0001,312.0001,0.0001,0.0,0.0,0.0960937519557774
slow_pretrain,13,6720,-87897.90282419136,-6545.615789589577,-183.120630883732,-2826.548806870278,-29.14676254618376,,-26662.298822241388,,,,,,6720,336,168,0,83,0.0001280110014319114,0.008375235812408177,1.7561186578992268e-10,8.429369557916289e-08,0.00012801066040992736,0.008375227451324463,1.2504267295201619,1.4539716243743896,0.0,0.0,0.02727430876147738,0.7086071058587002,11659.827094447895,6049.474477625446,54927.737746352985,7300.531478071152,0.0,0.0,0.0,0,0,6720,336,168,0,162,0,0,81,0,0,162,0,0,7200.0001,336.0001,0.0001,0.0,0.0,0.09042968833819032
slow_pretrain,14,7200,-49590.56078018235,-3921.9300026438373,-103.31366829204647,-1610.5323070909867,-18.605448023177612,-25712.25097257453,-25712.25097257453,0.0,1.0,1.0,0.019538192127911424,0.5537766098359569,7200,360,180,0,82,0.040439647931242315,0.20945838235417313,2.483526865641276e-10,5.960464477539063e-08,0.04043964820448309,0.20945841073989868,1.075407398243745,1.4142135381698608,0.0,0.0,0.021517557397677755,0.5295581729626568,7181.498268825806,3383.4833069016827,30169.69998784627,165.76631392231357,0.0,0.0,0.0,0,0,7200,360,180,0,210,0,0,105,0,0,210,0,0,7200.0001,360.0001,0.0001,0.0,0.0,0.04108073003590107
slow_pretrain,15,7680,-21157.149310402456,-3436.965599991347,-44.07739439667179,-153.19208978360237,-19.651237394970167,,-25712.25097257453,,,,,,7680,384,192,0,81,0.02274871669660566,0.17972862295711778,1.940255363782247e-10,5.21540641784668e-08,0.022748716656739512,0.17972862720489502,0.5355916299546758,1.0,0.0,0.0,0.02043656415441946,0.5580149036843235,6399.307002521864,3738.0528624237963,2661.0794148054774,0.7223048415014443,0.0,0.0,0.0,0,0,7680,384,192,0,258,0,0,129,0,0,258,0,0,7200.0001,384.0001,0.0001,0.0,0.0,0.006575520914338995
slow_pretrain,16,8160,-17094.61391539995,-2154.0312611848285,-35.613778990416556,-93.70073401518734,-19.914485866101334,,-25712.25097257453,,,,,,8160,408,204,0,83,9.714033540657603e-05,0.01416574802997106,0.0,0.0,9.714029729366303e-05,0.014165759086608887,0.0,0.0,0.0,0.0,0.017703363289251137,0.5919709771929383,4855.796819802121,4208.552470796048,254.94547356097533,132.47732298421602,0.0,0.0,0.0,0,0,8160,408,204,0,306,0,0,153,0,0,306,0,0,7200.0001,408.0001,0.0001,0.0,0.0,0.0
slow_pretrain,17,8640,-16096.638902306402,-2148.2472063639616,-33.53466437980499,-99.24410698331957,-16.586853998284205,,-25712.25097257453,,,,,,8640,432,216,0,80,7.665682191074634e-05,0.012194279937658759,2.7163575092951457e-11,1.30385160446167e-08,7.66567885875702e-05,0.012194275856018066,0.0041582587485512095,0.09979820996522903,0.0,0.0,0.01560696226674998,0.5812514078746355,3460.097312737001,4055.850992635556,658.1445639269458,24.271962502895175,0.0,0.0,0.0,0,0,8640,432,216,0,354,0,0,177,0,0,354,0,0,7200.0001,432.0001,0.0001,0.0,0.0,0.0
slow_pretrain,18,9120,-19120.163627805225,-2285.561559150196,-39.833674224594226,-257.833122021125,-16.28935341939873,,-25712.25097257453,,,,,,9120,456,228,0,76,6.026022909624664e-16,1.1161055004029252e-15,0.0,0.0,0.0,0.0,0.0,0.0,0.0,0.0,0.01742522920854587,0.5897150523531721,4224.0061351217655,4178.039154655743,2806.3899556460246,172.1923000701509,0.0,0.0,0.0,0,0,9120,456,228,0,402,0,0,201,0,0,402,0,0,7200.0001,456.0001,0.0001,0.0,0.0,0.0
slow_pretrain,19,9600,-17503.656690332748,-2113.8740540741096,-36.46595143819322,-90.86800918462312,-15.76514555785732,-21357.376746918493,-25712.25097257453,0.0,1.0,1.0,0.018273201858884456,0.5925425589615824,9600,480,240,0,83,6.484981207286942e-16,1.1129951213863744e-15,0.0,0.0,0.0,0.0,0.0,0.0,0.0,0.0,0.01834452140213672,0.5926976258691894,5002.34130642019,4217.139808706006,415.255271760733,79.30566700513428,0.0,0.0,0.0,0,0,9600,480,240,0,450,0,0,225,0,0,450,0,0,7200.0001,480.0001,0.0001,0.0,0.0,0.0
slow_pretrain,20,10080,-19871.167567052824,-2271.39736466149,-41.39826576469339,-204.48500468865282,-18.26963054241677,,-25712.25097257453,,,,,,10080,504,252,0,80,7.039809431547228e-16,1.1123027448830469e-15,0.0,0.0,0.0,0.0,0.0,0.0,0.0,0.0,0.018391873605170087,0.5968669160458667,5668.326194211146,4276.560713787509,1826.6166824279412,115.36472855701102,0.0,0.0,0.0,0,0,10080,504,252,0,498,0,0,249,0,0,498,0,0,7200.0001,504.0001,0.0001,0.0,0.0,0.0
slow_pretrain,21,10560,-16943.214685881245,-2111.1055919293135,-35.29836392891925,-85.97914557627517,-16.933034806187457,,-25712.25097257453,,,,,,10560,528,264,0,89,0.004142970934498242,0.09841885680747575,0.0,0.0,0.00414297084013621,0.09841883182525635,0.0,0.0,0.0,0.0,0.017044720986416205,0.5912235653434986,4596.690904470708,4196.598716162012,491.6337586354555,80.48554711982008,0.0,0.0,0.0,0,0,10560,528,264,0,546,0,0,273,0,0,546,0,0,7200.0001,528.0001,0.0001,0.0,0.0,0.0
slow_pretrain,22,11040,-18024.909364999152,-2125.508846754589,-37.55189451041489,-78.034404761936,-23.058853041504552,,-25712.25097257453,,,,,,11040,552,276,0,81,0.00262212426729014,0.09321005931005522,0.0,0.0,0.0026221241801977157,0.09321004152297974,0.0,0.0,0.0,0.0,0.019457613955971353,0.5846222012169399,5776.938846306109,4103.362584893294,124.66871397966352,31.335994855867913,0.0,0.0,0.0,0,0,11040,552,276,0,594,0,0,297,0,0,594,0,0,7200.0001,552.0001,0.0001,0.0,0.0,0.0
slow_pretrain,23,11520,-21595.092203608358,-2368.821522597081,-44.98977542418411,-321.7378340428982,-17.30816770093081,,-25712.25097257453,,,,,,11520,576,288,0,87,0.00023917482366371304,0.0189527156859014,0.0,0.0,0.00023917481303215027,0.01895272731781006,0.0,0.0,0.0,0.0,0.018460045643395387,0.5906874032938225,4979.79426328584,4188.081797365819,4718.526392372304,49.194697159228284,0.0,0.0,0.0,0,0,11520,576,288,0,642,0,0,321,0,0,642,0,0,7200.0001,576.0001,0.0001,0.0,0.0,0.0
slow_pretrain,24,12000,-17214.069348032543,-2096.7759678159896,-35.862644475067796,-96.73423326222778,-17.679202890355224,-18990.347726877797,-25712.25097257453,0.0,1.0,1.0,0.01718649884894623,0.5914984449558105,12000,600,300,0,75,6.669362960391895e-16,1.117140368961273e-15,0.0,0.0,0.0,0.0,0.0,0.0,0.0,0.0,0.017914197032298025,0.5888597887776146,4685.428918353195,4161.824936781247,414.7195019852587,33.37047071300203,0.0,0.0,0.0,0,0,12000,600,300,0,690,0,0,345,0,0,690,0,0,7200.0001,600.0001,0.0001,0.0,0.0,0.0
slow_pretrain,25,12480,-17961.85992515445,-2151.9772575068037,-37.42054151073845,-131.50715213848295,-20.311592064864822,,-25712.25097257453,,,,,,12480,624,312,0,79,5.745017090811696e-16,1.1129951213863744e-15,0.0,0.0,0.0,0.0,0.0,0.0,0.0,0.0,0.017801702528285356,0.5904829625133791,5101.103601912373,4185.223265154752,847.7441976896679,50.10186290298378,0.0,0.0,0.0,0,0,12480,624,312,0,738,0,0,369,0,0,738,0,0,7200.0001,624.0001,0.0001,0.0,0.0,0.0
slow_pretrain,26,12960,-18773.46956619457,-2219.711786570201,-39.11139492957203,-117.0658179707181,-18.347152779059197,,-25712.25097257453,,,,,,12960,648,324,0,85,0.0006438047897806623,0.0444674309997285,0.0,0.0,0.000643804669380188,0.04446744918823242,0.0,0.0,0.0,0.0,0.018159753223258832,0.5896821674850964,5365.856146325475,4174.293789388013,1299.6812331145918,53.499836020242064,0.0,0.0,0.0,0,0,12960,648,324,0,786,0,0,393,0,0,786,0,0,7200.0001,648.0001,0.0001,0.0,0.0,0.0
slow_pretrain,27,13440,-16354.143321515732,-2071.2589448067088,-34.071131919824445,-49.765508032350226,-16.666796820591774,,-25712.25097257453,,,,,,13440,672,336,0,81,5.191947180871154e-16,6.713178136967714e-16,0.0,0.0,0.0,0.0,0.0,0.0,0.0,0.0,0.016634546480662118,0.5865569556874234,4241.867940947841,4130.501206585523,3.772250777292167,45.87604502090845,0.0,0.0,0.0,0,0,13440,672,336,0,834,0,0,417,0,0,834,0,0,7200.0001,672.0001,0.0001,0.0,0.0,0.0
slow_pretrain,28,13920,-22299.03233031644,-2432.168080913767,-46.45631735482596,-409.5741000863148,-17.79008884557389,,-25712.25097257453,,,,,,13920,696,348,0,79,5.763224898167853e-16,1.1161055004029252e-15,0.0,0.0,0.0,0.0,0.0,0.0,0.0,0.0,0.01903269754837907,0.5944848912978075,5276.794746065939,4242.377294795437,4858.552059963666,85.17326279509058,0.0,0.0,0.0,0,0,13920,696,348,0,882,0,0,441,0,0,882,0,0,7200.0001,696.0001,0.0001,0.0,0.0,0.0
slow_pretrain,29,14400,-21122.91057900244,-2301.844487048727,-44.0060637062551,-276.1683806611528,-18.984319710218003,-16975.475738460944,-25712.25097257453,0.0,1.0,1.0,0.01723000988443112,0.5920938079067768,14400,720,360,0,79,6.675631995783398e-16,1.1130816381668997e-15,0.0,0.0,0.0,0.0,0.0,0.0,0.0,0.0,0.019458379162020208,0.5928917768648578,5479.5018325387855,4219.456132474844,3484.734857912541,68.4425091003896,0.0,0.0,0.0,0,0,14400,720,360,0,930,0,0,465,0,0,930,0,0,7200.0001,720.0001,0.0001,0.0,0.0,0.0
slow_pretrain,30,14880,-21625.93031073204,-2390.0647669980203,-45.054021480691745,-197.22441496177825,-19.339055905647,,-25712.25097257453,,,,,,14880,744,372,0,81,5.374477863795369e-16,1.117140368961273e-15,0.0,0.0,0.0,0.0,0.0,0.0,0.0,0.0,0.019473420494249938,0.594391822745988,6105.7695490970855,4240.887596615447,3214.842770948522,80.69715393960264,0.0,0.0,0.0,0,0,14880,744,372,0,978,0,0,489,0,0,978,0,0,7200.0001,744.0001,0.0001,0.0,0.0,0.0
slow_pretrain,31,15360,-17193.09595693549,-2120.0995288097306,-35.81894991028226,-74.26724510343024,-20.276053297992235,,-25712.25097257453,,,,,,15360,768,384,0,81,0.00023773141726809448,0.020746754723243166,0.0,0.0,0.00023773151139418284,0.02074676752090454,0.0,0.0,0.0,0.0,0.018278993444413565,0.5935949285562845,4784.128075501374,4228.91076429334,344.71621198046097,54.77298642828799,0.0,0.0,0.0,0,0,15360,768,384,0,1026,0,0,513,0,0,1026,0,0,7200.0001,768.0001,0.0001,0.0,0.0,0.0
slow_pretrain,32,15840,-17311.21383794373,-2097.3567076248223,-36.06502882904947,-76.35435423524196,-20.29776512176756,,-25712.25097257453,,,,,,15840,792,396,0,75,0.000250157748921807,0.03703993124776628,0.0,0.0,0.00025015771389007567,0.03703993558883667,0.0,0.0,0.0,0.0,0.018793557600985496,0.5922682161935015,5167.941966924215,4210.004186569644,262.9167004986153,45.79727300562114,0.0,0.0,0.0,0,0,15840,792,396,0,1074,0,0,537,0,0,1074,0,0,7200.0001,792.0001,0.0001,0.0,0.0,0.0
slow_pretrain,33,16320,-17171.901246368092,-2122.3917914050708,-35.77479426326688,-90.14142742966926,-16.763214439082212,,-25712.25097257453,,,,,,16320,816,408,0,83,5.383317689132022e-16,1.1130816381668997e-15,0.0,0.0,0.0,0.0,0.0,0.0,0.0,0.0,0.01758949738319903,0.5918338581934677,4678.611178647898,4205.418470393738,280.9204883415315,87.3338341773012,0.0,0.0,0.0,0,0,16320,816,408,0,1122,0,0,561,0,0,1122,0,0,7200.0001,816.0001,0.0001,0.0,0.0,0.0
slow_pretrain,34,16800,-18288.60254300182,-2134.894135688993,-38.101255297920495,-85.20254043806271,-25.293644766330075,-16454.15427777886,-25712.25097257453,0.0,1.0,1.0,0.017636896687312744,0.5902575026370324,16800,840,420,0,82,5.19188757597907e-16,1.112995142509456e-15,0.0,0.0,0.0,0.0,0.0,0.0,0.0,0.0,0.02026850772451865,0.5917051036181805,6063.001504326256,4202.193079749654,326.0680943445362,46.17711296164606,0.0,0.0,0.0,0,0,16800,840,420,0,1170,0,0,585,0,0,1170,0,0,7200.0001,840.0001,0.0001,0.0,0.0,0.0
slow_pretrain,35,17280,-16357.809620498578,-2076.4006863813615,-34.07877004270538,-55.84616502439551,-19.37567033566604,,-25712.25097257453,,,,,,17280,864,432,0,84,0.0005366683987190657,0.039287065715240765,0.0,0.0,0.0005366684248050054,0.03928709030151367,0.0,0.0,0.0,0.0,0.017171238385269277,0.5896793620569662,4135.428149381863,4173.718581176339,0.0109814168984561,40.171609347317734,0.0,0.0,0.0,0,0,17280,864,432,0,1218,0,0,609,0,0,1218,0,0,7200.0001,864.0001,0.0001,0.0,0.0,0.0
slow_pretrain,36,17760,-29291.264216261294,-2618.0312831477936,-61.02346711721103,-662.8131763749385,-16.49151557389421,,-25712.25097257453,,,,,,17760,888,444,0,84,0.000272970332981531,0.030333908411790955,0.0,0.0,0.00027297052244345345,0.03033393621444702,0.0,0.0,0.0,0.0,0.019227002747342608,0.586939561704072,6325.273879299759,4135.036207974106,11042.89986849781,29.579015221614377,0.0,0.0,0.0,0,0,17760,888,444,0,1266,0,0,633,0,0,1266,0,0,7200.0001,888.0001,0.0001,0.0,0.0,0.0
slow_pretrain,37,18240,-23934.74918302755,-2485.605041858478,-49.86406079797402,-275.9196236742858,-17.520906565932776,,-25712.25097257453,,,,,,18240,912,456,0,83,5.206178036352416e-16,1.1157603309187458e-15,0.0,0.0,0.0,0.0,0.0,0.0,0.0,0.0,0.020439051647488403,0.591046352189122,5957.42313487771,4193.229032535913,6502.758086065734,57.95519323082574,0.0,0.0,0.0,0,0,18240,912,456,0,1314,0,0,657,0,0,1314,0,0,7200.0001,912.0001,0.0001,0.0,0.0,0.0
slow_pretrain,38,18720,-23765.63847919299,-2425.8763865905657,-49.5117468316521,-407.1399796731222,-18.794361630202854,,-25712.25097257453,,,,,,18720,936,468,0,82,6.854600902771799e-16,1.1129951213863744e-15,0.0,0.0,0.0,0.0,0.0,0.0,0.0,0.0,0.019856353671044224,0.5907408916035443,6388.6948837324435,4189.045076236295,5416.892081801462,54.106841395958305,0.0,0.0,0.0,0,0,18720,936,468,0,1362,0,0,681,0,0,1362,0,0,7200.0001,936.0001,0.0001,0.0,0.0,0.0
slow_pretrain,39,19200,-17031.881451012097,-2087.8591133376367,-35.483086356275194,-90.12065079494296,-18.27126394268455,-17266.264180471273,-25712.25097257453,0.0,1.0,1.0,0.017818262733006737,0.5919634533536527,19200,960,480,0,85,4.272792066780117e-16,1.117140368961273e-15,0.0,0.0,0.0,0.0,0.0,0.0,0.0,0.0,0.017447462287185047,0.591772979516684,4762.85353952921,4203.39701536643,211.50928788030006,54.909099434035326,0.0,0.0,0.0,0,0,19200,960,480,0,1410,0,0,705,0,0,1410,0,0,7200.0001,960.0001,0.0001,0.0,0.0,0.0
slow_pretrain,40,19680,-22979.11815763696,-2436.837192222085,-47.873162828410386,-366.4084517368822,-18.63645948419666,,-25712.25097257453,,,,,,19680,984,492,0,78,3.3338636089686864e-06,0.0016002545320291661,0.0,0.0,3.3338864644368488e-06,0.0016002655029296875,0.0,0.0,0.0,0.0,0.021199254338151636,0.5911388587789599,6587.791568232829,4194.761750118971,4458.940202658817,57.24088694682597,0.0,0.0,0.0,0,0,19680,984,492,0,1458,0,0,729,0,0,1458,0,0,7200.0001,984.0001,0.0001,0.0,0.0,0.0
slow_pretrain,41,20160,-16558.471616855528,-2103.203918962906,-34.49681586844898,-146.9684349606748,-17.60239376126936,,-25712.25097257453,,,,,,20160,1008,504,0,78,5.934408646441871e-16,1.1119563949618733e-15,0.0,0.0,0.0,0.0,0.0,0.0,0.0,0.0,0.015212734742964338,0.593576666086891,3731.985379732697,4229.234390957449,594.1753767106286,72.30481856166487,0.0,0.0,0.0,0,0,20160,1008,504,0,1506,0,0,753,0,0,1506,0,0,7200.0001,1008.0001,0.0001,0.0,0.0,0.0
slow_pretrain,42,20640,-19075.660103088063,-2213.7782269446952,-39.7409585481001,-112.71808791654095,-15.732837258765667,,-25712.25097257453,,,,,,20640,1032,516,0,81,0.0005391435481929905,0.02991040404220391,0.0,0.0,0.0005391436318556468,0.029910385608673096,0.0,0.0,0.0,0.0,0.01982398613495386,0.5910773240215127,5964.001327238942,4193.684056921341,879.6298368778458,53.04165334781651,0.0,0.0,0.0,0,0,20640,1032,516,0,1554,0,0,777,0,0,1554,0,0,7200.0001,1032.0001,0.0001,0.0,0.0,0.0
slow_pretrain,43,21120,-16214.687381207186,-2056.8798080686597,-33.78059871084832,-94.61516629785598,-17.467712594391465,,-25712.25097257453,,,,,,21120,1056,528,0,82,5.941380858185373e-16,1.121270291988505e-15,0.0,0.0,0.0,0.0,0.0,0.0,0.0,0.0,0.017648603202666466,0.591745027916897,4299.553849426472,4202.9246264040685,318.1750471727963,48.31517138348818,0.0,0.0,0.0,0,0,21120,1056,528,0,1602,0,0,801,0,0,1602,0,0,7200.0001,1056.0001,0.0001,0.0,0.0,0.0
slow_pretrain,44,21600,-17418.000492831812,-2144.401619498302,-36.28750102673292,-194.31393859356652,-16.35736682022823,-15550.447341349041,-25712.25097257453,0.0,1.0,1.0,0.01671462930207902,0.5911222224916836,21600,1080,540,0,79,5.387856806162559e-16,1.117140368961273e-15,0.0,0.0,0.0,0.0,0.0,0.0,0.0,0.0,0.017163960324465724,0.5950754778444889,4276.066062708903,4250.648941408088,1218.8488024115825,89.08982070068487,0.0,0.0,0.0,0,0,21600,1080,540,0,1650,0,0,825,0,0,1650,0,0,7200.0001,1080.0001,0.0001,0.0,0.0,0.0
slow_pretrain,45,22080,-17348.11460498386,-2099.264853960623,-36.14190542704969,-134.26733300320168,-18.487925498512656,,-25712.25097257453,,,,,,22080,1104,552,0,77,4.831795011941734e-16,1.1119563949618733e-15,0.0,0.0,0.0,0.0,0.0,0.0,0.0,0.0,0.01812757925785745,0.5909556643556297,4875.81713270217,4191.480193956143,748.4093808866596,41.119661635979185,0.0,0.0,0.0,0,0,22080,1104,552,0,1698,0,0,849,0,0,1698,0,0,7200.0001,1104.0001,0.0001,0.0,0.0,0.0
slow_pretrain,46,22560,-17093.0180633234,-2101.5196835218753,-35.610454298590426,-83.51647123597766,-20.02533766885241,,-25712.25097257453,,,,,,22560,1128,564,0,78,5.561675520819617e-16,1.1129951213863744e-15,0.0,0.0,0.0,0.0,0.0,0.0,0.0,0.0,0.017636118493241256,0.5897619802255271,4731.3505381235545,4174.775601005972,165.69457256700125,42.0620109186938,0.0,0.0,0.0,0,0,22560,1128,564,0,1746,0,0,873,0,0,1746,0,0,7200.0001,1128.0001,0.0001,0.0,0.0,0.0
slow_pretrain,47,23040,-17287.365885219795,-2114.526247073584,-36.01534559420793,-193.218730426692,-17.251380232765833,,-25712.25097257453,,,,,,23040,1152,576,0,87,3.1575802261371656e-05,0.015156385085164814,0.0,0.0,3.157580892244975e-05,0.015156388282775879,0.0,0.0,0.0,0.0,0.017946828452400077,0.5913590004623087,4458.821702876611,4197.717235875812,800.3859952367073,57.01550178229339,0.0,0.0,0.0,0,0,23040,1152,576,0,1794,0,0,897,0,0,1794,0,0,7200.0001,1152.0001,0.0001,0.0,0.0,0.0
slow_pretrain,48,23520,-18015.44055104811,-2139.0657963890308,-37.53216781468356,-194.95056893947117,-17.199055633090772,,-25712.25097257453,,,,,,23520,1176,588,0,82,5.935024363384543e-16,1.1116965617079552e-15,0.0,0.0,0.0,0.0,0.0,0.0,0.0,0.0,0.017589719017103746,0.5883193266990822,4612.0920700995,4154.675549601088,1448.62517303911,36.07740253326312,0.0,0.0,0.0,0,0,23520,1176,588,0,1842,0,0,921,0,0,1842,0,0,7200.0001,1176.0001,0.0001,0.0,0.0,0.0
slow_pretrain,49,24000,-17453.605661461283,-2101.511070317214,-36.36167846137765,-66.84529360815947,-18.21272192612888,-16718.764704971585,-25712.25097257453,0.0,1.0,1.0,0.01794604411649137,0.5908402092614481,24000,1200,600,0,79,0.0005998797947171935,0.034563278679385356,0.0,0.0,0.0005998800198237102,0.034563302993774414,0.0,0.0,0.0,0.0,0.0182347685755162,0.5931504883767977,5193.040859705588,4222.918708722387,199.9808526869115,63.65707360867148,0.0,0.0,0.0,0,0,24000,1200,600,0,1890,0,0,945,0,0,1890,0,0,7200.0001,1200.0001,0.0001,0.0,0.0,0.0
