fang3a/FuN_TD3_Codex/hierarchical_td3_optimized_runs/optimized_all_stages_20260715_011157/joint_finetune/20260715_030411/episode_log.csv
stage,episode,global_step,episode_return,manager_return,mean_step_reward,min_step_reward,max_step_reward,eval_return,best_eval_return,eval_solver_failures,eval_power_success_rate,eval_gas_success_rate,eval_mean_voltage_rms_deviation_pu,eval_mean_gas_pressure_rms_deviation_bar,fast_buffer_size,slow_buffer_size,manager_buffer_size,solver_failures,gas_solve_count,mean_action_projection,max_action_projection,mean_slow_action_projection,max_slow_action_projection,mean_fast_action_projection,max_fast_action_projection,mean_ess_action_guard,max_ess_action_guard,mean_goal_change,max_goal_change,mean_voltage_rms_deviation_pu,mean_gas_pressure_rms_deviation_bar,voltage_deviation_cost,gas_pressure_deviation_cost,voltage_violation_cost,gas_pressure_violation_cost,pipe_velocity_violation_cost,source_capacity_violation_cost,gas_purchase_cost,interaction_reward_estimated_clips,manager_reward_clips,fast_total_insertions,slow_total_insertions,manager_total_insertions,fast_update_count,slow_update_count,manager_update_count,fast_actor_update_count,slow_actor_update_count,manager_actor_update_count,fast_critic_update_count,slow_critic_update_count,manager_critic_update_count,nonfinite_batch_count,fast_normalizer_count,slow_normalizer_count,manager_normalizer_count,mean_target_q_clipping_ratio,mean_reward_clipping_ratio,mean_actor_action_saturation_ratio
joint_finetune,0,480,-398793.0424626901,-7124.598528026952,-830.8188384639391,-21292.810991925093,-13.814099512788308,,-inf,,,,,,480,24,12,0,77,0.042128815323167354,0.7148104883601661,0.0,0.0,0.04212881503238653,0.7148104906082153,0.0,0.0,0.24748920987952838,0.3514457046985626,0.03280228306689587,0.5693164794679029,18313.025757589632,3889.61804329355,367516.27439997345,0.0,0.0,0.0,0.0,0,0,480,24,12,0,0,0,0,0,0,0,0,0,0,7680.0001,384.0001,548.0001,0.0,0.0,0.0
joint_finetune,1,960,-491964.459368613,-7708.871516178213,-1024.9259570179431,-18432.63311489752,-14.051056014355392,,-inf,,,,,,960,48,24,0,75,0.05610387343910051,0.6176600560196981,0.0,0.0,0.05610387313766599,0.6176600456237793,0.0,0.0,0.25209732353687286,0.3673165440559387,0.03461580255742301,0.5689680604789987,20684.345263455314,3884.928491366649,458137.14538728655,0.0,0.0,0.0,0.0,0,0,960,48,24,0,0,0,0,0,0,0,0,0,0,8160.0001,408.0001,548.0001,0.0,0.0,0.0
joint_finetune,2,1440,-373109.43378892227,-6839.6038859897035,-777.311320393588,-20704.454307060278,-17.097249749438983,,-inf,,,,,,1440,72,36,0,76,0.047215128699648425,0.5580894739152815,0.0,0.0,0.0472151281661354,0.5580894947052002,0.0,0.0,0.22656571729616684,0.34867191314697266,0.03197611125707588,0.5692052560944469,17638.975551459396,3888.1212181773726,342343.59668778436,0.0,0.0,0.0,0.0,0,0,1440,72,36,0,0,0,0,0,0,0,0,0,0,8640.000100000001,432.0001,548.0001,0.0,0.0,0.0
joint_finetune,3,1920,-123984.27414118858,-4009.6939330517025,-258.3005711274759,-12331.712709856667,-14.65484462530144,,-inf,,,,,,1920,96,48,0,80,0.024864621003692924,0.4803024928660459,0.0,0.0,0.024864620785228907,0.48030248284339905,0.0,0.0,0.2558576383373954,0.379690945148468,0.022342265027991078,0.5699787158614019,8676.09342902664,3898.7215028383957,102423.67136063147,0.0,0.0,0.0,0.0,0,0,1920,96,48,0,0,0,0,0,0,0,0,0,0,9120.000100000001,456.0001,548.0001,0.0,0.0,0.0
joint_finetune,4,2400,-54837.483244790565,-3985.7058389890935,-114.24475675998038,-823.5079503225037,-14.832637204529336,-14945.417130537497,-14945.417130537497,0.0,1.0,1.0,0.016116383924612232,0.5458546139695627,2400,120,60,0,83,0.07136162071772739,0.37011233231574464,1.913978235161077e-17,9.18709552877317e-15,0.07136162056510026,0.3701123297214508,0.16758842393755913,0.7035606503486633,0.169029256159609,0.26738473773002625,0.022413242877163477,0.5664425487373576,7697.727455800149,3850.8446697539216,34808.42878838017,0.0,0.0,0.0,0.0,0,0,2400,120,60,0,0,0,0,0,0,0,0,0,0,9600.000100000001,480.0001,556.0001,0.0,0.0,0.0
joint_finetune,5,2880,-17345.95064140167,-3375.0265593939816,-36.13739716958684,-190.7515287599518,-15.782323653486989,,-14945.417130537497,,,,,,2880,144,72,0,75,0.054935398357013554,0.3510864838438925,6.907309095064799e-10,1.7881393432617188e-07,0.054935397390120974,0.35108649730682373,0.8932565003633499,1.1197518110275269,0.003729080950671976,0.0201089046895504,0.01642015995949666,0.5456719599922513,3961.996942963668,3573.762960732919,2810.7374279088676,0.0,0.0,0.0,0.0,0,0,2880,144,72,0,0,0,0,0,0,0,0,0,0,10080.000100000001,504.0001,568.0001,0.0,0.0,0.0
joint_finetune,6,3360,-17147.321873494413,-3386.7476363922733,-35.72358723644672,-246.8273356559451,-15.253180650208357,,-14945.417130537497,,,,,,3360,168,84,0,80,0.04753119453143341,0.42043708080367725,4.96705387006043e-10,1.7881393432617188e-07,0.047531194325226046,0.4204370975494385,0.9455460359652837,1.1506404876708984,0.0007993674093582244,0.004998422227799892,0.017846162496037335,0.5451670195497933,4639.576212383627,3566.839903206668,1473.2982791832399,0.0,0.0,0.0,0.0,0,0,3360,168,84,0,0,0,0,0,0,0,0,0,0,10560.000100000001,528.0001,580.0001,0.0,0.0,0.0
joint_finetune,7,3840,-17610.22080923945,-3412.94112357901,-36.6879600192489,-289.46187869281437,-15.132737683832712,,-14945.417130537497,,,,,,3840,192,96,0,81,0.048061113425406934,0.3956694288665049,2.488377504050732e-10,5.960464477539063e-08,0.04806111326518779,0.3956694006919861,0.9500278979539871,1.182687520980835,0.0009302134183764628,0.005642331670969725,0.01791152135708202,0.5458078638357683,4716.949839849058,3575.4629290108523,1599.2440924865143,0.0,0.0,0.0,0.0,0,0,3840,192,96,0,0,0,0,0,0,0,0,0,0,11040.000100000001,552.0001,592.0001,0.0,0.0,0.0
joint_finetune,8,4320,-29960.733487787147,-4027.4524067773436,-62.41819476622321,-766.3192935596047,-15.19621853589354,,-14945.417130537497,,,,,,4320,216,108,0,85,0.04915867061146494,0.3994287085305588,1.8626452706616005e-10,5.960464477539063e-08,0.04915866994609435,0.39942872524261475,0.9368195260564486,1.1352041959762573,0.000945790041111071,0.005791326053440571,0.01977222451354928,0.5458143192662959,6027.739346532215,3575.370178305439,12474.555968360146,0.0,0.0,0.0,0.0,0,0,4320,216,108,0,0,0,0,0,0,0,0,0,0,11520.000100000001,576.0001,604.0001,0.0,0.0,0.0
joint_finetune,9,4800,-27725.8244611028,-3941.967343048244,-57.76213429396423,-641.1162154446098,-16.04687116408306,-23319.65386764296,-14945.417130537497,0.0,1.0,1.0,0.017646155271331336,0.546086606432487,4800,240,120,0,80,0.056444931232699974,0.4596794855952735,1.241763553094799e-10,5.960464477539063e-08,0.05644493221770972,0.4596794843673706,0.9618578553199768,1.1496409177780151,0.0009218736403537067,0.005959636066108942,0.019195803772744918,0.5453342406690382,5632.304077137214,3569.033767834059,10518.10735674434,0.0,0.0,0.0,0.0,0,0,4800,240,120,0,0,0,0,0,0,0,0,0,0,12000.000100000001,600.0001,616.0001,0.0,0.0,0.0
joint_finetune,10,5280,-26474.962126655675,-3808.5867387017024,-55.15617109719933,-893.404807031646,-16.398916566907747,,-14945.417130537497,,,,,,5280,264,132,0,80,0.020985924896511236,0.41504364112710224,1.241763553094799e-10,5.960464477539063e-08,0.020985924491348364,0.4150436520576477,0.9346843461195627,1.1221815347671509,0.0007973388816356997,0.004476823844015598,0.017576534331802476,0.5455750321404922,4818.635462947147,3572.2835800641237,9506.958898099214,0.0,0.0,0.0,0.0,0,0,5280,264,132,281,18,20,71,5,5,281,18,20,0,12480.000100000001,624.0001,628.0001,0.0,0.0,0.005619537870999489
joint_finetune,11,5760,-14867.251679703068,-2662.6049644635314,-30.973440999381378,-120.78100022843597,-15.699235645968646,,-14945.417130537497,,,,,,5760,288,144,0,81,0.0034498156666047716,0.13112925395250563,3.4148494402567543e-10,6.705522537231445e-08,0.003449815387527148,0.13112926483154297,0.8138633370399475,0.9614948630332947,0.0008528178414880214,0.005600958131253719,0.013271045655175914,0.5453287145967615,2591.4686530707572,3569.2131036086203,2.175310738650244,0.0,0.0,0.0,0.0,0,0,5760,288,144,762,66,68,191,17,17,762,66,68,0,12960.000100000001,648.0001,640.0001,0.0,0.0,0.0017302345261121857
joint_finetune,12,6240,-14530.105992009412,-2715.2233068020173,-30.271054150019648,-115.57611106951747,-15.705014182702605,,-14945.417130537497,,,,,,6240,312,156,0,78,0.0019296193343298462,0.11062343968729449,5.277494589487711e-10,2.086162567138672e-07,0.0019296189149220786,0.11062341928482056,0.5238577897349993,0.7473652958869934,0.0007295282716354864,0.004317792598158121,0.012538941731134264,0.5461239476832991,2260.2982188868764,3579.622095993643,0.0,0.0,0.0,0.0,0.0,0,0,6240,312,156,1243,114,116,311,29,29,1243,114,116,0,13440.000100000001,672.0001,652.0001,0.0,0.0,0.001455871463974855
joint_finetune,13,6720,-15167.006732706177,-2324.3339877673625,-31.59793069313787,-59.42396153278594,-14.96129762342872,,-14945.417130537497,,,,,,6720,336,168,0,83,0.00024401856095749617,0.05540707395378908,0.0,0.0,0.00024401855965455372,0.055407047271728516,0.0,0.0,0.000666920618228191,0.004322938155382872,0.013647894568417284,0.5603948117781898,2601.453026263999,3771.0480144407093,0.0,1.8058171658020652,0.0,0.0,0.0,0,0,6720,336,168,1724,162,164,431,41,41,1724,162,164,0,13920.000100000001,696.0001,664.0001,0.0,0.0,0.0014506769825918763
joint_finetune,14,7200,-14956.4219912972,-2034.6854517738075,-31.159212481869165,-52.38512317529467,-18.25205604233225,-14905.429511473916,-14945.417130537497,0.0,1.0,1.0,0.012247051842584277,0.5775529191272512,7200,360,180,0,82,5.928728737600842e-16,1.1129951213863744e-15,0.0,0.0,0.0,0.0,0.0,0.0,0.0007322224939178506,0.004663784988224506,0.012161314397610782,0.5892897398922318,2288.043018768761,4168.052281140372,0.0,43.436210004481765,0.0,0.0,0.0,0,0,7200,360,180,2205,210,212,552,53,53,2205,210,212,0,14400.000100000001,720.0001,676.0001,0.0,0.0,0.0014506769825918763
joint_finetune,15,7680,-15578.298242199677,-2077.5332657539175,-32.45478800458263,-54.22690322104283,-16.710267749437115,,-14945.417130537497,,,,,,7680,384,192,0,81,5.00251268604368e-16,1.1105712699557484e-15,0.0,0.0,0.0,0.0,0.0,0.0,0.0007223695349900729,0.0046627759002149105,0.013246803215778806,0.584938503694977,2633.3721123983864,4106.638506690881,0.0,16.77200467155698,0.0,0.0,0.0,0,0,7680,384,192,2686,258,260,672,65,65,2686,258,260,0,14880.000100000001,744.0001,688.0001,0.0,0.0,0.0014506769825918763
joint_finetune,16,8160,-17736.12758828582,-3050.903121040221,-36.95026580892882,-83.6968582589259,-17.931584361190257,,-14945.417130537497,,,,,,8160,408,204,0,83,6.596918932714296e-11,2.6822062126896653e-08,6.596868236859639e-11,2.60770320892334e-08,0.0,0.0,0.08760212136742969,0.702994167804718,0.0007337369209959764,0.004583975300192833,0.014467756349586153,0.6022435067875023,3320.3398016139504,4378.179981094736,19.798203415056918,967.3560657566055,0.0,0.0,0.0,0,0,8160,408,204,3167,306,308,792,77,77,3167,306,308,0,15360.000100000001,768.0001,700.0001,0.0,0.0,0.0014506769825918763
joint_finetune,17,8640,-16102.244384855496,-2521.874492408907,-33.546342468448934,-54.365755384470134,-19.43438499858048,,-14945.417130537497,,,,,,8640,432,216,0,80,1.291485849989322e-11,6.198879770602521e-09,1.815677238189058e-17,8.715250743307479e-15,0.0,0.0,0.07450415038814147,0.6531668901443481,0.0007945958853021941,0.004954393953084946,0.0135401613304043,0.581830374576711,2785.311932855048,4071.0731260749767,0.0,170.34418719637435,0.0,0.0,0.0,0,0,8640,432,216,3648,354,356,912,89,89,3648,354,356,0,15840.000100000001,792.0001,712.0001,0.0,0.0,0.0014506769825918763
joint_finetune,18,9120,-16788.855322749074,-2180.67548612773,-34.9767819223939,-49.401760685569634,-20.725635627186552,,-14945.417130537497,,,,,,9120,456,228,0,76,6.29336595192394e-16,1.1116315939048603e-15,0.0,0.0,0.0,0.0,0.0,0.0,0.0007010820977897806,0.004923662170767784,0.01490589567653983,0.5879687974228051,3396.8404342495305,4151.65575403472,0.0,95.03268375930897,0.0,0.0,0.0,0,0,9120,456,228,4129,402,404,1033,101,101,4129,402,404,0,16320.000100000001,816.0001,724.0001,0.0,0.0,0.0014506769825918763
joint_finetune,19,9600,-19134.79889706782,-2231.116560080654,-39.86416436889126,-87.72036601815743,-21.494296638378817,-19386.352431476615,-14945.417130537497,0.0,1.0,1.0,0.01920870982380163,0.586635692784562,9600,480,240,0,83,6.662065694186522e-16,1.1106620397052277e-15,0.0,0.0,0.0,0.0,0.0,0.0,0.0007421810865211723,0.004783866927027702,0.018507863942168867,0.5890027412518727,5545.16016565529,4164.097620908911,128.11586440299945,41.62632056804481,0.0,0.0,0.0,0,0,9600,480,240,4610,450,452,1153,113,113,4610,450,452,0,16800.0001,840.0001,736.0001,0.0,0.0,0.0014506769825918763
joint_finetune,20,10080,-24151.328618154643,-2505.8148245250363,-50.315267954488846,-402.65741130118175,-22.96532243944913,,-14945.417130537497,,,,,,10080,504,252,0,80,4.996388633624605e-16,1.1103097574110882e-15,0.0,0.0,0.0,0.0,0.0,0.0,0.0007037229767196219,0.0046607935801148415,0.020948168933137244,0.5854033864855439,7127.913520487736,4113.648470126426,3754.32450990751,30.8050579510667,0.0,0.0,0.0,0,0,10080,504,252,5091,498,500,1273,125,125,5091,498,500,0,17280.0001,864.0001,748.0001,0.0,0.0,0.0014506769825918763
joint_finetune,21,10560,-25842.188296953304,-2648.4340868561276,-53.83789228531935,-430.29294168638626,-24.62550690397831,,-14945.417130537497,,,,,,10560,528,264,0,89,4.765072664710101e-16,1.1103314395489662e-15,0.0,0.0,0.0,0.0,0.0,0.0,0.0007070571657757021,0.005044648423790932,0.022534701686295892,0.5842712946538492,7998.991618809496,4097.99620866015,4643.840820708583,24.256479634149393,0.0,0.0,0.0,0,0,10560,528,264,5572,546,548,1393,137,137,5572,546,548,0,17760.0001,888.0001,760.0001,0.0,0.0,0.0014506769825918763
joint_finetune,22,11040,-28720.509480343255,-2663.434720246301,-59.83439475071511,-599.2311171178476,-24.28143397754062,,-14945.417130537497,,,,,,11040,552,276,0,81,5.366281342212971e-16,1.1103100961977489e-15,0.0,0.0,0.0,0.0,0.0,0.0,0.0006839946581749246,0.004833686165511608,0.02313313318164012,0.588819868459648,8253.327254895281,4161.451116784972,7136.028963304868,40.46602384575211,0.0,0.0,0.0,0,0,11040,552,276,6053,594,596,1514,149,149,6053,594,596,0,18240.0001,912.0001,772.0001,0.0,0.0,0.0014506769825918763
joint_finetune,23,11520,-32429.513022990777,-2777.1328843175647,-67.56148546456416,-822.4580259837975,-24.110184975572704,,-14945.417130537497,,,,,,11520,576,288,0,87,5.36626029888298e-16,1.1103151779852522e-15,0.0,0.0,0.0,0.0,0.0,0.0,0.0007192679119973698,0.004885441157966852,0.023593271288687753,0.5920071429254438,8628.992932925259,4206.350453173064,10450.55165011252,48.190151466836504,0.0,0.0,0.0,0,0,11520,576,288,6534,642,644,1634,161,161,6534,642,644,0,18720.0001,936.0001,784.0001,0.0,0.0,0.0014506769825918763
joint_finetune,24,12000,-34016.662371685015,-2841.114206678427,-70.86804660767709,-937.6834608630228,-24.97018113168175,-29531.753177172668,-14945.417130537497,0.0,1.0,1.0,0.023106443479443007,0.586720847327022,12000,600,300,0,75,6.106372705764239e-16,1.1102663918650562e-15,0.0,0.0,0.0,0.0,0.0,0.0,0.000733931962961585,0.005116869695484638,0.023554777504335336,0.5886896872517633,8776.192316028455,4159.946070541097,11926.56595281187,49.83448458641295,0.0,0.0,0.0,0,0,12000,600,300,7015,690,692,1754,173,173,7015,690,692,0,19200.0001,960.0001,796.0001,0.0,0.0,0.0014506769825918763
joint_finetune,25,12480,-32873.65520634707,-2818.118608606812,-68.4867816798897,-678.4636193422045,-24.953079869267963,,-14945.417130537497,,,,,,12480,624,312,0,79,6.106357375085207e-16,1.1102880748497933e-15,0.0,0.0,0.0,0.0,0.0,0.0,0.0007319379325384613,0.00560626108199358,0.023505262031091358,0.5920942109230263,8732.655676895,4207.561803491143,10833.666269019624,47.690377656730696,0.0,0.0,0.0,0,0,12480,624,312,7496,738,740,1874,185,185,7496,738,740,0,19680.0001,984.0001,808.0001,0.0,0.0,0.0014506769825918763
joint_finetune,26,12960,-32178.620379466112,-2852.997320610762,-67.03879245722105,-493.3958692503923,-24.600614739603593,,-14945.417130537497,,,,,,12960,648,324,0,85,6.476447906067371e-16,1.1103097574110882e-15,0.0,0.0,0.0,0.0,0.0,0.0,0.0008183330223387616,0.005861394107341766,0.023880357464767948,0.5928508740320287,8965.85438491088,4218.393617253133,9868.110057215832,54.14541050378138,0.0,0.0,0.0,0,0,12960,648,324,7977,786,788,1995,197,197,7977,786,788,0,20160.0001,1008.0001,820.0001,0.0,0.0,0.0014506769825918763
joint_finetune,27,13440,-28392.009207810326,-2674.3702050669913,-59.15001918293818,-418.04395599597154,-24.595573929167276,,-14945.417130537497,,,,,,13440,672,336,0,81,5.551266519798429e-16,1.1102501293486044e-15,0.0,0.0,0.0,0.0,0.0,0.0,0.0007620429413774135,0.005484938621520996,0.023285554084005542,0.5904441276171892,8362.61538503951,4183.757955823213,6679.739819289953,28.301632332574073,0.0,0.0,0.0,0,0,13440,672,336,8458,834,836,2115,209,209,8458,834,836,0,20640.0001,1032.0001,832.0001,0.0,0.0,0.0014506769825918763
joint_finetune,28,13920,-38055.675981105764,-2920.154035820705,-79.28265829397033,-1052.5600661098836,-25.204335386230838,,-14945.417130537497,,,,,,13920,696,348,0,79,5.921329871559019e-16,1.1103314395489662e-15,0.0,0.0,0.0,0.0,0.0,0.0,0.00073115951619746,0.005465326830744743,0.02351582984648499,0.5939974161350939,8695.17459533991,4234.682057829278,15867.393156153188,61.22827474276592,0.0,0.0,0.0,0,0,13920,696,348,8939,882,884,2235,221,221,8939,882,884,0,21120.0001,1056.0001,844.0001,0.0,0.0,0.0014506769825918763
joint_finetune,29,14400,-32398.295085202786,-2854.5242311994284,-67.49644809417244,-647.5937778889091,-25.417053312657924,-31607.680510267586,-14945.417130537497,0.0,1.0,1.0,0.02337820938553915,0.5911804153966002,14400,720,360,0,79,7.586637172370325e-16,1.1103097574110882e-15,0.0,0.0,0.0,0.0,0.0,0.0,0.0007381526388185607,0.005560328718274832,0.023922434471039745,0.5909719819456509,8878.917730151737,4191.323734407923,10200.920222639086,32.78034295371756,0.0,0.0,0.0,0,0,14400,720,360,9420,930,932,2355,233,233,9420,930,932,0,21600.0001,1080.0001,856.0001,0.0,0.0,0.0014506769825918763
joint_finetune,30,14880,-29891.549502266254,-2724.902349575217,-62.27406146305472,-626.5955526901429,-26.120181335160925,,-14945.417130537497,,,,,,14880,744,372,0,81,6.106353363759374e-16,1.1102718126509393e-15,0.0,0.0,0.0,0.0,0.0,0.0,0.0006951932353496721,0.0053631337359547615,0.02346260125956304,0.5916088384522188,8606.613275430125,4200.374955210884,7967.534963939812,37.297113748156974,0.0,0.0,0.0,0,0,14880,744,372,9901,978,980,2476,245,245,9901,978,980,0,22080.0001,1104.0001,868.0001,0.0,0.0,0.0014506769825918763
joint_finetune,31,15360,-33737.584997761754,-2835.4198943217925,-70.28663541200368,-926.9819227560446,-26.461538202328104,,-14945.417130537497,,,,,,15360,768,384,0,81,5.736286616730713e-16,1.1103097574110882e-15,0.0,0.0,0.0,0.0,0.0,0.0,0.0007377041249789975,0.006181219592690468,0.023835997554320195,0.5910055975213243,8833.659399482085,4192.0068235643985,11480.940597604747,37.59872441738434,0.0,0.0,0.0,0,0,15360,768,384,10382,1026,1028,2596,257,257,10382,1026,1028,0,22560.0001,1128.0001,880.0001,0.0,0.0,0.0014506769825918763
joint_finetune,32,15840,-30199.35577987775,-2727.9162086027018,-62.915324541411955,-481.9307423922021,-25.807343258510688,,-14945.417130537497,,,,,,15840,792,396,0,75,6.846478245272678e-16,1.1102663918650562e-15,0.0,0.0,0.0,0.0,0.0,0.0,0.0006588593946203632,0.004858315922319889,0.023516350819399238,0.5902064798283031,8605.238491028049,4180.495739802526,8228.564843686432,27.939897480604863,0.0,0.0,0.0,0,0,15840,792,396,10863,1074,1076,2716,269,269,10863,1074,1076,0,23040.0001,1152.0001,892.0001,0.0,0.0,0.0014506769825918763
joint_finetune,33,16320,-33405.80129342888,-2851.740975917917,-69.5954193613102,-674.9068969816851,-24.460274063698883,,-14945.417130537497,,,,,,16320,816,408,0,83,6.476398930214569e-16,1.1102501293486044e-15,0.0,0.0,0.0,0.0,0.0,0.0,0.0006683077888076448,0.005283466540277004,0.02384481177219039,0.5923824312921195,8846.988549357566,4211.15175156516,11227.427466014746,34.65436555225044,0.0,0.0,0.0,0,0,16320,816,408,11344,1122,1124,2836,281,281,11344,1122,1124,0,23520.0001,1176.0001,904.0001,0.0,0.0,0.0014506769825918763
joint_finetune,34,16800,-37937.30203231266,-3020.1912936642325,-79.03604590065135,-747.0292257539887,-25.2787421543335,-31774.921056936277,-14945.417130537497,0.0,1.0,1.0,0.023365496285050618,0.5893166298668399,16800,840,420,0,82,6.661434737634777e-16,1.1103097574110882e-15,0.0,0.0,0.0,0.0,0.0,0.0,0.0005918785245739855,0.004554578103125095,0.024391741278837455,0.5915933631512276,9387.429158196077,4200.053754115036,15242.484045397261,33.43043557139272,0.0,0.0,0.0,0,0,16800,840,420,11825,1170,1172,2957,293,293,11825,1170,1172,0,24000.0001,1200.0001,916.0001,0.0,0.0,0.0014506769825918763
joint_finetune,35,17280,-32092.75627120072,-2749.861537633028,-66.85990889833485,-851.4590998061335,-26.524476841335783,,-14945.417130537497,,,,,,17280,864,432,0,84,6.661435090256048e-16,1.110251484567407e-15,0.0,0.0,0.0,0.0,0.0,0.0,0.000620580654040995,0.004596841987222433,0.023249899800767963,0.5889681930683068,8485.799700411662,4162.763639328472,10305.72738115414,19.558676014743956,0.0,0.0,0.0,0,0,17280,864,432,12306,1218,1220,3077,305,305,12306,1218,1220,0,24480.0001,1224.0001,928.0001,0.0,0.0,0.0014506769825918763
joint_finetune,36,17760,-34673.42954561981,-2812.133175782,-72.23631155337459,-963.251336417476,-23.18298465594949,,-14945.417130537497,,,,,,17760,888,444,0,84,5.736265779848615e-16,1.1103097574110882e-15,0.0,0.0,0.0,0.0,0.0,0.0,0.0006238114120523361,0.005037085153162479,0.023639251598017327,0.590999135476631,8855.43396649993,4191.571269041302,12485.429256547657,28.100133460725058,0.0,0.0,0.0,0,0,17760,888,444,12787,1266,1268,3197,317,317,12787,1266,1268,0,24960.0001,1248.0001,940.0001,0.0,0.0,0.0014506769825918763
joint_finetune,37,18240,-30965.0526828737,-2763.7784807349217,-64.5105264226536,-460.33589337890845,-26.986000585175077,,-14945.417130537497,,,,,,18240,912,456,0,83,5.736244260986348e-16,1.1102663918650562e-15,0.0,0.0,0.0,0.0,0.0,0.0,0.0007029759918540632,0.0059083388186991215,0.023631620379586906,0.5902504278234643,8641.394356085331,4181.031284341735,9067.825428809609,24.64993886373316,0.0,0.0,0.0,0,0,18240,912,456,13268,1314,1316,3317,329,329,13268,1314,1316,0,25440.0001,1272.0001,952.0001,0.0,0.0,0.0014506769825918763
joint_finetune,38,18720,-31050.902087944687,-2735.948403950823,-64.68937934988476,-581.6459059586462,-25.267919104006232,,-14945.417130537497,,,,,,18720,936,468,0,82,5.921275593059574e-16,1.1102663918650562e-15,0.0,0.0,0.0,0.0,0.0,0.0,0.0006208532305952923,0.005002093967050314,0.02360277154072751,0.591068440116713,8656.958744901789,4192.509745716616,9083.698830853673,28.22788037867348,0.0,0.0,0.0,0,0,18720,936,468,13749,1362,1364,3438,341,341,13749,1362,1364,0,25920.0001,1296.0001,964.0001,0.0,0.0,0.0014506769825918763
joint_finetune,39,19200,-35003.244185568896,-2862.5892603898624,-72.92342538660183,-795.0721558502693,-24.782714915371557,-33198.44115667943,-14945.417130537497,0.0,1.0,1.0,0.023226881337144484,0.5916302334935465,19200,960,480,0,85,5.921273018430163e-16,1.1103097574110882e-15,0.0,0.0,0.0,0.0,0.0,0.0,0.0006149468641855161,0.004638390615582466,0.023635128339441588,0.590274084082767,8845.615136900973,4181.376787040747,12818.375512109622,25.387819695212944,0.0,0.0,0.0,0,0,19200,960,480,14230,1410,1412,3558,353,353,14230,1410,1412,0,26400.0001,1320.0001,976.0001,0.0,0.0,0.0014506769825918763
joint_finetune,40,19680,-30057.42398108744,-2742.5900929194268,-62.61963329393218,-479.9735467586783,-25.571162757025974,,-14945.417130537497,,,,,,19680,984,492,0,78,5.921264782695673e-16,1.1102667306649492e-15,0.0,0.0,0.0,0.0,0.0,0.0,0.000576404669449072,0.004568606615066528,0.02326403150351674,0.5911682509842874,8580.897973836805,4193.866885857976,8136.445912725469,26.934159418652744,0.0,0.0,0.0,0,0,19680,984,492,14711,1458,1460,3678,365,365,14711,1458,1460,0,26880.0001,1344.0001,988.0001,0.0,0.0,0.0014506769825918763
joint_finetune,41,20160,-31715.785842387675,-2803.6836449284597,-66.07455383830761,-436.4250862627977,-26.4858303922078,,-14945.417130537497,,,,,,20160,1008,504,0,78,4.811057690379242e-16,1.1102501293486044e-15,0.0,0.0,0.0,0.0,0.0,0.0,0.0005820262515705756,0.0046317726373672485,0.023591586538427658,0.590226678005345,8687.446370001388,4180.611463265737,9646.371282719905,24.601536842412358,0.0,0.0,0.0,0,0,20160,1008,504,15192,1506,1508,3798,377,377,15192,1506,1508,0,27360.0001,1368.0001,1000.0001,0.0,0.0,0.0014506769825918763
joint_finetune,42,20640,-30733.591554127976,-2725.6471579394433,-64.02831573776659,-502.12162346052764,-24.534422429859685,,-14945.417130537497,,,,,,20640,1032,516,0,81,5.736225833770604e-16,1.1102448143338977e-15,0.0,0.0,0.0,0.0,0.0,0.0,0.000590715690949847,0.004395326133817434,0.023225713625704875,0.5894170020909768,8468.338061429811,4169.05953790854,8909.146057926191,19.365870474824963,0.0,0.0,0.0,0,0,20640,1032,516,15673,1554,1556,3919,389,389,15673,1554,1556,0,27840.0001,1392.0001,1012.0001,0.0,0.0,0.0014506769825918763
joint_finetune,43,21120,-32964.420733561696,-2817.5690502338366,-68.67587652825357,-645.2550635575726,-25.55617906750816,,-14945.417130537497,,,,,,21120,1056,528,0,82,6.47636324018656e-16,1.1103100961977489e-15,0.0,0.0,0.0,0.0,0.0,0.0,0.0006098860215967183,0.0047159744426608086,0.023780408604453428,0.5909825980368396,8779.079077575718,4191.354606867866,10751.959316495748,27.369487915066255,0.0,0.0,0.0,0,0,21120,1056,528,16154,1602,1604,4039,401,401,16154,1602,1604,0,28320.0001,1416.0001,1024.0001,0.0,0.0,0.0014506769825918763
joint_finetune,44,21600,-33386.21107638627,-2823.4499996937575,-69.55460640913807,-964.593626213001,-25.614910324578197,-33468.73086255139,-14945.417130537497,0.0,1.0,1.0,0.02333138420444859,0.5907070081573655,21600,1080,540,0,79,5.736221445630493e-16,1.1102501293486044e-15,0.0,0.0,0.0,0.0,0.0,0.0,0.0005909971150686033,0.004803006537258625,0.023207606034313613,0.5914974166832595,8588.126715654666,4198.606399825101,11409.50181551599,30.710245472326683,0.0,0.0,0.0,0,0,21600,1080,540,16635,1650,1652,4159,413,413,16635,1650,1652,0,28800.0001,1440.0001,1036.0001,0.0,0.0,0.0014497325314313347
joint_finetune,45,22080,-34197.31762163837,-2927.18888758208,-71.24441171174666,-512.6491979314877,-26.70735235338039,,-14945.417130537497,,,,,,22080,1104,552,0,77,5.921252067475684e-16,1.1102447084568522e-15,0.0,0.0,0.0,0.0,0.0,0.0,0.0006125521031208336,0.004805183969438076,0.023761438745197573,0.5919581388183831,8902.698717529165,4205.153116602275,11982.321538599463,31.605111667302463,0.0,0.0,0.0,0,0,22080,1104,552,17116,1698,1700,4279,425,425,17116,1698,1700,0,29280.0001,1464.0001,1048.0001,0.0,0.0,0.0014506769825918763
joint_finetune,46,22560,-30515.109377836987,-2769.002321120267,-63.57314453716039,-465.00711376662406,-25.508403911570095,,-14945.417130537497,,,,,,22560,1128,564,0,78,5.551163159127979e-16,1.1102450684387655e-15,0.0,0.0,0.0,0.0,0.0,0.0,0.0005735315571655519,0.004621443338692188,0.023525135164947586,0.589701360911309,8611.58781429545,4173.053796890338,8569.64879714991,19.040880588144443,0.0,0.0,0.0,0,0,22560,1128,564,17597,1746,1748,4400,437,437,17597,1746,1748,0,29760.0001,1488.0001,1060.0001,0.0,0.0,0.0014497325314313347
joint_finetune,47,23040,-30631.914212867017,-2744.2834908870577,-63.81648794347296,-560.5816126812925,-24.624510459539678,,-14945.417130537497,,,,,,23040,1152,576,0,87,5.551181297708292e-16,1.1102460636822715e-15,0.0,0.0,0.0,0.0,0.0,0.0,0.0005594724432078444,0.004472892731428146,0.023094242507968703,0.5896830829900103,8358.150438849763,4172.889125801235,8914.906009423754,21.98476572963629,0.0,0.0,0.0,0,0,23040,1152,576,18078,1794,1796,4520,449,449,18078,1794,1796,0,30240.0001,1512.0001,1072.0001,0.0,0.0,0.0014506769825918763
joint_finetune,48,23520,-29910.231555877217,-2705.7642338285873,-62.31298240807755,-458.10123311220724,-26.300542378636255,,-14945.417130537497,,,,,,23520,1176,588,0,82,4.811028876614297e-16,1.1102460636822715e-15,0.0,0.0,0.0,0.0,0.0,0.0,0.0005516192144238051,0.004462508484721184,0.022968688181472886,0.5906724467434662,8287.239350543698,4186.888429802073,8339.20983910019,26.09399644903569,0.0,0.0,0.0,0,0,23520,1176,588,18559,1842,1844,4640,461,461,18559,1842,1844,0,30720.0001,1536.0001,1084.0001,0.0,0.0,0.0014506769825918763
joint_finetune,49,24000,-37121.86489308717,-2928.816103468067,-77.3372185272649,-807.1877666714504,-26.361924713357723,-33353.491883708535,-14945.417130537497,0.0,1.0,1.0,0.023309852183825072,0.5896986418483768,24000,1200,600,0,79,5.551162114239002e-16,1.1102450472633622e-15,0.0,0.0,0.0,0.0,0.0,0.0,0.0005790394947821783,0.004698705859482288,0.023863066707008617,0.5910766369758842,8991.619029536689,4192.5631762794665,14856.887452868867,25.924926146518093,0.0,0.0,0.0,0,0,24000,1200,600,19040,1890,1892,4760,473,473,19040,1890,1892,0,31200.0001,1560.0001,1096.0001,0.0,0.0,0.0014506769825918763
joint_finetune,50,24480,-32335.359683111004,-2797.1744281407973,-67.36533267314795,-605.8373457205962,-26.08224422810511,,-14945.417130537497,,,,,,24480,1224,612,0,85,6.291303752171436e-16,1.1102460636822715e-15,0.0,0.0,0.0,0.0,0.0,0.0,0.000551932174196488,0.0044732652604579926,0.02309870412638969,0.5904139560982669,8460.753709000308,4183.156097994898,10536.659380778374,23.17705341714822,0.0,0.0,0.0,0,0,24480,1224,612,19521,1938,1940,4881,485,485,19521,1938,1940,0,31680.0001,1584.0001,1108.0001,0.0,0.0,0.0014506769825918763
joint_finetune,51,24960,-31314.25528207222,-2749.9327906181597,-65.23803183765047,-497.57935637807304,-26.166823525344434,,-14945.417130537497,,,,,,24960,1248,624,0,79,4.996056344814163e-16,1.1102460636822715e-15,0.0,0.0,0.0,0.0,0.0,0.0,0.0005635435359594835,0.004488473758101463,0.02307619717917884,0.5901987346452474,8339.36710225961,4180.101331945689,9682.573321029891,21.890375559562067,0.0,0.0,0.0,0,0,24960,1248,624,20002,1986,1988,5001,497,497,20002,1986,1988,0,32160.0001,1608.0001,1120.0001,0.0,0.0,0.0014506769825918763
joint_finetune,52,25440,-33269.05184739624,-2819.6339273574863,-69.31052468207548,-794.0478708970552,-26.817790261986474,,-14945.417130537497,,,,,,25440,1272,636,0,83,4.440945600723199e-16,1.1102298008680552e-15,0.0,0.0,0.0,0.0,0.0,0.0,0.0005902536815318109,0.004801908507943153,0.02317117906472595,0.5909922354505671,8581.397600959495,4191.363479421758,11400.164103782396,25.405148234950396,0.0,0.0,0.0,0,0,25440,1272,636,20483,2034,2036,5121,509,509,20483,2034,2036,0,32640.0001,1632.0001,1132.0001,0.0,0.0,0.0014506769825918763
joint_finetune,53,25920,-35874.80622787255,-2865.800967579769,-74.73917964140115,-1037.8242613467046,-26.200565960986918,,-14945.417130537497,,,,,,25920,1296,648,0,89,6.846412022432682e-16,1.1102460636822715e-15,0.0,0.0,0.0,0.0,0.0,0.0,0.0005333656941233626,0.0044334204867482185,0.02341294394101429,0.5906905555143742,8679.645101705675,4187.1251616986465,13871.905955827293,24.464442255751955,0.0,0.0,0.0,0,0,25920,1296,648,20964,2082,2084,5241,521,521,20964,2082,2084,0,33120.000100000005,1656.0001,1144.0001,0.0,0.0,0.0014506769825918763
joint_finetune,54,26400,-30781.83120682724,-2766.445380447511,-64.12881501422342,-531.679569810505,-26.98285266887595,-33324.410484418615,-14945.417130537497,0.0,1.0,1.0,0.023243088492258465,0.5907800421144592,26400,1320,660,0,88,5.551162252402247e-16,1.1102284456227842e-15,0.0,0.0,0.0,0.0,0.0,0.0,0.0005796060048107228,0.004546395502984524,0.023503508675865613,0.5922817594964612,8747.048961497154,4209.7070453674605,8739.684607434523,32.40663170258444,0.0,0.0,0.0,0,0,26400,1320,660,21445,2130,2132,5362,533,533,21445,2130,2132,0,33600.000100000005,1680.0001,1156.0001,0.0,0.0,0.0014506769825918763
joint_finetune,55,26880,-34427.973975479435,-2868.7045806539445,-71.72494578224881,-936.7997684959176,-25.17036239073653,,-14945.417130537497,,,,,,26880,1344,672,0,82,4.996057403032471e-16,1.1102338665939424e-15,0.0,0.0,0.0,0.0,0.0,0.0,0.0005888360948037272,0.004496382083743811,0.02329467378506665,0.5907863970755577,8585.630367465497,4188.462342567251,12453.754951935596,25.17252133834684,0.0,0.0,0.0,0,0,26880,1344,672,21926,2178,2180,5482,545,545,21926,2178,2180,0,34080.000100000005,1704.0001,1168.0001,0.0,0.0,0.0014506769825918763
joint_finetune,56,27360,-32461.177871558477,-2840.7615341620817,-67.62745389908012,-438.41058040203836,-25.456382432953397,,-14945.417130537497,,,,,,27360,1368,684,0,79,7.401524282841125e-16,1.1102447931584894e-15,0.0,0.0,0.0,0.0,0.0,0.0,0.0005582465997907672,0.004226575139909983,0.022979656433683618,0.5909890878917253,8399.6264357876,4191.3798021554285,10645.5664801981,27.261559795146294,0.0,0.0,0.0,0,0,27360,1368,684,22407,2226,2228,5602,557,557,22407,2226,2228,0,34560.000100000005,1728.0001,1180.0001,0.0,0.0,0.0014506769825918763
joint_finetune,57,27840,-32549.372871628464,-2815.789823567999,-67.81119348255929,-591.8168174736799,-26.861584487890813,,-14945.417130537497,,,,,,27840,1392,696,0,79,5.921247084961542e-16,1.110246402488368e-15,0.0,0.0,0.0,0.0,0.0,0.0,0.0005976725644193886,0.004454548470675945,0.023292284069651597,0.5914163920016346,8440.996092520096,4197.411901925457,10756.682826953524,27.900292089251195,0.0,0.0,0.0,0,0,27840,1392,696,22888,2274,2276,5722,569,569,22888,2274,2276,0,35040.000100000005,1752.0001,1192.0001,0.0,0.0,0.0014506769825918763
joint_finetune,58,28320,-34601.73291138256,-2871.3581814728254,-72.08694356538035,-765.150977738446,-25.36260759961039,,-14945.417130537497,,,,,,28320,1416,708,0,77,4.996053412364393e-16,1.1102447084568522e-15,0.0,0.0,0.0,0.0,0.0,0.0,0.0005506138007728044,0.004321560729295015,0.023449680765126765,0.5904397526839867,8710.106249190305,4183.606575803891,12590.733408150838,24.908809762712487,0.0,0.0,0.0,0,0,28320,1416,708,23369,2322,2324,5843,581,581,23369,2322,2324,0,35520.000100000005,1776.0001,1204.0001,0.0,0.0,0.0014506769825918763
joint_finetune,59,28800,-29410.403140313036,-2691.6889152211015,-61.27167320898554,-579.6680338157437,-25.57319716372622,-33081.38350074107,-14945.417130537497,0.0,1.0,1.0,0.023244273312922514,0.5895834389157084,28800,1440,720,0,82,5.921230376565671e-16,1.1102460848576557e-15,0.0,0.0,0.0,0.0,0.0,0.0,0.0006134396654405547,0.004669809713959694,0.02264875111603445,0.5908558312978891,8192.743325760417,4189.436502643615,7921.154285900178,25.963599621963418,0.0,0.0,0.0,0,0,28800,1440,720,23850,2370,2372,5963,593,593,23850,2370,2372,0,36000.000100000005,1800.0001,1216.0001,0.0,0.0,0.0014506769825918763
joint_finetune,60,29280,-37938.11196442309,-2965.723167406154,-79.03773325921482,-749.3731313740959,-25.935774069631666,,-14945.417130537497,,,,,,29280,1464,732,0,81,5.551169246243108e-16,1.1102569054260746e-15,0.0,0.0,0.0,0.0,0.0,0.0,0.0005693043752795678,0.00434574531391263,0.023702487575186507,0.5908824091974031,8819.00807818894,4189.800351659213,15772.37231973624,24.57396693294776,0.0,0.0,0.0,0,0,29280,1464,732,24331,2418,2420,6083,605,605,24331,2418,2420,0,36480.000100000005,1824.0001,1228.0001,0.0,0.0,0.0014506769825918763
joint_finetune,61,29760,-30388.99980165866,-2729.7051230041543,-63.31041625345554,-706.661373078391,-25.845132968171622,,-14945.417130537497,,,,,,29760,1488,744,0,82,5.551163605756004e-16,1.1102447084568522e-15,0.0,0.0,0.0,0.0,0.0,0.0,0.0006336911431968805,0.0047288332134485245,0.02321421029147701,0.5914298861605377,8465.689938586209,4197.590008477559,8593.665811843863,27.99807320886407,0.0,0.0,0.0,0,0,29760,1488,744,24812,2466,2468,6203,617,617,24812,2466,2468,0,36960.000100000005,1848.0001,1240.0001,0.0,0.0,0.0014506769825918763
joint_finetune,62,30240,-33637.86782259189,-2826.293287902777,-70.07889129706646,-638.1092006215356,-26.95914276918755,,-14945.417130537497,,,,,,30240,1512,756,0,83,6.291310265625274e-16,1.1102460636822715e-15,0.0,0.0,0.0,0.0,0.0,0.0,0.0005792209730398926,0.004442212171852589,0.023350384089744953,0.5915227632219746,8589.147543177705,4198.916349835932,11782.398030210457,28.787240927856594,0.0,0.0,0.0,0,0,30240,1512,756,25293,2514,2516,6324,629,629,25293,2514,2516,0,37440.000100000005,1872.0001,1252.0001,0.0,0.0,0.0014506769825918763
joint_finetune,63,30720,-38592.63831700052,-2953.0066418934884,-80.40132982708447,-979.6770005015686,-25.544594909926413,,-14945.417130537497,,,,,,30720,1536,768,0,78,5.921237868545493e-16,1.110244729632262e-15,0.0,0.0,0.0,0.0,0.0,0.0,0.0005948603806742044,0.004526256583631039,0.023624620833927655,0.5898330957382296,8920.457017589122,4174.936754375389,16397.44685715744,20.750350168704898,0.0,0.0,0.0,0,0,30720,1536,768,25774,2562,2564,6444,641,641,25774,2562,2564,0,37920.000100000005,1896.0001,1264.0001,0.0,0.0,0.0014506769825918763
joint_finetune,64,31200,-31777.371621170652,-2767.2883993401942,-66.20285754410548,-763.0500685822612,-28.152830170291864,-33580.14891227772,-14945.417130537497,0.0,1.0,1.0,0.023304506518121108,0.5903077848217096,31200,1560,780,0,77,6.476346633517695e-16,1.1102342054037608e-15,0.0,0.0,0.0,0.0,0.0,0.0,0.0006132479518948293,0.004595533013343811,0.023067482276256324,0.5911854502633168,8389.529040435447,4194.133330271999,10109.400376914187,27.150367834617796,0.0,0.0,0.0,0,0,31200,1560,780,26255,2610,2612,6564,653,653,26255,2610,2612,0,38400.000100000005,1920.0001,1276.0001,0.0,0.0,0.0014506769825918763
joint_finetune,65,31680,-30930.936352976907,-2750.185388094069,-64.43945073536855,-510.8324898930224,-27.886297564068627,,-14945.417130537497,,,,,,31680,1584,792,0,82,6.106278206264269e-16,1.1102501293486044e-15,0.0,0.0,0.0,0.0,0.0,0.0,0.0005913787192019464,0.0041536809876561165,0.02380997619767855,0.5922523302335699,8737.474566602144,4209.280858252669,8843.971119436992,31.709322452906346,0.0,0.0,0.0,0,0,31680,1584,792,26736,2658,2660,6684,665,665,26736,2658,2660,0,38880.000100000005,1944.0001,1288.0001,0.0,0.0,0.0014506769825918763
joint_finetune,66,32160,-32433.908137435625,-2795.639538541557,-67.57064195299085,-676.6887504001052,-27.31267798194542,,-14945.417130537497,,,,,,32160,1608,804,0,82,6.84641291431814e-16,1.1102501293486044e-15,0.0,0.0,0.0,0.0,0.0,0.0,0.000568321237964979,0.004445236176252365,0.023250332048493253,0.5910612842710885,8483.985273353104,4192.369060071253,10614.02862029923,25.354253250695844,0.0,0.0,0.0,0,0,32160,1608,804,27217,2706,2708,6805,677,677,27217,2706,2708,0,39360.000100000005,1968.0001,1300.0001,0.0,0.0,0.0014506769825918763
joint_finetune,67,32640,-34616.79680683127,-2840.6533792447603,-72.11832668089852,-676.4795928389257,-26.807110486187057,,-14945.417130537497,,,,,,32640,1632,816,0,78,4.440953440825471e-16,1.110233887769559e-15,0.0,0.0,0.0,0.0,0.0,0.0,0.0005629914945033802,0.004527308978140354,0.023579097952881625,0.591198432344611,8746.58343763269,4194.293396362082,12532.381138186189,25.661735168975113,0.0,0.0,0.0,0,0,32640,1632,816,27698,2754,2756,6925,689,689,27698,2754,2756,0,39840.000100000005,1992.0001,1312.0001,0.0,0.0,0.0014506769825918763
joint_finetune,68,33120,-33226.94845871544,-2774.836020531636,-69.22280928899049,-866.9220907578481,-25.60115966921088,,-14945.417130537497,,,,,,33120,1656,828,0,88,4.811021912523131e-16,1.1102447084568522e-15,0.0,0.0,0.0,0.0,0.0,0.0,0.000584103002355815,0.004422356374561787,0.02360002589491399,0.590369723989446,8795.873658659175,4182.535009753821,11223.078844792277,22.595610952644705,0.0,0.0,0.0,0,0,33120,1656,828,28179,2802,2804,7045,701,701,28179,2802,2804,0,40320.000100000005,2016.0001,1324.0001,0.0,0.0,0.0014506769825918763
joint_finetune,69,33600,-34997.90183982433,-2927.4847830385843,-72.91229549963398,-619.3598912488953,-24.720497070315634,-33225.578473605055,-14945.417130537497,0.0,1.0,1.0,0.023272824556714783,0.5896334329649658,33600,1680,840,0,87,5.366136522877973e-16,1.1102501293486044e-15,0.0,0.0,0.0,0.0,0.0,0.0,0.0005521972277413377,0.004460872616618872,0.02357484900524652,0.590960332034307,8782.897405028163,4190.923058784371,12860.989671581745,25.52601602034588,0.0,0.0,0.0,0,0,33600,1680,840,28660,2850,2852,7165,713,713,28660,2850,2852,0,40800.000100000005,2040.0001,1336.0001,0.0,0.0,0.0014506769825918763
joint_finetune,70,34080,-29582.97934111508,-2702.682911749913,-61.63120696065641,-401.8029276592145,-26.470578174722085,,-14945.417130537497,,,,,,34080,1704,852,0,83,5.921236427636673e-16,1.1102301396791145e-15,0.0,0.0,0.0,0.0,0.0,0.0,0.0005760138351020446,0.004329846240580082,0.02348014749970932,0.5902940314849067,8561.441482274906,4181.464862848956,7750.102204771863,22.35469681538969,0.0,0.0,0.0,0,0,34080,1704,852,29141,2898,2900,7286,725,725,29141,2898,2900,0,41280.000100000005,2064.0001,1348.0001,0.0,0.0,0.0014506769825918763
joint_finetune,71,34560,-35643.29335572847,-2872.493574481367,-74.25686115776763,-718.7207571422567,-26.770709756560468,,-14945.417130537497,,,,,,34560,1728,864,0,83,6.661372326985621e-16,1.1102460636822715e-15,0.0,0.0,0.0,0.0,0.0,0.0,0.0006153787818964867,0.004700406454503536,0.02352653549193375,0.5908974465342248,8686.237152873617,4190.075515183208,13575.6448719647,26.320734683910718,0.0,0.0,0.0,0,0,34560,1728,864,29622,2946,2948,7406,737,737,29622,2946,2948,0,41760.000100000005,2088.0001,1360.0001,0.0,0.0,0.0014506769825918763
joint_finetune,72,35040,-34237.680016231236,-2862.0958432139,-71.32850003381502,-686.5032696564894,-26.884452067817424,,-14945.417130537497,,,,,,35040,1752,876,0,82,5.551156489811106e-16,1.1102338665939424e-15,0.0,0.0,0.0,0.0,0.0,0.0,0.0005524634312182156,0.004438101314008236,0.023470799078967965,0.5908501438094921,8655.948084303642,4189.385749572214,12289.228461729965,25.78588646535859,0.0,0.0,0.0,0,0,35040,1752,876,30103,2994,2996,7526,749,749,30103,2994,2996,0,42240.000100000005,2112.0001,1372.0001,0.0,0.0,0.0014506769825918763
joint_finetune,73,35520,-34164.48411595093,-2870.8844181471504,-71.17600857489779,-541.6752156344604,-26.66249505309684,,-14945.417130537497,,,,,,35520,1776,888,0,77,5.551173443126504e-16,1.1102460636822715e-15,0.0,0.0,0.0,0.0,0.0,0.0,0.0005457545425584117,0.004357503727078438,0.023752733872607443,0.5900630546964194,8852.855880044317,4178.175167261655,12062.105635095677,20.576578484054263,0.0,0.0,0.0,0,0,35520,1776,888,30584,3042,3044,7646,761,761,30584,3042,3044,0,42720.000100000005,2136.0001,1384.0001,0.0,0.0,0.0014506769825918763
joint_finetune,74,36000,-32986.41629101556,-2811.23518672171,-68.72170060628241,-673.6006654175272,-25.83524394819504,-33507.456402901014,-14945.417130537497,0.0,1.0,1.0,0.023323877056711375,0.5900058123903928,36000,1800,900,0,82,5.736193371910266e-16,1.1102447084568522e-15,0.0,0.0,0.0,0.0,0.0,0.0,0.000561114475369157,0.00445247907191515,0.023406610362544898,0.5903343279216451,8703.56427219138,4182.049282384323,11026.372596281562,23.18000410525706,0.0,0.0,0.0,0,0,36000,1800,900,31065,3090,3092,7767,773,773,31065,3090,3092,0,43200.000100000005,2160.0001,1396.0001,0.0,0.0,0.0014506769825918763
joint_finetune,75,36480,-31807.416304828046,-2754.514556760308,-66.26545063505843,-686.8458961122917,-26.67768290451591,,-14945.417130537497,,,,,,36480,1824,912,0,86,4.440939791913951e-16,1.1102501293486044e-15,0.0,0.0,0.0,0.0,0.0,0.0,0.0005502806095385247,0.004277277272194624,0.023678416624019587,0.5914486242668541,8756.102324674022,4197.851450512305,9806.29050048281,28.564566489406854,0.0,0.0,0.0,0,0,36480,1824,912,31546,3138,3140,7887,785,785,31546,3138,3140,0,43680.000100000005,2184.0001,1408.0001,0.0,0.0,0.0014506769825918763
joint_finetune,76,36960,-35837.2189114711,-2861.5095707818423,-74.66087273223144,-804.07928316766,-26.667054020019204,,-14945.417130537497,,,,,,36960,1848,924,0,79,5.736196376325517e-16,1.1102298008680552e-15,0.0,0.0,0.0,0.0,0.0,0.0,0.0005358086339335634,0.004376011900603771,0.02376030558600994,0.5914430208422287,8800.056674755888,4197.7614272018955,13689.401162087872,27.558380023207178,0.0,0.0,0.0,0,0,36960,1848,924,32027,3186,3188,8007,797,797,32027,3186,3188,0,44160.000100000005,2208.0001,1420.0001,0.0,0.0,0.0014506769825918763
joint_finetune,77,37440,-31813.437328495394,-2765.8073646338344,-66.27799443436541,-574.9718726903939,-25.89715186827458,,-14945.417130537497,,,,,,37440,1872,936,0,87,6.476331216534961e-16,1.1102501293486044e-15,0.0,0.0,0.0,0.0,0.0,0.0,0.0005496874992703935,0.004321267828345299,0.02354964372881118,0.5905338126642048,8598.380584314777,4184.917065016228,9856.49327025962,24.8107172367746,0.0,0.0,0.0,0,0,37440,1872,936,32508,3234,3236,8127,809,809,32508,3234,3236,0,44640.000100000005,2232.0001,1432.0001,0.0,0.0,0.0014506769825918763
joint_finetune,78,37920,-29830.362332197023,-2692.289898800058,-62.14658819207708,-461.7114727383929,-26.354017390269817,,-14945.417130537497,,,,,,37920,1896,948,0,82,4.440944110700891e-16,1.1102298008680552e-15,0.0,0.0,0.0,0.0,0.0,0.0,0.0005911824568598108,0.0043442510068416595,0.023269355941630144,0.5898894978188364,8427.166858937479,4175.741023019504,8126.218948976474,20.980327086116123,0.0,0.0,0.0,0,0,37920,1896,948,32989,3282,3284,8248,821,821,32989,3282,3284,0,45120.000100000005,2256.0001,1444.0001,0.0,0.0,0.0014506769825918763
joint_finetune,79,38400,-26914.95016620186,-2614.859041720962,-56.072812846253846,-372.2977829641591,-26.068483987746774,-33594.970528491795,-14945.417130537497,0.0,1.0,1.0,0.02323944812159148,0.5902194242195747,38400,1920,960,0,84,6.476351996000094e-16,1.1102447931584894e-15,0.0,0.0,0.0,0.0,0.0,0.0,0.000568626560958695,0.004561221227049828,0.02263205890619268,0.5912584534606061,8044.717981614483,4195.159051604099,5482.4917647680295,26.90145497386687,0.0,0.0,0.0,0,0,38400,1920,960,33470,3330,3332,8368,833,833,33470,3330,3332,0,45600.000100000005,2280.0001,1456.0001,0.0,0.0,0.0014506769825918763
joint_finetune,80,38880,-29477.115263393483,-2709.6874508292794,-61.41065679873639,-382.9820143032576,-26.12202982432431,,-14945.417130537497,,,,,,38880,1944,972,0,83,6.661377841571678e-16,1.1102447084568522e-15,0.0,0.0,0.0,0.0,0.0,0.0,0.0005313509483874606,0.004262900911271572,0.022888974638149207,0.5898294164282328,8211.916210992531,4174.90798734686,7984.282169483471,21.58579497084125,0.0,0.0,0.0,0,0,38880,1944,972,33951,3378,3380,8488,845,845,33951,3378,3380,0,46080.000100000005,2304.0001,1468.0001,0.0,0.0,0.0014506769825918763
joint_finetune,81,39360,-37119.193196221044,-2904.4360260441777,-77.33165249212718,-894.6078192847993,-26.08413204613822,,-14945.417130537497,,,,,,39360,1968,984,0,78,5.181103804081711e-16,1.1102447084568522e-15,0.0,0.0,0.0,0.0,0.0,0.0,0.0005696132876354651,0.004493586253374815,0.0232471814867976,0.5901894718726479,8716.762262251845,4180.000052487174,15116.892045630346,22.447607152265245,0.0,0.0,0.0,0,0,39360,1968,984,34432,3426,3428,8608,857,857,34432,3426,3428,0,46560.000100000005,2328.0001,1480.0001,0.0,0.0,0.0014506769825918763
joint_finetune,82,39840,-38509.55647692367,-3021.8043199075937,-80.22824266025764,-618.3220727734123,-24.1578274848556,,-14945.417130537497,,,,,,39840,1992,996,0,77,5.366145964530387e-16,1.1102450472633622e-15,0.0,0.0,0.0,0.0,0.0,0.0,0.0005180273973647589,0.004095422104001045,0.023803168797061583,0.589847740369168,9088.823409111174,4175.176895075442,16125.748507355609,20.941844513864023,0.0,0.0,0.0,0,0,39840,1992,996,34913,3474,3476,8729,869,869,34913,3474,3476,0,47040.000100000005,2352.0001,1492.0001,0.0,0.0,0.0014506769825918763
joint_finetune,83,40320,-38677.896901802334,-2974.89094108776,-80.57895187875489,-905.8697646608324,-25.68070570849389,,-14945.417130537497,,,,,,40320,2016,1008,0,75,6.476343226131553e-16,1.1102501293486044e-15,0.0,0.0,0.0,0.0,0.0,0.0,0.0005850670879061164,0.004549238830804825,0.023406367717906853,0.5900176401782609,8753.77670656491,4177.546266866339,16591.436870211423,20.983550684277567,0.0,0.0,0.0,0,0,40320,2016,1008,35394,3522,3524,8849,881,881,35394,3522,3524,0,47520.000100000005,2376.0001,1504.0001,0.0,0.0,0.0014506769825918763
joint_finetune,84,40800,-32181.136714886612,-2750.36477835503,-67.0440348226804,-793.2314836016842,-26.304470770080275,-33468.1642215704,-14945.417130537497,0.0,1.0,1.0,0.02331214413088098,0.5897112794539804,40800,2040,1020,0,87,5.736194761579535e-16,1.1102460636822715e-15,0.0,0.0,0.0,0.0,0.0,0.0,0.0005637497220463542,0.004379680845886469,0.02317579419315473,0.5918727059220106,8398.786091139573,4203.92209981118,10445.134042290872,31.008371164295394,0.0,0.0,0.0,0,0,40800,2040,1020,35875,3570,3572,8969,893,893,35875,3570,3572,0,48000.000100000005,2400.0001,1516.0001,0.0,0.0,0.0014506769825918763
joint_finetune,85,41280,-32172.43642258651,-2831.418104583391,-67.02590921372186,-481.08521231709557,-27.451845421202727,,-14945.417130537497,,,,,,41280,2064,1032,0,78,5.921240694839901e-16,1.1102447084568522e-15,0.0,0.0,0.0,0.0,0.0,0.0,0.0005256229646461593,0.0041455961763858795,0.024068848988367555,0.5907480747236353,8997.486385992706,4187.907170462042,9835.722583169674,24.545413515737472,0.0,0.0,0.0,0,0,41280,2064,1032,36356,3618,3620,9089,905,905,36356,3618,3620,0,48480.000100000005,2424.0001,1528.0001,0.0,0.0,0.0014506769825918763
joint_finetune,86,41760,-31297.73078080525,-2777.141946308075,-65.20360579334434,-564.7395447297677,-26.556782095320237,,-14945.417130537497,,,,,,41760,2088,1044,0,82,5.181097768774863e-16,1.1102298008680552e-15,0.0,0.0,0.0,0.0,0.0,0.0,0.0005801446962075054,0.004231976345181465,0.023637439310334865,0.5903014334063948,8638.737807256608,4181.5423635720645,9351.080920093655,21.8716163227972,0.0,0.0,0.0,0,0,41760,2088,1044,36837,3666,3668,9210,917,917,36837,3666,3668,0,48960.000100000005,2448.0001,1540.0001,0.0,0.0,0.0014506769825918763
joint_finetune,87,42240,-30691.253145406565,-2729.712330049605,-63.94011071959699,-543.9624142861952,-26.0319971076967,,-14945.417130537497,,,,,,42240,2112,1056,0,80,5.551153314515563e-16,1.1102447084568522e-15,0.0,0.0,0.0,0.0,0.0,0.0,0.0006088989850302988,0.004625364206731319,0.023366111079653307,0.5893154316137276,8488.772117657616,4167.616827025671,8980.293542742891,17.792377199564072,0.0,0.0,0.0,0,0,42240,2112,1056,37318,3714,3716,9330,929,929,37318,3714,3716,0,49440.000100000005,2472.0001,1552.0001,0.0,0.0,0.0014506769825918763
joint_finetune,88,42720,-34453.13052282649,-2863.3240968638393,-71.77735525588852,-533.1423116007978,-27.429137426896773,,-14945.417130537497,,,,,,42720,2136,1068,0,80,4.440945864799327e-16,1.1102447084568522e-15,0.0,0.0,0.0,0.0,0.0,0.0,0.000568770923233718,0.004363803192973137,0.02343071093495412,0.5908201713689484,8613.964824402685,4188.936156972366,12433.164824509247,24.439950853646007,0.0,0.0,0.0,0,0,42720,2136,1068,37799,3762,3764,9450,941,941,37799,3762,3764,0,49920.000100000005,2496.0001,1564.0001,0.0,0.0,0.0014506769825918763
joint_finetune,89,43200,-35095.37925056319,-2804.5887267530156,-73.1153734386733,-906.3889036495706,-25.954390617831642,-32883.502418964184,-14945.417130537497,0.0,1.0,1.0,0.02323201085428181,0.5907152304851877,43200,2160,1080,0,83,6.291303399436348e-16,1.110250214049828e-15,0.0,0.0,0.0,0.0,0.0,0.0,0.000551873220749919,0.004097142722457647,0.023274172157978577,0.5911681197393184,8555.391258607126,4193.838571678088,13167.926331852761,25.673438189107035,0.0,0.0,0.0,0,0,43200,2160,1080,38280,3810,3812,9570,953,953,38280,3810,3812,0,50400.000100000005,2520.0001,1576.0001,0.0,0.0,0.0014506769825918763
joint_finetune,90,43680,-27912.534458821123,-2662.5760761036945,-58.151113455877315,-304.67764861642246,-26.475329587917404,,-14945.417130537497,,,,,,43680,2184,1092,0,82,4.440942546536455e-16,1.1102501294313206e-15,0.0,0.0,0.0,0.0,0.0,0.0,0.0005309116002701393,0.004186748992651701,0.023451139381487605,0.5919642815064982,8500.312469925138,4205.119541400826,6036.433680276018,29.035815819257017,0.0,0.0,0.0,0,0,43680,2184,1092,38761,3858,3860,9691,965,965,38761,3858,3860,0,50880.000100000005,2544.0001,1588.0001,0.0,0.0,0.0014506769825918763
joint_finetune,91,44160,-33904.86244551237,-2848.3111719158574,-70.63513009481744,-753.2916975009257,-27.419864082993765,,-14945.417130537497,,,,,,44160,2208,1104,0,79,4.996058577131596e-16,1.1102460636822715e-15,0.0,0.0,0.0,0.0,0.0,0.0,0.0005297620776797306,0.004004264250397682,0.02403568499710577,0.5912334596858912,9010.444100101327,4194.813864379995,11551.174180189604,27.136802187118867,0.0,0.0,0.0,0,0,44160,2208,1104,39242,3906,3908,9811,977,977,39242,3906,3908,0,51360.000100000005,2568.0001,1600.0001,0.0,0.0,0.0014506769825918763
joint_finetune,92,44640,-34113.50272000224,-2842.9147524950504,-71.069797333338,-640.1444652437514,-25.483173766376012,,-14945.417130537497,,,,,,44640,2232,1116,0,82,6.846417399896586e-16,1.1102501293486044e-15,0.0,0.0,0.0,0.0,0.0,0.0,0.000574615045810457,0.004348469898104668,0.02333118632944062,0.5899699100828456,8570.826043802099,4176.862993227336,12126.911865408245,21.064276272960047,0.0,0.0,0.0,0,0,44640,2232,1116,39723,3954,3956,9931,989,989,39723,3954,3956,0,51840.000100000005,2592.0001,1612.0001,0.0,0.0,0.0014506769825918763
joint_finetune,93,45120,-30443.83294289151,-2723.1053019486562,-63.42465196435731,-544.0906448933572,-26.201870242777844,,-14945.417130537497,,,,,,45120,2256,1128,0,80,6.291311893373838e-16,1.1102460636822715e-15,0.0,0.0,0.0,0.0,0.0,0.0,0.0005304014656840908,0.004250343888998032,0.023136044456193366,0.5905117062060453,8436.638931547228,4184.605657645298,8780.184202089422,25.08218120854965,0.0,0.0,0.0,0,0,45120,2256,1128,40204,4002,4004,10051,1001,1001,40204,4002,4004,0,52320.000100000005,2616.0001,1624.0001,0.0,0.0,0.0014506769825918763
joint_finetune,94,45600,-38152.17795213271,-2958.3556507608846,-79.48370406694318,-831.3924718610784,-26.375378080940084,-33430.84911358199,-14945.417130537497,0.0,1.0,1.0,0.0232603852081202,0.5898118771953809,45600,2280,1140,0,77,5.18108596213984e-16,1.1102447084568522e-15,0.0,0.0,0.0,0.0,0.0,0.0,0.000526879330705428,0.004231379367411137,0.023567214909851284,0.5910912590534296,8859.720225840332,4192.800034351827,15858.150477060093,26.981931884944938,0.0,0.0,0.0,0,0,45600,2280,1140,40685,4050,4052,10172,1013,1013,40685,4050,4052,0,52800.000100000005,2640.0001,1636.0001,0.0,0.0,0.0014506769825918763
joint_finetune,95,46080,-31850.014802915863,-2775.888005682501,-66.35419750607474,-580.3165944601105,-27.18697056771664,,-14945.417130537497,,,,,,46080,2304,1152,0,78,6.291297816464195e-16,1.1102501293486044e-15,0.0,0.0,0.0,0.0,0.0,0.0,0.0005278326279949397,0.004050891380757093,0.02358428848986321,0.590576916863025,8713.40124879039,4185.491460407093,9860.883576692126,23.394409692953015,0.0,0.0,0.0,0,0,46080,2304,1152,41166,4098,4100,10292,1025,1025,41166,4098,4100,0,53280.000100000005,2664.0001,1648.0001,0.0,0.0,0.0014506769825918763
joint_finetune,96,46560,-34094.18387505348,-2836.635850101857,-71.02954973969469,-635.6052853982231,-25.79528475174439,,-14945.417130537497,,,,,,46560,2328,1164,0,78,5.551178266137514e-16,1.1102447084568522e-15,0.0,0.0,0.0,0.0,0.0,0.0,0.0005336647875744595,0.003988347016274929,0.023266430837449163,0.5900607324692667,8548.013165881881,4178.216587266964,12142.553898411672,22.13333509131659,0.0,0.0,0.0,0,0,46560,2328,1164,41647,4146,4148,10412,1037,1037,41647,4146,4148,0,53760.000100000005,2688.0001,1660.0001,0.0,0.0,0.0014506769825918763
joint_finetune,97,47040,-29664.951218067683,-2700.404123469158,-61.80198170430764,-549.237632288219,-25.731676248689375,,-14945.417130537497,,,,,,47040,2352,1176,0,82,5.921235776275682e-16,1.1102447084568522e-15,0.0,0.0,0.0,0.0,0.0,0.0,0.0005091362876224924,0.0038692797534167767,0.02324660454512722,0.5909585198599345,8373.955310464924,4190.912909617888,8027.639662721015,26.424659249438683,0.0,0.0,0.0,0,0,47040,2352,1176,42128,4194,4196,10532,1049,1049,42128,4194,4196,0,54240.000100000005,2712.0001,1672.0001,0.0,0.0,0.0014506769825918763
joint_finetune,98,47520,-33765.45495291452,-2870.951634997984,-70.34469781857192,-658.1284321726539,-26.489468933465343,,-14945.417130537497,,,,,,47520,2376,1188,0,83,5.551161827157766e-16,1.110244729632262e-15,0.0,0.0,0.0,0.0,0.0,0.0,0.0005087776808068156,0.004002189263701439,0.023948176705479725,0.5898659185917429,8932.628007067087,4175.382095728993,11529.860112537499,20.592911604851402,0.0,0.0,0.0,0,0,47520,2376,1188,42609,4242,4244,10653,1061,1061,42609,4242,4244,0,54720.000100000005,2736.0001,1684.0001,0.0,0.0,0.0014506769825918763
joint_finetune,99,48000,-31646.319322477775,-2754.6064919096057,-65.92983192182871,-629.8301715188985,-26.81186839031878,-33431.67138870997,-14945.417130537497,0.0,1.0,1.0,0.023329624093739208,0.5906617954819939,48000,2400,1200,0,83,6.291308318725875e-16,1.1102501293486044e-15,0.0,0.0,0.0,0.0,0.0,0.0,0.0005078683521291664,0.004030888434499502,0.023409810237444487,0.5910621027228565,8663.960977390865,4192.403836605398,9728.246333790516,26.845290336318858,0.0,0.0,0.0,0,0,48000,2400,1200,43090,4290,4292,10773,1073,1073,43090,4290,4292,0,55200.000100000005,2760.0001,1696.0001,0.0,0.0,0.0014506769825918763
